jiy0ungkim/mecha_lerobot/ik_csv/0621/141643.csv
stamp,frame,ik_ok,ik_error_m,target_x,target_y,target_z,actual_ee_x,actual_ee_y,actual_ee_z,target_shoulder_pan_rad,actual_shoulder_pan_rad,target_shoulder_lift_rad,actual_shoulder_lift_rad,target_elbow_flex_rad,actual_elbow_flex_rad,target_wrist_flex_rad,actual_wrist_flex_rad,target_wrist_roll_rad,actual_wrist_roll_rad,target_gripper_rad,actual_gripper_rad
1782019003.5684025,0,1,1.4037640209756063e-07,0.18,0.0,0.13470588235294118,0.20860471678676187,0.12235511338193841,0.12354671049896576,-0.0001404403828852446,-0.5876581129791897,-1.4246442581510874,-1.6701458380622662,0.7753390459563527,1.6755160819145565,1.375998893215483,0.08055365778435367,0.0012047391550493757,-1.4783514147661858,0.0,0.07751952262287029
1782019003.5887196,1,1,5.936940921538637e-05,0.18,1.458399010241918e-06,0.1347653323885074,0.20860471678676187,0.12235511338193841,0.12354671049896576,-0.0001404403828852446,-0.5876581129791897,-1.4246442581510874,-1.6701458380622662,0.7753390459563527,1.6755160819145565,1.375998893215483,0.08055365778435367,0.0012047391550493757,-1.4783514147661858,0.0,0.07751952262287029
1782019003.629367,2,1,1.4410016840079035e-05,0.18,1.1649929437829385e-05,0.1349429891188504,0.2086981306304544,0.12202297658344642,0.12203310908602724,-0.0002135546348117058,-0.586123757592821,-1.425167874603886,-1.6655427719031601,0.7745635340355757,1.6709130157554504,1.3760008515464655,0.0928285008753028,0.0012005986194874934,-1.4660765716752369,0.0,0.07181955772412982
1782019003.6561832,3,1,2.0346645454543442e-05,0.18,3.922157548604358e-05,0.13523678067339548,0.21192356282431557,0.11683022443349181,0.11726525087369345,-0.0003947341571711816,-0.5569710052518169,-1.4258732280363606,-1.640993085721262,0.773552433647859,1.6540351065053955,1.3760723070429663,0.12504996398904428,0.001190458057029642,-1.4353894639478642,0.0,0.05585965600765653
1782019003.6915574,4,1,2.8353781472749804e-05,0.18,9.264880009687977e-05,0.1356432813518373,0.21864408324080786,0.10438240803648152,0.1101713835685632,-0.0007502088653798295,-0.4894593682515966,-1.4268489045863118,-1.5734814487210418,0.7721557643439194,1.595729601823387,1.3761715825827983,0.19869902253473906,0.0011705635270101236,-1.363274760788538,0.0,0.03647977535193896
1782019003.7248013,5,1,3.645929908647275e-05,0.18,0.00018015171036642137,0.13615775236326277,0.2268735266235699,0.08626815053703807,0.11198425210721864,-0.0013389285112419577,-0.39432933429674083,-1.4280890572518414,-1.516710299425402,0.7703837050882338,1.500599567868531,1.3762981584905019,0.2953634118759635,0.0011376169968950157,-1.2635416606745762,0.0,0.02849982449370231
1782019003.7582483,6,1,4.4370330262722346e-05,0.18,0.0003096135150373797,0.13677419809295957,0.23270775951584688,0.06489349711489328,0.1173757406147791,-0.002216923163194228,-0.2884588126373046,-1.4295767131406654,-1.47374834860708,0.7682591805454765,1.3839885585045146,1.3764429171354446,0.4242492643309293,0.0010884771593841118,-1.1361901636059788,0.0,0.02621983853420613
1782019003.7917922,7,1,5.2034481839811354e-05,0.18,0.0004885020063135433,0.13748543714227515,0.2342940403845371,0.043998718883487,0.12642277932249657,-0.003437290318910069,-0.1887257125233429,-1.4312900419834,-1.4538017285842877,0.7658106500760589,1.2643088383677605,1.3765929431432982,0.5608068937177384,0.0010201639033611321,-0.9965638234464326,0.0,0.02507984555445803
1782019003.826734,8,1,5.9464764184039045e-05,0.18,0.0007237947713632435,0.13828318719009136,0.23015027308533836,0.028866941138937265,0.1393120710798052,-0.005049720692608161,-0.11967972013675401,-1.4332035874850142,-1.444595596266076,0.7630709748933944,1.1246824982082142,1.3767334039060466,0.7188454985137085,0.0009298863743426347,-0.8400595740368312,0.0,0.02393985257470994
1782019003.863046,9,1,6.670498040675924e-05,0.18,0.001021908805732097,0.1391581625414053,0.22073679542708668,0.020554572792190674,0.14792216117653373,-0.007099997518283368,-0.08592390163664392,-1.4352888234064063,-1.4491986624251818,0.7600767851139215,1.001934067298723,1.3768483831907221,0.8860902356278904,0.0008150716533009235,-0.6712804815362806,0.0,0.02279985959496185
1782019003.8935165,10,1,7.38191087438084e-05,0.18,0.0013886351617634685,0.14010018306177166,0.21086524664393635,0.01634802049516754,0.1482678337959878,-0.009629520147569078,-0.07211470315932615,-1.4375146088624773,-1.4553360839706564,0.7568678952708942,0.9282850087530281,1.3769214856386232,1.0211135096283308,0.000673391968552464,-0.5224480090585224,0.0,0.021659866615213758
1782019003.9281423,11,1,8.088387188487066e-05,0.18,0.001829079220375654,0.14109829304835153,0.20070475198394225,0.01227069571473819,0.1449313490270446,-0.012674860047547629,-0.058305504682008374,-1.4398476473021045,-1.456870439357025,0.7534867058376061,0.8730482148437569,1.3769363803303534,1.1453962959241906,0.0005027902054422636,-0.3674781150352896,0.0,0.02051987363546566
1782019003.9614305,12,1,8.79806566926288e-05,0.18,0.002347607124564875,0.14214088846111986,0.192729644748081,0.009451994736567375,0.14034171433975356,-0.016267352431235692,-0.04909937236379653,-1.442252963753093,-1.4553360839706564,0.7499775887574177,0.8423611071163841,1.376877301905821,1.234388908333572,0.0003015035961284418,-0.24319532873942967,0.0,0.02051987363546566
1782019004.0000908,13,1,9.5186719829181e-05,0.18,0.0029477988582366638,0.14321585083319718,0.18731844014667093,0.00797044007916754,0.1367407070401486,-0.02043272624953895,-0.04603066159105924,-1.4446943957909721,-1.452267373197919,0.7463862668025627,0.8254831978663291,1.376729498038971,1.2911600576292115,6.808547859334557e-05,-0.14499658401183663,0.0,0.02051987363546566
1782019004.030303,14,1,3.7931974296656394e-06,0.18,0.0036324083949010235,0.1443106860987377,0.18485271786159674,0.006846955428421651,0.13582354378150424,-0.025768039543718656,-0.04142759543195332,-1.447399429051891,-1.4507330178115505,0.7425327114585804,0.8147427101617485,1.3767768042486677,1.3172440991974785,-0.0002305895897097879,-0.10203463319351465,0.0,0.02051987363546566
1782019004.0630193,15,1,9.866702036888144e-05,0.18,0.004403331277923562,0.14541266652141444,0.18273342050142355,0.006284508290597226,0.13549453741332795,-0.030620190117116333,-0.03989324004558467,-1.4495812692148786,-1.452267373197919,0.739114829842128,0.8055365778435367,1.3761826712466625,1.3387250746066395,-0.0005028835627781952,-0.06981317007977318,0.0,0.02051987363546566
1782019004.1023676,16,1,3.849219825215494e-06,0.18,0.0052615799279632286,0.14650897387700496,0.18134642886897837,0.006047676748198616,0.1369106110734229,-0.03725704199276806,-0.03989324004558467,-1.4520930489261192,-1.4538017285842877,0.7353810595180941,0.791727379366219,1.3758596625437816,1.3540686284703258,-0.000874658336408987,-0.04679783928424356,0.0,0.02051987363546566
1782019004.1339965,17,1,3.538022709448871e-06,0.18,0.00620726690453391,0.14758684204022926,0.1806456532983052,0.005910682711850889,0.13735697612037712,-0.0439242662119414,-0.03989324004558467,-1.4542855344399164,-1.4538017285842877,0.7319403392829359,0.7855899578207445,1.3752006856523347,1.3617404054021693,-0.0012484396344328483,-0.03298864080692579,0.0,0.02051987363546566
1782019004.16818,18,1,3.6760975611207727e-06,0.18,0.007239596277911909,0.1486336971487592,0.18023287012176611,0.006038802454440972,0.13782585504445274,-0.0511958772379987,-0.04142759543195332,-1.4563261605650495,-1.4538017285842877,0.7286495869362619,0.7809868916616384,1.374396502392549,1.3663434715612752,-0.0016560631695373676,-0.02378250848871394,0.0,0.02051987363546566
1782019004.2017298,19,1,3.842771697324229e-06,0.18,0.008356863195501697,0.1496372935657659,0.18011873650213076,0.006202740022705023,0.13831794648874923,-0.059059875356968945,-0.04296195081832196,-1.4581837503742334,-1.4538017285842877,0.7255492316478307,0.7779181808889012,1.3734469495154842,1.367877826947644,-0.0020968090614097985,-0.017645086943239376,0.0,0.02051987363546566
1782019004.235923,20,1,4.0357154411292926e-06,0.18,0.00955646165390901,0.15058584393566005,0.18004119700790364,0.006163016522258828,0.1391467235142526,-0.06749544547442073,-0.04296195081832196,-1.4598273735196086,-1.4538017285842877,0.7226783378165798,0.7733151147297952,1.3723510338799265,1.3694121823340124,-0.002569454525570591,-0.013042020784133452,0.0,0.02051987363546566
1782019004.2739687,21,1,4.253129743481687e-06,0.18,0.010834900414999392,0.15146814172462683,0.18015016608519435,0.006155567566227006,0.14049374870714726,-0.07647505092734329,-0.04296195081832196,-1.4612283579569336,-1.4538017285842877,0.7200732692450438,0.7671776931843207,1.371109497213792,1.3694121823340124,-0.003072387033247209,-0.01150766539776481,0.0,0.02051987363546566
1782019004.3050897,22,1,4.491668990376419e-06,0.18,0.012187826931790657,0.1522736747566127,0.1802014201324642,0.006157769432429231,0.14116766147117962,-0.08596462025365434,-0.04296195081832196,-1.4623605923901222,-1.4538017285842877,0.717767367389231,0.7641089824115834,1.369724651865053,1.3694121823340124,-0.0036036149743883567,-0.01150766539776481,0.0,0.02051987363546566
1782019004.3409228,23,1,4.747049063113183e-06,0.18,0.0136100590787811,0.1529927283947275,0.1802214362489178,0.006786523567681835,0.14184114308229245,-0.09592381211598028,-0.04756501697742788,-1.4632007734383938,-1.4538017285842877,0.7157906862698733,0.7610402716388461,1.3682001687007623,1.3694121823340124,-0.004160783589190637,-0.008438954625027528,0.0,0.02051987363546566
1782019004.3754272,24,1,5.01461297528061e-06,0.18,0.015095624411885614,0.15361647717542246,0.18018699801960336,0.008319519189010142,0.1425156476185841,-0.10630636755287214,-0.058305504682008374,-1.4637286183302434,-1.4538017285842877,0.7141697722489568,0.7579715608661088,1.3665408647376314,1.3694121823340124,-0.004741196739619885,-0.009973310011396168,0.0,0.02051987363546566
1782019004.4059188,25,1,5.289765175780622e-06,0.18,0.016637806616154063,0.1541370638758771,0.18011224109003376,0.009838769016202602,0.14285281222382634,-0.11706054913816268,-0.06904599238658886,-1.4639270447153536,-1.4538017285842877,0.7129274875995838,0.7564372054797402,1.36475250507792,1.3694121823340124,-0.005341844544579791,-0.009973310011396168,0.0,0.02051987363546566
1782019004.4410803,26,1,5.568258525899562e-06,0.18,0.018229198735477,0.15454766518113405,0.1799629067062264,0.01178869022851116,0.1428528173981184,-0.1281296638222979,-0.08285519086390664,-1.4637823187699597,-1.4538017285842877,0.7120828769959938,0.7564372054797402,1.3628416311384743,1.3694121823340124,-0.0059594366732363055,-0.009973310011396168,0.0,0.02051987363546566
1782019004.4735496,27,1,5.846348633415977e-06,0.18,0.019861762718108807,0.1548425433138434,0.17984839750634182,0.013087411728712962,0.14285282084439327,-0.13945266317532362,-0.09206132318211847,-1.4632841722917105,-1.4538017285842877,0.7116510762226331,0.7564372054797402,1.360815424362059,1.3694121823340124,-0.006590440843995937,-0.009973310011396168,0.0,0.02051987363546566
1782019004.5107656,28,1,6.120842464659966e-06,0.18,0.021526894755595914,0.15501708319305166,0.1796996992131537,0.01460117717467549,0.14285282486130693,-0.1509648116151831,-0.10280181088669897,-1.4624258887955401,-1.4538017285842877,0.7116432626239042,0.7564372054797402,1.3586816114435294,1.3694121823340124,-0.007231125818245173,-0.009973310011396168,0.0,0.02051987363546566
1782019004.5424433,29,1,6.389069055379567e-06,0.18,0.023215495841085777,0.15506781489624938,0.17958353628248286,0.01568141713325947,0.14285282772782143,-0.16259841021826002,-0.11047358781854218,-1.4612043578156524,-1.4538017285842877,0.7120666469777988,0.7564372054797402,1.3564484137270212,1.3694121823340124,-0.007877607938733948,-0.009973310011396168,0.0,0.02051987363546566
1782019004.5771356,30,1,6.648796442648595e-06,0.18,0.024918046926469352,0.154992421407771,0.1794069929185952,0.01719218827689919,0.1428528317367896,-0.1742835611148944,-0.12121407552312267,-1.4596200958261463,-1.4538017285842877,0.712924506588413,0.7564372054797402,1.3541245400347433,1.3694121823340124,-0.008525900054994883,-0.009973310011396168,0.0,0.02051987363546566
1782019004.6120577,31,1,6.89811637384559e-06,0.18,0.026624688016789917,0.1547897318435294,0.17921423363054112,0.01870097615617719,0.14285283574049504,-0.18594895549338375,-0.13195456322770316,-1.4576772315079298,-1.4538017285842877,0.714216259323572,0.7564372054797402,1.351719218962365,1.3694121823340124,-0.009171961528038617,-0.009973310011396168,0.0,0.02051987363546566
1782019004.6451757,32,1,7.135314698646183e-06,0.18,0.02832530050519695,0.15445970054391167,0.17894260877981358,0.020637652028094214,0.14285284087964029,-0.1975226670623402,-0.14576376170502095,-1.4553834526026044,-1.4538017285842877,0.7159375781693693,0.7564372054797402,1.3492422637364843,1.3694121823340124,-0.009811747931310547,-0.009973310011396168,0.0,0.02051987363546566
1782019004.683303,33,1,7.358743458817987e-06,0.18,0.030009592022749443,0.15400337262051136,0.17880366387043903,0.022596046578227988,0.14303661048013985,-0.20893293256603696,-0.15957296018233869,-1.4527499113756952,-1.4538017285842877,0.7180805455025534,0.7564372054797402,1.3467041602281462,1.367877826947644,-0.010441259062642528,-0.009973310011396168,0.0,0.02051987363546566
1782019004.7177932,34,1,7.566709161658729e-06,0.18,0.03166718305483418,0.15342283672540852,0.17883306676557487,0.024367463485270694,0.143404886063714,-0.22010890166891436,-0.17184780327328783,-1.4497910858422196,-1.4538017285842877,0.7206338458385121,0.7564372054797402,1.3441161667779185,1.3648091161749065,-0.011056583969056741,-0.009973310011396168,0.0,0.02051987363546566
1782019004.755554,35,1,7.757388709222657e-06,0.18,0.033287694560062746,0.15272116598129912,0.17887885956595478,0.025927945307002275,0.14377414763060326,-0.2309813401660972,-0.18258829097786833,-1.4465245943383878,-1.4538017285842877,0.7235829952133328,0.7564372054797402,1.3414904131486467,1.3617404054021693,-0.01165394184819343,-0.009973310011396168,0.0,0.02051987363546566
1782019004.7841892,36,1,7.92878236463425e-06,0.18,0.03486083581838722,0.15190234816450698,0.1786342302668354,0.027216087899649948,0.14377415104880706,-0.24148327294006644,-0.19179442329608018,-1.4429709618210733,-1.4538017285842877,0.7269106047335945,0.7564372054797402,1.3388399853100545,1.3617404054021693,-0.012229717916369238,-0.009973310011396168,0.0,0.02051987363546566
1782019004.8217552,37,1,8.0787083302663e-06,0.18,0.03637649173290865,0.15097120636862751,0.17833385602357835,0.028715997927272058,0.14377415502895508,-0.2515505561596198,-0.20253491100066065,-1.439153337355646,-1.4538017285842877,0.7305966751632074,0.7564372054797402,1.33617898281269,1.3617404054021693,-0.012780493601984765,-0.009973310011396168,0.0,0.02051987363546566
1782019004.8577013,38,1,8.204841890068149e-06,0.18,0.03782480881446856,0.1499333114923841,0.17797086863023798,0.030426114479458765,0.1437741595669055,-0.26112237171120517,-0.2148097540916098,-1.4350971636048229,-1.4538017285842877,0.7346189187745993,0.7564372054797402,1.333522536351278,1.3617404054021693,-0.013303070724140888,-0.009973310011396168,0.0,0.02051987363546566
1782019004.8872726,39,1,8.304795719602463e-06,0.18,0.039196279089565286,0.14879488798967616,0.1781521413527432,0.03181217273635311,0.14432989154306788,-0.27014164048567024,-0.22401588640982165,-1.4308298006463342,-1.4538017285842877,0.7389531041346314,0.7564372054797402,1.3308867745752535,1.3571373392430632,-0.01379448960531447,-0.009973310011396168,0.0,0.02051987363546566
1782019004.9236453,40,1,8.376237675853685e-06,0.18,0.04048182119032863,0.14756271439154117,0.17826604210743646,0.03341752143482371,0.14488782422205904,-0.27855535469926906,-0.23475637411440214,-1.4263801081040843,-1.4538017285842877,0.7435734190074091,0.7564372054797402,1.3282887313699423,1.3525342730839574,-0.014252041361292675,-0.009973310011396168,0.0,0.02051987363546566
1782019004.9570508,41,1,8.41703828852916e-06,0.18,0.041672857910052714,0.14624402015798793,0.17795248969505584,0.03469970504912431,0.14488782762445068,-0.28631483268462615,-0.24396250643261397,-1.4217779912706052,-1.4538017285842877,0.7484528462325828,0.7564372054797402,1.325746187485246,1.3525342730839574,-0.014673274834122106,-0.009973310011396168,0.0,0.02051987363546566
1782019004.997173,42,1,8.42543906013514e-06,0.18,0.04276138953890947,0.14484638044188475,0.17818297876969458,0.036350994110707135,0.1456351385364705,-0.29337590237007544,-0.25470299413719444,-1.4170539185291193,-1.4538017285842877,0.7535635472184373,0.7564372054797402,1.323277443510541,1.3463968515384828,-0.015055998854613888,-0.009973310011396168,0.0,0.02051987363546566
1782019005.032193,43,1,8.400232950699096e-06,0.18,0.0437400623316698,0.14337761034718355,0.17818904938586944,0.0377259527041887,0.1458354080277115,-0.29969902186737857,-0.2639091264554063,-1.4122384189392048,-1.452267373197919,0.7588772476226817,0.7564372054797402,1.320901024601544,1.3433281407657454,-0.01539828062921833,-0.009973310011396168,0.0,0.02051987363546566
1782019005.0653555,44,1,8.340947051584088e-06,0.18,0.04460223150221273,0.14184566023997722,0.17828454172110397,0.038902251563737375,0.1458601510969499,-0.3052493471377153,-0.2715809033872495,-1.4073615701887152,-1.4491986624251818,0.7643656198719962,0.7564372054797402,1.3186353209137816,1.3402594299930082,-0.015698441167828862,-0.009973310011396168,0.0,0.02051987363546566
1782019005.105143,45,1,8.248018882989081e-06,0.18,0.045342018187926846,0.1402585136238321,0.17845609748933652,0.0401068720420382,0.14553129500712048,-0.3099967575831023,-0.2792526803190927,-1.4024524882017397,-1.4430612408797072,0.770000657326082,0.7564372054797402,1.3164981712435448,1.337190719220271,-0.015955048656791454,-0.009973310011396168,0.0,0.02051987363546566
1782019005.1321404,46,1,8.122957186738655e-06,0.18,0.045954359880372775,0.13862408902148413,0.17863784184727444,0.040623751756286575,0.1450441284763535,-0.31391585066082867,-0.28232139109183,-1.3975388304951444,-1.4415268854933387,0.775755035165965,0.7595059162524775,1.314506400722887,1.3341220084475336,-0.016166910702620045,-0.009973310011396168,0.0,0.02051987363546566
1782019005.1717417,47,1,7.96847810649605e-06,0.18,0.04643505387630804,0.1369501472146304,0.17845768317230803,0.041502319766234044,0.14296757719471193,-0.31698591627325146,-0.2884588126373046,-1.3926463257513535,-1.4353894639478642,0.7816024533638962,0.765643337797952,1.3126753264484587,1.3341220084475336,-0.016333066266572237,-0.009973310011396168,0.0,0.02051987363546566
1782019005.2019296,48,1,7.788607852215553e-06,0.18,0.046780793364864744,0.13524420508381257,0.17827276943672285,0.042146868395782834,0.1410687969767757,-0.31919090084728874,-0.2930618787964105,-1.3877983421122848,-1.430786397788758,0.7875179574171407,0.7717807593434266,1.311018247461713,1.3341220084475336,-0.016452778057939155,-0.009973310011396168,0.0,0.02051987363546566
1782019005.2385287,49,1,7.588738638958953e-06,0.18,0.046989195831767944,0.13351345716317523,0.17825884482335777,0.04214267295290678,0.13865292456076467,-0.32051936974698764,-0.2930618787964105,-1.3830155062110971,-1.4246489762432835,0.7934782328029615,0.7794525362752698,1.3095459374145462,1.3341220084475336,-0.016525526003595803,-0.009973310011396168,0.0,0.02051987363546566
1782019005.2740319,50,1,7.375624099317224e-06,0.18,0.047058823529411764,0.13176470588235292,0.17821531958986814,0.04212954392640034,0.13675738527899575,-0.3209644750756534,-0.2930618787964105,-1.3783153840711153,-1.4200459100841776,0.7994618693564863,0.7855899578207445,1.3082661594983929,1.3341220084475336,-0.016551002296182594,-0.009973310011396168,0.0,0.02051987363546566
1782019005.3089075,51,1,7.15729261915524e-06,0.18,0.046989195831767944,0.130004301312277,0.17862034642769214,0.04225176871409804,0.1348780046276916,-0.3205239340741702,-0.2930618787964105,-1.3737122335970904,-1.413908488538703,0.8054495919622624,0.7932617347525877,1.3071832236199967,1.3295189422884277,-0.016529108368841073,-0.009973310011396168,0.0,0.02051987363546566
1782019005.3456337,52,1,6.942852885775963e-06,0.18,0.046780793364864744,0.12823809106585657,0.17898860960688556,0.04212834775108834,0.13349716037172843,-0.31920002131572106,-0.2915275234100419,-1.3692168365544117,-1.4077710669932284,0.8114244540856751,0.7978648009116935,1.3062976054188524,1.3264502315156905,-0.016459953991069684,-0.009973310011396168,0.0,0.02051987363546566
1782019005.3759792,53,1,6.742163198415094e-06,0.18,0.04643505387630804,0.12647138083098836,0.17906822430409003,0.04215224204264417,0.132292996594309,-0.31699957578051197,-0.2915275234100419,-1.3648364156739474,-1.4047023562204912,0.8173719907737316,0.8024678670707994,1.3056056454755116,1.3249158761293218,-0.016343858545035377,-0.009973310011396168,0.0,0.02051987363546566
1782019005.4075744,54,1,6.565341078906732e-06,0.18,0.045954359880372754,0.12470890583498229,0.17894672368811282,0.04211578668890356,0.13039510028166654,-0.31393402175416213,-0.2915275234100419,-1.3605746399540106,-1.4000992900613853,0.8232803279107774,0.808605288616274,1.3050993449673163,1.3249158761293218,-0.016181354367840923,-0.009973310011396168,0.0,0.02051987363546566
1782019005.4508517,55,1,6.4221161183390064e-06,0.18,0.045342018187926825,0.12295481335911389,0.17875070807123297,0.04205697147134241,0.12815986120863226,-0.31001940038014164,-0.2915275234100419,-1.3564317183800372,-1.3954962239022792,0.8291402446721514,0.8162770655481172,1.3047662712091537,1.3249158761293218,-0.015973191920074636,-0.009973310011396168,0.0,0.02051987363546566
1782019005.4767365,56,1,6.321075744595958e-06,0.18,0.044602231502212715,0.12121265624249243,0.1785809813406013,0.042006044215358196,0.12626844911263307,-0.30527640668567996,-0.2915275234100419,-1.352404579385911,-1.3908931577431733,0.8349451864983616,0.8224144870935918,1.304589582967427,1.3249158761293218,-0.015720346385204118,-0.009973310011396168,0.0,0.02051987363546566
1782019005.5150566,57,1,6.268918751647824e-06,0.18,0.0437400623316698,0.11948539713858941,0.1784002569644122,0.04195181720259232,0.12420345728378523,-0.2997304250570747,-0.2915275234100419,-1.3484871304081303,-1.3847557361976988,0.8406912263784038,0.8285519086390664,1.3045481813781066,1.3249158761293218,-0.015424025183431694,-0.009973310011396168,0.0,0.02051987363546566
1782019005.5446875,58,1,6.269883171410027e-06,0.18,0.04276138953890947,0.11777542311835244,0.17823726576799107,0.04190290978693342,0.12283423580932275,-0.2934115545439878,-0.2915275234100419,-1.344670589183077,-1.3816870254249616,0.8463769730150972,0.8331549747981722,1.3046169878224696,1.3249158761293218,-0.01508567576198518,-0.009973310011396168,0.0,0.02051987363546566
1782019005.5769403,59,1,6.325509272176282e-06,0.18,0.041672857910052714,0.11608457005345324,0.17800423872533244,0.04183298709352311,0.12095301932640644,-0.2863546141080227,-0.2915275234100419,-1.3409438759979948,-1.3770839592658557,0.852003425442713,0.8392923963436468,1.3047673454221635,1.3249158761293218,-0.014706992913538663,-0.009973310011396168,0.0,0.02051987363546566
1782019005.6155396,60,1,6.434816059751971e-06,0.18,0.04048182119032863,0.11441415606433993,0.17775254609950136,0.04175746361326829,0.11890000470972634,-0.2785991170828075,-0.2915275234100419,-1.3372940541367964,-1.370946537720381,0.8575737749304099,0.8454298178891214,1.3049675361422992,1.3249158761293218,-0.014289924821513124,-0.009973310011396168,0.0,0.02051987363546566
1782019005.642435,61,1,6.594835456454263e-06,0.18,0.03919627908956527,0.11276502318263688,0.1774706948809113,0.04167288861114543,0.11737870209043957,-0.27018920376667316,-0.2915275234100419,-1.3337068043592808,-1.3694121823340124,0.86309315650614,0.8515672394345959,1.305183400999256,1.3249158761293218,-0.013836676951113168,-0.009973310011396168,0.0,0.02051987363546566
1782019005.6760125,62,1,6.801337921881219e-06,0.18,0.03782480881446855,0.11113758625807321,0.1771723112927738,0.041583353895329946,0.11533517257677145,-0.261173521307488,-0.2915275234100419,-1.3301669185109048,-1.363274760788538,0.8685683540894231,0.8577046609800706,1.3053790468155222,1.3249158761293218,-0.01334971292679902,-0.009973310011396168,0.0,0.02051987363546566
1782019005.720791,63,1,7.049548278855395e-06,0.18,0.03637649173290865,0.10953188803827105,0.1769143890902285,0.04127509343861166,0.11347202872440246,-0.25160504090820135,-0.28999316802367325,-1.3266587972213157,-1.3586716946294317,0.8740074649286534,0.8638420825255451,1.3055176195375222,1.3249158761293218,-0.012831751549548444,-0.009973310011396168,0.0,0.02051987363546566
1782019005.758366,64,1,7.334698712383011e-06,0.18,0.03486083581838721,0.10794765926684106,0.17669655571113685,0.04074972047927636,0.11161405455017277,-0.24154080392126706,-0.2869244572509359,-1.3231669372620818,-1.3540686284703258,0.879419530718037,0.8699795040710196,1.305562121498457,1.3249158761293218,-0.012285759202991402,-0.009973310011396168,0.0,0.02051987363546566
1782019005.779836,65,1,7.652347677938488e-06,0.18,0.03328769456006277,0.1063843825824498,0.176791142843951,0.04008815836454063,0.11110695094487347,-0.2310415905818787,-0.28232139109183,-1.3196763952235726,-1.3525342730839574,0.8848141442450211,0.8715138594573884,1.3054762483090745,1.3249158761293218,-0.011714937026587574,-0.009973310011396168,0.0,0.02051987363546566
1782019005.818761,66,1,7.998471983105458e-06,0.18,0.03166718305483415,0.10484135895965062,0.1770455003012711,0.03810062807270853,0.10958816537854707,-0.2201715079065307,-0.26851219261451226,-1.3161732158686446,-1.3479312069248515,0.8902010416230207,0.8761169256164942,1.3052252203913528,1.3249158761293218,-0.011122702420094681,-0.009973310011396168,0.0,0.02051987363546566
1782019005.847047,67,1,8.369384290336438e-06,0.18,0.030009592022749443,0.10331777541176848,0.1770100226006953,0.036725746174641014,0.10791464604655648,-0.20899749652384567,-0.2593060602963004,-1.312644815525229,-1.344862496152114,0.8955896909638422,0.8822543471619687,1.30477658455037,1.3249158761293218,-0.010512664677232811,-0.009973310011396168,0.0,0.02051987363546566
1782019005.881295,68,1,8.761545374076559e-06,0.18,0.028325300505196938,0.10181277267711215,0.17683400487894832,0.03532232097986734,0.10574340045570396,-0.19758875974823278,-0.25009992797808855,-1.3090803131429378,-1.3402594299930082,0.9009888886426981,0.8899261240938119,1.30410096240057,1.3249158761293218,-0.009888594804646678,-0.009973310011396168,0.0,0.02051987363546566
1782019005.936044,69,1,9.171335061522599e-06,0.18,0.026624688016789907,0.10032551163202826,0.17700088837227995,0.032667072781757435,0.10373854485111943,-0.18601612184268376,-0.23168766334166485,-1.3054708040134324,-1.3341220084475336,0.9064063741471456,0.8960635456392866,1.303172724805212,1.3249158761293218,-0.009254389861323506,-0.009973310011396168,0.0,0.02051987363546566
1782019005.9682546,70,1,9.594833293294366e-06,0.18,0.024918046926469352,0.09885523721722714,0.17682437400697631,0.03150975712428046,0.10225312902412993,-0.17435132589973457,-0.22401588640982165,-1.3018095734796855,-1.332587653061165,0.9118484737815881,0.9022009671847612,1.3019705746750223,1.3249158761293218,-0.008614032436312572,-0.009973310011396168,0.0,0.02051987363546566
1782019006.00058,71,1,1.0027643716739645e-05,0.18,0.023215495841085766,0.09740133872650435,0.1771334214689127,0.030243510166251486,0.10155640650891061,-0.16266628486136006,-0.2148097540916098,-1.2980922501281427,-1.327984586902059,0.9173197823565103,0.9037353225711298,1.3004780242349359,1.3233815207429531,-0.0079715461488092,-0.009973310011396168,0.0,0.02051987363546566
1782019006.047071,72,1,1.0464777560436231e-05,0.18,0.021526894755595914,0.09596340538822405,0.17782571878729586,0.028389557604633256,0.10030063520546614,-0.15103230166537313,-0.201000555614292,-1.2943168998674413,-1.3233815207429531,0.9228228904395357,0.9098727441166043,1.2986837570906193,1.3172440991974785,-0.0073309482547686804,-0.009973310011396168,0.0,0.02051987363546566
1782019006.0660388,73,1,1.0900601436377396e-05,0.18,0.019861762718108786,0.09454127626821632,0.17775690244381748,0.027488531643355442,0.0994743781200039,-0.13951927616917928,-0.19486313406881745,-1.290484063960351,-1.3218471653565846,0.9283581629796448,0.9129414548893416,1.2965818697631288,1.3172440991974785,-0.006696200618556159,-0.009973310011396168,0.0,0.02051987363546566
1782019006.1039445,74,1,1.1328844761434272e-05,0.18,0.018229198735476994,0.09313508363628385,0.17775889870858808,0.025721265049663013,0.09779492995448669,-0.12819491723699597,-0.18258829097786833,-1.2865967452434603,-1.3172440991974785,0.9339235731199885,0.9190788764348161,1.2941719917059646,1.31570974381111,-0.0060711603873037315,-0.009973310011396168,0.0,0.02051987363546566
1782019006.1334047,75,1,1.1742656075717798e-05,0.18,0.016637806616154063,0.09174528906529937,0.17739821541592038,0.024118548049128014,0.09582590295483978,-0.11712397814719716,-0.17184780327328783,-1.282660347743106,-1.3141753884247414,0.9395145931121646,0.9267506533666594,1.2914592868028727,1.31570974381111,-0.005459531710563399,-0.009973310011396168,0.0,0.02051987363546566
1782019006.1878364,76,1,1.2134696996110514e-05,0.18,0.015095624411885597,0.09037271166968287,0.17725579131107025,0.021258852627641718,0.0929808850108904,-0.10636753231738288,-0.15190118325049548,-1.2786825753927011,-1.3065036114928983,0.945124142364198,0.9374911410712399,1.2884543429268716,1.3126410330383727,-0.0048648197832737855,-0.009973310011396168,0.0,0.019379880655717573
1782019006.2156284,77,1,1.2497260975372425e-05,0.18,0.0136100590787811,0.0890185480364908,0.17768761878539205,0.019801007010695593,0.09258712991104397,-0.09598230438858185,-0.141160695545915,-1.274673295767137,-1.3034349007201609,0.9507425910177425,0.9390254964576086,1.2851729590431227,1.3095723222656355,-0.0042902883396522176,-0.009973310011396168,0.0,0.019379880655717573
1782019006.249429,78,1,1.282240922698966e-05,0.18,0.012187826931790643,0.08768438355491451,0.17796232272317075,0.01875223308162819,0.09150838403404427,-0.08602006912039002,-0.1334889186140718,-1.2706443747417127,-1.298831834561055,0.9563578160838424,0.9436285626167145,1.28163584159009,1.3049692561065296,-0.0037389215537268175,-0.009973310011396168,0.0,0.019379880655717573
1782019006.2927532,79,1,1.3102114014924562e-05,0.18,0.010834900414999385,0.08637219500607662,0.1782351831565614,0.017483896707149216,0.09008030948305584,-0.07652712757587107,-0.12428278629585994,-1.266609487702515,-1.2957631237883178,0.9619553061386089,0.9513003395485576,1.277868223275907,1.298831834561055,-0.0032133910325229716,-0.009973310011396168,0.0,0.019379880655717573
1782019006.319792,80,1,1.3328406820066026e-05,0.18,0.009556461653909016,0.08508434443198823,0.1779269322726857,0.01636260822696855,0.08841316982191894,-0.0675438669343043,-0.11661100936401675,-1.2625839125107816,-1.2911600576292115,0.9675183098187699,0.9574377610940321,1.2738994182045575,1.2972974791746863,-0.002716028378812102,-0.009973310011396168,0.0,0.019379880655717573
1782019006.3696146,81,1,1.3493526228058215e-05,0.18,0.008356863195501694,0.08382356445775185,0.178190847408932,0.01422958118345439,0.08681249846325441,-0.0591044072136404,-0.10126745550033033,-1.2585843089532682,-1.2865569914701056,0.9730280230031952,0.9651095380258755,1.2697623272162326,1.2911600576292115,-0.0022488035359304946,-0.009973310011396168,0.0,0.019379880655717573
1782019006.4097214,82,1,1.3590065558715029e-05,0.18,0.007239596277911909,0.08259293539196624,0.178411304176748,0.01295487748261872,0.08607259240964665,-0.051236335402315605,-0.09206132318211847,-1.2546284888124923,-1.2804195699246312,0.9784638093678107,0.9666438934122441,1.2654929068284122,1.2880913468564743,-0.0018133088997955903,-0.009973310011396168,0.0,0.019379880655717573
1782019006.432645,83,1,1.3611118556091628e-05,0.18,0.006207266904533902,0.08139585457430262,0.17797833468629803,0.01205408584126171,0.08477320664534072,-0.043960525144821336,-0.08592390163664392,-1.250735180202531,-1.2773508591518938,0.9838034491336353,0.97124695957135,1.2611296141231891,1.2880913468564743,-0.0014107490185014172,-0.009973310011396168,0.0,0.019379880655717573
1782019006.4651268,84,1,1.3550422953486564e-05,0.18,0.005261579927963225,0.08023599857399555,0.1781170153099964,0.011205270223873187,0.08386707191633817,-0.037291038299667824,-0.07978648009116934,-1.2469237892388838,-1.2773508591518938,0.9890234109888508,0.9773843811168246,1.2567128386263755,1.2834882806973684,-0.0010419355341273746,-0.009973310011396168,0.0,0.019379880655717573
1782019006.5217414,85,1,1.3402501591040695e-05,0.18,0.004403331277923551,0.07911727896630663,0.17834877181275735,0.009286867201651082,0.08168404893278604,-0.0312351034201467,-0.06597728161385158,-1.2432141616891397,-1.268144726833682,0.9940991425054854,0.9865905134350363,1.2522843307337452,1.2742821483791567,-0.000707286949042035,-0.009973310011396168,0.0,0.019379880655717573
1782019006.542131,86,1,1.3162799614571639e-05,0.18,0.003632408394901018,0.0780437925238639,0.1784141418653023,0.008431104755278742,0.08131942685708449,-0.025793165489846673,-0.05983986006837701,-1.239626346871059,-1.2666103714473134,0.9990053746829749,0.988124868821405,1.2478866346890407,1.272747792992788,-0.00040683272425759285,-0.009973310011396168,0.0,0.019379880655717573
1782019006.5753515,87,1,1.2827816335043736e-05,0.18,0.0029477988582366638,0.07701976675436675,0.17870088654073535,0.007587074735690438,0.08034650236573367,-0.020959001006306478,-0.05370243852290245,-1.2361803657195396,-1.2620073052882075,1.0037164365394409,0.9927279349805109,1.2435625326777602,1.2666103714473134,-0.00014022124501514446,-0.009973310011396168,0.0,0.019379880655717573
1782019006.6159363,88,1,1.239522916032754e-05,0.18,0.002347607124564871,0.07604950179396029,0.17850506975259073,0.006931923263483347,0.07877817772732146,-0.016719892661878295,-0.04909937236379653,-1.23289598476841,-1.2589385945154703,1.0082065759305465,1.0003997119123542,1.239354505277727,1.2620073052882075,9.326881627896123e-05,-0.009973310011396168,0.0,0.019379880655717573
1782019006.6503541,89,1,1.1864006005689732e-05,0.18,0.001829079220375652,0.07513730972538571,0.17862281318636164,0.006507762368277962,0.07783007352043385,-0.013056858300521909,-0.04603066159105924,-1.229792497541789,-1.2528011729699957,1.0124502828870934,1.0034684226850914,1.2353042124362517,1.2574042391291016,0.000294714139697403,-0.009973310011396168,0.0,0.019379880655717573
1782019006.6835914,90,1,1.1234502273164774e-05,0.18,0.0013886351617634646,0.07428745243087723,0.17877454808061688,0.005654280320578495,0.07706552652559626,-0.00994492942178886,-0.03989324004558467,-1.2268885148366837,-1.251266817583627,1.0164226118713398,1.0080714888441973,1.2314519982914756,1.2528011729699957,0.0004655297451514087,-0.009973310011396168,0.0,0.019379880655717573
1782019006.7202735,91,1,1.050853802314478e-05,0.18,0.0010219088057320952,0.0735040791110938,0.17878288608341864,0.005212386706779678,0.0763305496700801,-0.007353475138505795,-0.03682452927284739,-1.2242017652069546,-1.2481981068108898,1.0200994992806507,1.0111401996169347,1.2278364225906275,1.2497324621972583,0.0006074496044087699,-0.008438954625027528,0.0,0.019379880655717573
1782019006.753403,92,1,9.689449581440669e-06,0.18,0.0007237947713632437,0.07279116460285971,0.17862400908294615,0.004562301792462531,0.07490932119290533,-0.005246568081891128,-0.03222146311374147,-1.221748907007365,-1.243595040651784,1.023458072499256,1.0172776211624093,1.224493821073512,1.2451293960381524,0.0007225050922837022,-0.008438954625027528,0.0,0.019379880655717573
1782019006.7862823,93,1,8.782111764912204e-06,0.18,0.0004885020063135415,0.07215244961020256,0.17883488491468763,0.00435407627134514,0.07465900042161037,-0.0035833892056852694,-0.030687107727372827,-1.2195453532532086,-1.2420606852654152,1.0264769466377375,1.0188119765487778,1.2214578970632828,1.2420606852654152,0.0008130014462157212,-0.008438954625027528,0.0,0.019379880655717573
1782019006.8327432,94,1,9.379779899789286e-05,0.18,0.0003096135150373794,0.0715913839254953,0.17836735540201099,0.004339725229032796,0.073320348984949,-0.002455551126272798,-0.030687107727372827,-1.2179613060987915,-1.2374576191063094,1.0287344576879593,1.0234150427078836,1.2196218139403927,1.2405263298790465,0.0008745909488136125,-0.008438954625027528,0.0,0.019379880655717573
1782019006.8754585,95,1,8.674775868640916e-06,0.18,0.00018015171036642023,0.07111107366114477,0.17886407112553512,0.004354976874953833,0.07296425523400922,-0.0014035970101478022,-0.030687107727372827,-1.2159494498022312,-1.2328545529472035,1.0314110016024962,1.0249493980942523,1.2164460957472667,1.234388908333572,0.0009307671508914761,-0.008438954625027528,0.0,0.019379880655717573
1782019006.900199,96,1,6.687864407625169e-05,0.18,9.26488000968794e-05,0.07071423343823904,0.17884706544844853,0.004354455728202443,0.07259499587628068,-0.0008512054764225017,-0.030687107727372827,-1.2148204167049501,-1.2313201975608348,1.0330189170207467,1.026483753480621,1.2151054136963215,1.2328545529472035,0.0009605676331932595,-0.008438954625027528,0.0,0.019379880655717573
1782019006.9378123,97,1,6.839949272542411e-05,0.18,3.922157548604362e-05,0.07040314438818279,0.1781813171163227,0.004334018563750061,0.07132964419748314,-0.000454299621661684,-0.030687107727372827,-1.2137494148739312,-1.2313201975608348,1.034493873583274,1.0326211750260956,1.2136064905209056,1.2328545529472035,0.0009815205606324181,-0.008438954625027528,0.0,0.019379880655717573
1782019006.9655879,98,1,5.47256572557184e-05,0.18,1.1649929437829253e-05,0.07017961871820241,0.17801366814867697,0.004328872062350726,0.07101394687383739,-0.00023709853286694654,-0.030687107727372827,-1.2129178797638958,-1.2313201975608348,1.035623121299859,1.0341555304124643,1.2123675886987724,1.2328545529472035,0.0009926277169486951,-0.008438954625027528,0.0,0.019379880655717573
1782019007.0019674,99,1,3.66670951673842e-05,0.18,1.45839901024191e-06,0.0700449714735171,0.17794362783157597,0.004326722052146115,0.07084699133533286,-0.00014897564502028965,-0.030687107727372827,-1.2123755352923167,-1.229785842174466,1.036350076091754,1.0341555304124643,1.211515588626377,1.2328545529472035,0.0009968337329264887,-0.008438954625027528,0.0,0.019379880655717573
1782019007.0313063,100,1,7.428001060245124e-05,0.18,-1.5656279255075675e-48,0.06999999999999999,0.1785223087387786,0.004344488871765091,0.07102211653782826,-0.00014897564502028965,-0.030687107727372827,-1.2123755352923167,-1.2282514867880976,1.036350076091754,1.0341555304124643,1.211515588626377,1.2282514867880976,0.0009968337329264887,-0.008438954625027528,0.0,0.019379880655717573
1782019007.0640144,101,1,3.6906167683928444e-05,0.18,-1.4583990102419381e-06,0.07004497147351708,0.1788844064178719,0.0043556062221007325,0.07108335794337266,-0.00014897564502028965,-0.030687107727372827,-1.2123755352923167,-1.2267171314017289,1.036350076091754,1.0341555304124643,1.211515588626377,1.2251827760153602,0.0009968337329264887,-0.008438954625027528,0.0,0.019379880655717573
1782019007.098467,102,1,1.2032591642176863e-05,0.18,-1.1649929437829368e-05,0.07017961871820241,0.17874427861951045,0.004351304760415544,0.07074688095454877,-5.688585885152181e-05,-0.030687107727372827,-1.2126377893236364,-1.2236484206289917,1.0359399898666626,1.0341555304124643,1.211676765918389,1.2251827760153602,0.0010021093807624046,-0.008438954625027528,0.0,0.019379880655717573
1782019007.140135,103,1,3.930989582765478e-05,0.18,-3.9221575486043865e-05,0.07040314438818279,0.17867382786143493,0.004349142151385447,0.07057880418645446,0.0001263712386143544,-0.030687107727372827,-1.213297822885653,-1.222114065242623,1.035003689365278,1.0341555304124643,1.2124900034238473,1.2251827760153602,0.0010130450400446726,-0.008438954625027528,0.0,0.019379880655717573
1782019007.1655962,104,1,6.0816400298671064e-05,0.18,-9.264880009687983e-05,0.07071423343823902,0.17867382786143493,0.004349142151385447,0.07057880418645446,0.0004820010434562267,-0.030687107727372827,-1.2142855707713258,-1.222114065242623,1.033624234116707,1.0341555304124643,1.2137929600844473,1.2251827760153602,0.0010340413819893137,-0.008438954625027528,0.0,0.019379880655717573
1782019007.2033617,105,1,8.03354018031839e-05,0.18,-0.0001801517103664224,0.07111107366114477,0.17874427861951045,0.004351304760415544,0.07074688095454877,0.0010706177043373559,-0.030687107727372827,-1.2155779060542133,-1.2236484206289917,1.0318294635565985,1.0341555304124643,1.2155287893518343,1.2251827760153602,0.001068437216773784,-0.008438954625027528,0.0,0.019379880655717573
1782019007.2334898,106,1,9.883803694472364e-05,0.18,-0.0003096135150373804,0.07159138392549533,0.17874427861951045,0.004351304760415544,0.07074688095454877,0.0019484309995662261,-0.030687107727372827,-1.2171620376550865,-1.2236484206289917,1.0296363362775618,1.0341555304124643,1.2176679210782022,1.2251827760153602,0.001119347248669245,-0.008438954625027528,0.0,0.019379880655717573
1782019007.266963,107,1,9.660666602477953e-06,0.18,-0.0004885020063135428,0.07215244961020258,0.17874427861951045,0.004351304760415544,0.07074688095454877,0.0033168317395457928,-0.030687107727372827,-1.2194724861131543,-1.2236484206289917,1.026560951143013,1.0341555304124643,1.2212629247889526,1.2251827760153602,0.0011989476021341528,-0.008438954625027528,0.0,0.019379880655717573
1782019007.3408048,108,1,8.578298751141406e-06,0.18,-0.0007237947713632455,0.07279116460285973,0.17875079042246964,0.004136629627643723,0.070746880384889,0.004977259122222386,-0.029152752341004187,-1.2216761064012605,-1.2236484206289917,1.0235405149937737,1.0341555304124643,1.2243014926751543,1.2251827760153602,0.001294412979986927,-0.008438954625027528,0.0,0.019379880655717573
1782019007.3680918,109,1,9.387114033258375e-06,0.18,-0.001021908805732097,0.0735040791110938,0.1787735435378127,0.003277836763704005,0.07074687810600484,0.007080704457342908,-0.02301533079552962,-1.2241213473066994,-1.2236484206289917,1.0201882001392255,1.0341555304124643,1.2276279117536841,1.2251827760153602,0.0014148935579780537,-0.008438954625027528,0.0,0.019379880655717573
1782019007.3979404,110,1,1.01469259200851e-05,0.18,-0.0013886351617634729,0.07428745243087725,0.17878714920889435,0.002633659319196101,0.07074687639662205,0.009668410963822423,-0.018412264636423696,-1.2268008122948186,-1.2236484206289917,1.0165166699197048,1.0341555304124643,1.2312290466982057,1.2251827760153602,0.0015626770404234794,-0.008438954625027528,0.0,0.019379880655717573
1782019007.4343746,111,1,1.0809157036357038e-05,0.18,-0.0018290792203756543,0.0751373097253857,0.1787945722686784,0.0022041758452174933,0.07074687525694905,0.012776347886662385,-0.015343553863686413,-1.2296980266807243,-1.2236484206289917,1.0125485434250563,1.0341555304124643,1.2350691097655786,1.2251827760153602,0.001739735312376687,-0.008438954625027528,0.0,0.019379880655717573
1782019007.4717875,112,1,1.1369852484690331e-05,0.18,-0.0023476071245648817,0.07604950179396033,0.17858138237048787,0.0019864364049048486,0.07063288359827531,0.0164351893816056,-0.013809198477317772,-1.2327952546284238,-1.2236484206289917,1.008307839054605,1.0341555304124643,1.2391095964236174,1.2267171314017289,0.001947739376789872,-0.008438954625027528,0.0,0.019379880655717573
1782019007.499874,113,1,1.182762138610165e-05,0.18,-0.0029477988582366672,0.07701976675436675,0.17814804461753314,0.0019804498376242343,0.07040589832201935,0.02066995048409477,-0.013809198477317772,-1.2360738629739192,-1.2236484206289917,1.0038194774709213,1.0341555304124643,1.2433101713583519,1.229785842174466,0.0021880392160491795,-0.008438954625027528,0.0,0.019379880655717573
1782019007.5354726,114,1,1.218264688652729e-05,0.18,-0.0036324083949010218,0.07804379252386393,0.17727928986635386,0.0019684479647684413,0.06995592283986868,0.025499662941116562,-0.013809198477317772,-1.239514526167355,-1.2236484206289917,0.9991089596000751,1.0341555304124643,1.2476291492520777,1.2359232637199407,0.0024616453843025457,-0.008438954625027528,0.0,0.019379880655717573
1782019007.5729716,115,1,1.2436600472474182e-05,0.18,-0.004403331277923569,0.07911727896630666,0.1770711304850868,0.0011170563516273257,0.06984426057042353,0.030937096405801244,-0.007671776931843207,-1.243097437844375,-1.2236484206289917,0.9942020439381769,1.0341555304124643,1.2520239927718002,1.2374576191063094,0.0027692129861551754,-0.008438954625027528,0.0,0.019379880655717573
1782019007.6020188,116,1,1.2592556034583281e-05,0.18,-0.00526157992796323,0.08023599857399555,0.17663959145934666,0.00026795824771436226,0.06962194076258774,0.03698852909701696,-0.0015343553863686416,-1.2468025313456421,-1.2236484206289917,0.9891244227701808,1.0341555304124643,1.256451834461916,1.2405263298790465,0.003111028292450337,-0.008438954625027528,0.0,0.019379880655717573
1782019007.6369367,117,1,1.265488678690658e-05,0.18,-0.006207266904533923,0.08139585457430265,0.17583587936806513,-0.0008085698848212255,0.06934449898313844,0.04365357263318566,0.006137421545474566,-1.25060970775215,-1.2251827760153602,0.9839014008659318,1.0341555304124643,1.2608700192900009,1.2466637514245211,0.0034869983195274126,-0.005370243852290245,0.0,0.019379880655717573
1782019007.67388,118,1,1.262914736335468e-05,0.18,-0.007239596277911913,0.08259293539196624,0.17531127408134917,-0.0020740433115024716,0.0693417427129099,0.05092505634492472,0.015343553863686413,-1.2544990698079155,-1.2282514867880976,0.9785575803477593,1.0341555304124643,1.2652366635712535,1.251266817583627,0.0038966437499743916,-0.0038358884659216034,0.0,0.019379880655717573
1782019007.7056987,119,1,1.252194247397807e-05,0.18,-0.008356863195501697,0.08382356445775185,0.1747163028063664,-0.0026905803715775176,0.06917663644234873,0.058788976806715715,0.019946620022792336,-1.2584511599033403,-1.229785842174466,0.9731165555384562,1.0341555304124643,1.2695112249499614,1.255869883742733,0.00433909562248535,-0.0038358884659216034,0.0,0.019379880655717573
1782019007.734076,120,1,1.2340783450185623e-05,0.18,-0.009556461653909021,0.08508434443198823,0.17489227865919205,-0.00332068096117166,0.07022729550506285,0.06722451848973708,0.024549686181898265,-1.2624472000576097,-1.2359232637199407,0.9676006218223199,1.0310868196397271,1.2736550768383117,1.2589385945154703,0.004813096260183727,-0.0038358884659216034,0.0,0.019379880655717573
1782019007.7836823,121,1,1.2093932792332754e-05,0.18,-0.010834900414999397,0.08637219500607662,0.17460287702059069,-0.004981688940115164,0.07141813819309786,0.07620415121219062,0.03682452927284739,-1.2664693315795679,-1.243595040651784,0.9620305028547506,1.026483753480621,1.2776320792779352,1.2666103714473134,0.0053170048893674835,-0.0038358884659216034,0.0,0.019379880655717573
1782019007.8114936,122,1,1.1790235140875533e-05,0.18,-0.01218782693179067,0.08768438355491454,0.17473192727258607,-0.006239677096999984,0.07209214928365557,0.08569380935502499,0.04603066159105924,-1.2705008516591543,-1.2451293960381524,0.9564251007353958,1.0234150427078836,1.2814091367065532,1.268144726833682,0.005848808379266344,-0.0038358884659216034,0.0,0.019379880655717573
1782019007.8400207,123,1,1.1438934751327626e-05,0.18,-0.013610059078781114,0.08901854803649081,0.17482598868406407,-0.007080656355523512,0.07332852496689173,0.09565315655781982,0.05216808313653381,-1.2745264437324537,-1.2481981068108898,0.9508012740892894,1.0172776211624093,1.2849567316156665,1.272747792992788,0.006406137428377072,-0.0038358884659216034,0.0,0.019379880655717573
1782019007.8793523,124,1,1.104947756979457e-05,0.18,-0.015095624411885614,0.09037271166968287,0.17503147431725893,-0.007929833156616523,0.07488943727099927,0.1060359377944687,0.058305504682008374,-1.2785323979809924,-1.2543355283563644,0.9451736492142918,1.0111401996169347,1.2882494218042078,1.2773508591518938,0.006986288404238801,-0.0038358884659216034,0.0,0.019379880655717573
1782019007.9258323,125,1,1.0631298600367784e-05,0.18,-0.016637806616154074,0.09174528906529938,0.17521633052466098,-0.00962165880977723,0.07661374926241965,0.11679041838511159,0.0705803477729575,-1.2825068177865142,-1.2620073052882075,0.9395544695377844,1.00500277807146,1.291266287922263,1.2819539253109997,0.007586250852661997,-0.0038358884659216034,0.0,0.019379880655717573
1782019007.9489694,126,1,1.0193596355824973e-05,0.18,-0.018229198735477,0.09313508363628387,0.17562442381625804,-0.010717911964237985,0.07773456604969198,0.12785990672541847,0.07825212470480071,-1.2864398074923449,-1.2666103714473134,0.9339534885265258,1.001934067298723,1.2939913174501283,1.2819539253109997,0.008202740483826257,-0.002301533079552962,0.0,0.019379880655717573
1782019007.9974885,127,1,9.74509967796344e-06,0.18,-0.019861762718108824,0.09454127626821635,0.1756259089936455,-0.012645136087609934,0.07948368801938194,0.13918335445840913,0.09206132318211847,-1.290323636310927,-1.2696790822200508,0.9283779107864671,0.9927279349805109,1.2964137112841385,1.2880913468564743,0.008832237202170402,0.0007671776931843208,0.0,0.019379880655717573
1782019008.0338328,128,1,9.293837497305485e-06,0.18,-0.021526894755595924,0.09596340538822407,0.17622382179527973,-0.013764120738435644,0.08108115652169616,0.15069602467407683,0.09973310011396169,-1.2941528728999787,-1.272747792992788,0.9228323854430994,0.9865905134350363,1.2985280997802817,1.2880913468564743,0.009471027496802256,0.0007671776931843208,0.0,0.019379880655717573
1782019008.0562541,129,1,8.846926784994366e-06,0.18,-0.023215495841085777,0.09740133872650435,0.1762065570386038,-0.015065338143339406,0.08212158045286803,0.16233021573566797,0.10893923243217354,-1.2979244848746967,-1.2758165037655251,0.9173190548535648,0.9819874472759305,1.3003346565544656,1.2911600576292115,0.0101152502762698,0.0038358884659216034,0.0,0.019379880655717573
1782019008.0933368,130,1,8.410402473306294e-06,0.18,-0.024918046926469345,0.09885523721722712,0.17663533730637798,-0.017041008072500217,0.08409020622589276,0.17401602572843847,0.12274843090949131,-1.301637897526839,-1.2804195699246312,0.9118376603998706,0.9743156703440873,1.3018391004894143,1.2926944130155804,0.01076094503283552,0.0038358884659216034,0.0,0.019379880655717573
1782019008.1263263,131,1,7.989114280034094e-06,0.18,-0.026624688016789952,0.10032551163202828,0.17713879048172756,-0.018613289288229015,0.0858723938023121,0.18568214055537127,0.1334889186140718,-1.305295006250333,-1.2850226360837371,0.9063857054751516,0.9681782487986127,1.3030525793341483,1.2926944130155804,0.011404101068702507,0.0038358884659216034,0.0,0.019379880655717573
1782019008.1558998,132,1,7.5867211259156875e-06,0.18,-0.02832530050519698,0.1018127726771122,0.17729204716292243,-0.02015008628900862,0.08685090931326925,0.1972566275158512,0.1442294063186523,-1.308900137701255,-1.2880913468564743,0.9009586739659112,0.9651095380258755,1.3039914317432688,1.2926944130155804,0.012040706444981656,0.0038358884659216034,0.0,0.019379880655717573
1782019008.1872265,133,1,7.205804454058942e-06,0.18,-0.030009592022749457,0.10331777541176848,0.17734962036809493,-0.021462367076036735,0.08838694635527339,0.2086677159611116,0.15343553863686415,-1.3124599556026662,-1.2926944130155804,0.8955503005753004,0.9589721164804008,1.3046768286431067,1.2957631237883178,0.012666795302459405,0.0038358884659216034,0.0,0.019379880655717573
1782019008.2233093,134,1,6.848112597735986e-06,0.18,-0.031667183054834167,0.10484135895965063,0.1771948486874896,-0.02339916931833401,0.09011611807524729,0.21984454732934666,0.1672447371141819,-1.3159833082925634,-1.2972974791746863,0.8901528873850245,0.9513003395485576,1.3051342990529498,1.3003661899474237,0.013278492287813122,0.0038358884659216034,0.0,0.019379880655717573
1782019008.2629375,135,1,6.514926050282721e-06,0.18,-0.033287694560062746,0.10638438258244978,0.17754970818812968,-0.02521411713798678,0.09208939665802125,0.2307178785147929,0.17951958020513106,-1.319481016662824,-1.3034349007201609,0.8847576592200013,0.945162918003083,1.3053931498709144,1.3003661899474237,0.013872052965487547,0.0038358884659216034,0.0,0.019379880655717573
1782019008.2909117,136,1,6.207509553004232e-06,0.18,-0.03486083581838725,0.1079476592668411,0.17786464295154758,-0.026608007665357314,0.09373145715281501,0.2412207249801734,0.1887257125233429,-1.3229656029765207,-1.3065036114928983,0.879355148807053,0.9390254964576086,1.3054857933140454,1.3003661899474237,0.014443899313605589,0.005370243852290245,0.0,0.019379880655717573
1782019008.326494,137,1,5.927589741261003e-06,0.18,-0.03637649173290866,0.10953188803827106,0.17806231778128803,-0.028433854307339232,0.095379714365953,0.251288933109156,0.201000555614292,-1.326450963132055,-1.3095723222656355,0.8739356015011507,0.932888074912134,1.3054469995077702,1.3003661899474237,0.014990649660774593,0.006904599238658886,0.0,0.019379880655717573
1782019008.3583212,138,1,5.677771493488557e-06,0.18,-0.03782480881446856,0.11113758625807321,0.17812498351806705,-0.03000839614939417,0.09653395543567046,0.260861674781978,0.2117410433188725,-1.329951987179884,-1.3111066776520042,0.8684893885831364,0.9282850087530281,1.3053130949252827,1.3003661899474237,0.015509142701429255,0.006904599238658886,0.0,0.019379880655717573
1782019008.389658,139,1,5.461786287656349e-06,0.18,-0.03919627908956527,0.1127650231826369,0.17821550634388197,-0.03161031660117455,0.09803603417694383,0.2698818607985498,0.22248153102345297,-1.3334841352045803,-1.31570974381111,0.8630074178820162,0.923681942593922,1.3051211297757177,1.3003661899474237,0.0159964555159457,0.008438954625027528,0.0,0.019379880655717573
1782019008.4273145,140,1,5.284458384873428e-06,0.18,-0.04048182119032863,0.11441415606433993,0.17824939686293514,-0.03319608416456929,0.09937004451895552,0.27829647332759516,0.2332220187280335,-1.3370629778708691,-1.3187784545838472,0.8574815307133546,0.9190788764348161,1.3049080389173358,1.3003661899474237,0.016449915804015672,0.008438954625027528,0.0,0.019379880655717573
1782019008.4619257,141,1,5.151293386103788e-06,0.18,-0.041672857910052735,0.11608457005345327,0.17843532592845485,-0.03460113811063549,0.10121254149144533,0.2860568208181712,0.24242815104624535,-1.3407037129525718,-1.3233815207429531,0.8519048748648375,0.9129414548893416,1.304709821332825,1.3003661899474237,0.01686710875981917,0.008438954625027528,0.0,0.019379880655717573
1782019008.4901094,142,1,5.067664739625163e-06,0.18,-0.04276138953890948,0.11777542311835247,0.17861998444503244,-0.03578711959361766,0.10288719685103524,0.29311872159354735,0.25009992797808855,-1.3444206708316182,-1.3264502315156905,0.8462722445264625,0.906804033343867,1.3045607625871423,1.3003661899474237,0.017245879230104427,0.008438954625027528,0.0,0.019379880655717573
1782019008.5313206,143,1,5.03770514788572e-06,0.18,-0.0437400623316698,0.11948539713858942,0.17876149097943358,-0.037428901884703374,0.10490008954975777,0.29944262455196624,0.260840415682669,-1.3482268231287509,-1.3295189422884277,0.8405803795126072,0.8991322564120239,1.3044927230788024,1.3003661899474237,0.01758432992890059,0.008438954625027528,0.0,0.019379880655717573
1782019008.5595431,144,1,5.0631720757776005e-06,0.18,-0.04460223150221273,0.12121265624249244,0.17877069837656834,-0.03835304682788654,0.10609435125520204,0.3049936769414809,0.2669778372281436,-1.352133309267769,-1.3341220084475336,0.8348282178091306,0.8960635456392866,1.304534512300242,1.3003661899474237,0.017880816581452106,0.008438954625027528,0.0,0.019379880655717573
1782019008.5988865,145,1,5.142645809177906e-06,0.18,-0.045342018187926825,0.12295481335911387,0.17888323642855652,-0.03955383638195427,0.1079605784023501,0.3097417500629258,0.2746496141599868,-1.35614899578709,-1.3387250746066395,0.8290170972271413,0.8899261240938119,1.304711365936732,1.3003661899474237,0.01813394090039338,0.009973310011396168,0.0,0.019379880655717573
1782019008.638659,146,1,5.2713389929613975e-06,0.18,-0.045954359880372775,0.12470890583498233,0.17902586000925957,-0.04053714794833438,0.10983281688546104,0.3136614339947639,0.2807870357054614,-1.3602800825440828,-1.3433281407657454,0.8231509036355438,0.8837887025483374,1.305044538592723,1.3003661899474237,0.018342542291537114,0.01150766539776481,0.0,0.019379880655717573
1782019008.667427,147,1,5.441560917502803e-06,0.18,-0.04643505387630804,0.12647138083098838,0.1791776375794319,-0.041047924120085906,0.11119641066511589,0.316732012094517,0.2838557464781986,-1.3645297686407296,-1.3463968515384828,0.8172361648005608,0.8791856363892315,1.3055510204422778,1.3003661899474237,0.018505689144126092,0.01150766539776481,0.0,0.019379880655717573
1782019008.7048955,148,1,5.6436314278308235e-06,0.18,-0.046780793364864744,0.12823809106585657,0.17933975716992354,-0.04179810898989186,0.11307846479291696,0.3189374251890046,0.2884588126373046,-1.368897989079257,-1.3509999176975886,0.811282090213621,0.8730482148437569,1.306243381387676,1.3003661899474237,0.018622670470230165,0.01150766539776481,0.0,0.019379880655717573
1782019008.7422647,149,1,5.866936288507277e-06,0.18,-0.046989195831767944,0.130004301312277,0.17963053919526922,-0.04259066762203275,0.11564280084674786,0.3202662340955295,0.2930618787964105,-1.373381230748042,-1.3556029838566945,0.8053005583475532,0.8638420825255451,1.3071297415812657,1.3003661899474237,0.018692988559204468,0.01150766539776481,0.0,0.019379880655717573
1782019008.7687728,150,1,6.10087104507871e-06,0.18,-0.047058823529411764,0.13176470588235292,0.17985754363657783,-0.042659168858329904,0.11719746934902255,0.32071158752693396,0.2930618787964105,-1.3779724336534904,-1.3602060500158004,0.7993060535914116,0.8592390163664392,1.308213862636746,1.3003661899474237,0.018716353184849252,0.01150766539776481,0.0,0.019379880655717573
1782019008.7988513,151,1,6.335548633626347e-06,0.18,-0.04698919583176793,0.13351345716317525,0.18000603203379717,-0.04294046488337088,0.11857556360108372,0.320271200583985,0.29459623418277914,-1.3826609804297803,-1.363274760788538,0.7933155556938029,0.8546359502073332,1.309495349716759,1.3003661899474237,0.01869267776584602,0.01150766539776481,0.0,0.019379880655717573
1782019008.8364415,152,1,6.5622561394009575e-06,0.18,-0.046780793364864744,0.1352442050838126,0.18040518579964648,-0.042824425918407155,0.12081754272126957,0.31894734703030053,0.2930618787964105,-1.387432774138768,-1.367877826947644,0.7873483848640551,0.84696417327549,1.3109699511096258,1.3003661899474237,0.018622077737017403,0.01150766539776481,0.0,0.019379880655717573
1782019008.875003,153,1,6.773701705255158e-06,0.18,-0.04643505387630804,0.13695014721463042,0.18063591773210427,-0.04289405331318423,0.12290444300315831,0.3167468664285155,0.2930618787964105,-1.3922704015706626,-1.3740152484931185,0.7814260059279384,0.8408267517300154,1.3126299389930223,1.3003661899474237,0.01850487122693097,0.01150766539776481,0.0,0.019379880655717573
1782019008.9044828,154,1,6.964106443214369e-06,0.18,-0.045954359880372775,0.13862408902148413,0.18085051446983577,-0.04295881155011514,0.12481498339706737,0.31368118507670256,0.2930618787964105,-1.397153376572858,-1.3786183146522244,0.7755717950390529,0.834689330184541,1.3144645529713728,1.3003661899474237,0.018341582003074303,0.01150766539776481,0.0,0.019379880655717573
1782019008.9352007,155,1,7.129187965481977e-06,0.18,-0.045342018187926846,0.1402585136238321,0.18087525609421584,-0.04296628179946056,0.12655807423082807,0.30976634757026533,0.2930618787964105,-1.4020584556245652,-1.3832213808113303,0.7698107725444584,0.8285519086390664,1.3164604866943883,1.3019005453337922,0.018132944465698148,0.01150766539776481,0.0,0.019379880655717573
1782019008.975004,156,1,7.266069604334132e-06,0.18,-0.044602231502212715,0.14184566023997724,0.18041493003944467,-0.042840051596502185,0.1283071179211021,0.30502305380397926,0.2930618787964105,-1.4069600160021798,-1.3893588023568049,0.7641693057403154,0.8208801317072232,1.3186023974194323,1.3080379668792668,0.017879910342969017,0.013042020784133452,0.0,0.019379880655717573
1782019009.00675,157,1,7.373138541105691e-06,0.18,-0.043740062331669785,0.14337761034718358,0.18039990210323684,-0.04283552162726938,0.1300453727260331,0.29947669438570423,0.2930618787964105,-1.4118304853937205,-1.3939618685159108,0.7586747853894186,0.8147427101617485,1.3208734188137852,1.3095723222656355,0.017583656577585732,0.013042020784133452,0.0,0.019379880655717573
1782019009.0452325,158,1,7.449868736842104e-06,0.18,-0.04276138953890947,0.14484638044188475,0.18036567176434565,-0.04282519745677643,0.1317831057183844,0.2931573758407496,0.2930618787964105,-1.4166408109017228,-1.3985649346750166,0.7533552801197275,0.808605288616274,1.3232556584945587,1.3111066776520042,0.01724559377410426,0.013042020784133452,0.0,0.019379880655717573
1782019009.0809531,159,1,7.496621694505314e-06,0.18,-0.041672857910052714,0.14624402015798793,0.1799640808929987,-0.042704024175985865,0.1333461432551209,0.28609992572079396,0.2930618787964105,-1.4213609548774229,-1.4047023562204912,0.7482391730843716,0.8024678670707994,1.3257306637322843,1.31570974381111,0.01686737444262139,0.013042020784133452,0.0,0.019379880655717573
1782019009.1066904,160,1,7.514436471381897e-06,0.18,-0.04048182119032864,0.14756271439154117,0.17971735353076781,-0.04262957854258029,0.13437883608735973,0.2783438668845742,0.2930618787964105,-1.425960405005956,-1.4077710669932284,0.7433547855572572,0.7978648009116935,1.3282798412948729,1.3187784545838472,0.016450900198547704,0.013042020784133452,0.0,0.019379880655717573
1782019009.1468246,161,1,7.504819942016199e-06,0.18,-0.03919627908956525,0.1487948879896762,0.1798009470219116,-0.042654808786785514,0.13681064999597062,0.2699333498779876,0.2930618787964105,-1.4304086865134753,-1.413908488538703,0.7387299924537568,0.7901930239798504,1.3308848204229606,1.3187784545838472,0.015998326995882755,0.013042020784133452,0.0,0.019379880655717573
1782019009.183081,162,1,7.469549352229988e-06,0.18,-0.037824808814468536,0.14993331149238412,0.17931389902789624,-0.04249518287987897,0.1380144950998242,0.2609170325782727,0.2930618787964105,-1.434675865105575,-1.4200459100841776,0.734391834996324,0.7855899578207445,1.3335277513123405,1.3233815207429531,0.015512067475033692,0.01150766539776481,0.0,0.019379880655717573
1782019009.2112591,163,1,7.410498134026964e-06,0.18,-0.036376491732908633,0.15097120636862751,0.17900181785378955,-0.042401016223065593,0.1386942456516597,0.2513478971381644,0.2930618787964105,-1.4387330304132948,-1.4231146208569148,0.7303661359488116,0.7825212470480071,1.33619153500919,1.3264502315156905,0.01499478950213752,0.01150766539776481,0.0,0.019379880655717573
1782019009.2472482,164,1,7.329496116093937e-06,0.18,-0.03486083581838722,0.15190234816450698,0.1790957999777511,-0.04149169161050743,0.14007376819599607,0.24128299581011076,0.2869244572509359,-1.442552751038952,-1.4277176870160206,0.7266771228823501,0.7779181808889012,1.3388599842090847,1.327984586902059,0.014449410080889694,0.01150766539776481,0.0,0.019379880655717573
1782019009.2942886,165,1,7.228232429607332e-06,0.18,-0.033287694560062725,0.15272116598129912,0.17896526336547902,-0.03935761092233269,0.1415962085499749,0.23078311941188176,0.27311525877361814,-1.4461094938851196,-1.4353894639478642,0.7233470648934659,0.7717807593434266,1.3415179178652292,1.3341220084475336,0.013879083940129912,0.01150766539776481,0.0,0.019379880655717573
1782019009.32343,166,1,7.108206913551403e-06,0.18,-0.031667183054834146,0.15342283672540852,0.17914241990470203,-0.03801747991172286,0.14244901732670978,0.21991238497153967,0.2639091264554063,-1.4493800020843435,-1.4384581747206013,0.7203959279643124,0.7687120485706893,1.34415119565002,1.3356563638339023,0.013287186298708944,0.01150766539776481,0.0,0.019379880655717573
1782019009.3613067,167,1,6.970731400349403e-06,0.18,-0.030009592022749422,0.15400337262051136,0.17928416284879822,-0.036671536307166824,0.14381831356220987,0.20873774233102713,0.25470299413719444,-1.4523436275616781,-1.4430612408797072,0.7178410538125807,0.7641089824115834,1.3467467010142726,1.337190719220271,0.01267728954232549,0.01150766539776481,0.0,0.019379880655717573
1782019009.4018433,168,1,6.816978525260058e-06,0.18,-0.028325300505196938,0.15445970054391167,0.17948620840188328,-0.03580368946826041,0.1451964669197578,0.19732840302920768,0.24856557259171988,-1.4549826158819001,-1.4461299516524446,0.715696866577123,0.7595059162524775,1.349292283746324,1.337190719220271,0.012053133828222573,0.01150766539776481,0.0,0.019379880655717573
1782019009.4439187,169,1,6.648070307013393e-06,0.18,-0.026624688016789917,0.1547897318435294,0.17966436307246117,-0.03355724096785026,0.14585720875517438,0.1857551984181573,0.2332220187280335,-1.457282342590658,-1.4491986624251818,0.7139746111093815,0.7564372054797402,1.351776674464064,1.3402594299930082,0.011418591931808865,0.01150766539776481,0.0,0.019379880655717573
1782019009.4758143,170,1,6.4651962932130215e-06,0.18,-0.024918046926469317,0.154992421407771,0.17946947863521484,-0.03191897967563111,0.14564504515062343,0.17408987744681878,0.22248153102345297,-1.4592315015510358,-1.452267373197919,0.7126821259590828,0.7564372054797402,1.3541893842993236,1.344862496152114,0.010777628945642584,0.01150766539776481,0.0,0.019379880655717573
1782019009.5086102,171,1,6.2697470915023135e-06,0.18,-0.023215495841085745,0.15506781489624938,0.1794558175918507,-0.030106112986406516,0.145619070929065,0.16240435763505554,0.21020668793250386,-1.4608222468796745,-1.4553360839706564,0.7118236534715104,0.7564372054797402,1.356520603163725,1.3479312069248515,0.010134257720487518,0.01150766539776481,0.0,0.019379880655717573
1782019009.5430129,172,1,6.06344830169507e-06,0.18,-0.021526894755595896,0.15501708319305169,0.1793749385002264,-0.028738550248370763,0.14541843384918818,0.1507699452240325,0.201000555614292,-1.462050290839326,-1.456870439357025,0.7113996887364262,0.7564372054797402,1.3587611093655214,1.3509999176975886,0.009492491171578866,0.01150766539776481,0.0,0.019379880655717573
1782019009.5736501,173,1,5.848478420223474e-06,0.18,-0.019861762718108796,0.15484254331384337,0.17932354088539795,-0.027383327659912124,0.14504479015898725,0.13925654214684158,0.19179442329608018,-1.4629149604818361,-1.456870439357025,0.7114068685292835,0.7564372054797402,1.3609022020549701,1.3540686284703258,0.008856292746518996,0.01150766539776481,0.0,0.019379880655717573
1782019009.606848,174,1,5.6275540881337935e-06,0.18,-0.018229198735477,0.15454766518113405,0.1795116864988927,-0.025631906454932334,0.14519779781259004,0.12793185820100372,0.17951958020513106,-1.463419215930185,-1.456870439357025,0.7118379008908171,0.7549028500933715,1.362935666044026,1.3556029838566945,0.008229526445673159,0.01150766539776481,0.0,0.019379880655717573
1782019009.6401515,175,1,5.40396433284558e-06,0.18,-0.016637806616154025,0.15413706387587708,0.17981570557363918,-0.02390323828567104,0.1451978023997641,0.11686064656694438,0.1672447371141819,-1.4635696329752856,-1.456870439357025,0.712681535643097,0.7549028500933715,1.3648537760680142,1.3556029838566945,0.007615907801293251,0.01150766539776481,0.0,0.019379880655717573
1782019009.6735866,176,1,5.181535415682923e-06,0.18,-0.015095624411885583,0.15361647717542246,0.18004773412216185,-0.02260722112062641,0.1455372969308416,0.10610397966452467,0.15803860479597007,-1.463376352143327,-1.456870439357025,0.7139225759307416,0.753368494707003,1.3666493446243428,1.3556029838566945,0.007018957147723007,0.01150766539776481,0.0,0.019379880655717573
1782019009.7070808,177,1,4.964505911233651e-06,0.18,-0.013610059078781087,0.15299272839472747,0.18000157070504508,-0.020826249885876388,0.1451641393553142,0.09571858037367127,0.14576376170502095,-1.4628529957190757,-1.456870439357025,0.715541930843179,0.753368494707003,1.3683158142939111,1.3586716946294317,0.0064419563755591545,0.01150766539776481,0.0,0.019379880655717573
1782019009.7437446,178,1,4.757294590542724e-06,0.18,-0.012187826931790649,0.1522736747566127,0.1797741074672316,-0.01902848697868518,0.14460622540216364,0.08575622106741293,0.1334889186140718,-1.4620165533889888,-1.456870439357025,0.7175167092621896,0.753368494707003,1.369847392047322,1.363274760788538,0.005887910156045029,0.01150766539776481,0.0,0.019379880655717573
1782019009.778367,179,1,4.564151629183831e-06,0.18,-0.010834900414999392,0.15146814172462686,0.1796801712231282,-0.017258496482586497,0.14423550587688455,0.07626319992494078,0.12121407552312267,-1.4608872363812668,-1.456870439357025,0.719820355269863,0.753368494707003,1.371239219659127,1.3663434715612752,0.005359512379171142,0.01150766539776481,0.0,0.019379880655717573
1782019009.8125644,180,1,4.388703999145165e-06,0.18,-0.009556461653908985,0.15058584393566005,0.17985740618119267,-0.01574478752845479,0.14423550989364592,0.06727990086022542,0.11047358781854218,-1.4594882992944596,-1.456870439357025,0.722422825681669,0.753368494707003,1.3724875711567333,1.3663434715612752,0.004859118288709463,0.01150766539776481,0.0,0.019379880655717573
1782019009.8460279,181,1,4.233438449172624e-06,0.18,-0.008356863195501683,0.1496372935657659,0.17999637467717883,-0.014445870504061278,0.14423551334043794,0.058840440343953714,0.10126745550033033,-1.4578458283359428,-1.456870439357025,0.7252908104843508,0.753368494707003,1.3735900654114672,1.3663434715612752,0.004388722535591779,0.01150766539776481,0.0,0.019379880655717573
1782019009.877235,182,1,4.09920545581194e-06,0.18,-0.007239596277911895,0.14863369714875918,0.18010304327219664,-0.013362499745261415,0.1442355162152588,0.05097240161712026,0.09359567856848712,-1.4559884945473425,-1.456870439357025,0.7283879970516813,0.753368494707003,1.3745458797440833,1.3663434715612752,0.003949943140111649,0.01150766539776481,0.0,0.019379880655717573
1782019009.9140463,183,1,3.9848560137962645e-06,0.18,-0.0062072669045339065,0.14758684204022926,0.18022007001227341,-0.012061422337401723,0.14423551966778364,0.04369665444235258,0.08438954625027527,-1.453947270785499,-1.456870439357025,0.7316753789482559,0.753368494707003,1.37535594890205,1.3663434715612752,0.003544011147219104,0.01150766539776481,0.0,0.019379880655717573
1782019009.9442258,184,1,3.887117678746126e-06,0.18,-0.0052615799279632286,0.14650897387700496,0.18029143136460177,-0.011193462691859446,0.144235521970992,0.0370272567130499,0.07825212470480071,-1.451755111822263,-1.456870439357025,0.7351116098362162,0.753368494707003,1.376023133137331,1.3663434715612752,0.0031717656132692167,0.01150766539776481,0.0,0.019379880655717573
1782019009.9817252,185,1,3.8007661497342624e-06,0.18,-0.0044033312779235435,0.14541266652141438,0.18040349089767507,-0.009673538453870627,0.14423552600424672,0.030971432973735773,0.06751163700022023,-1.4494465978708913,-1.456870439357025,0.7386534024061512,0.753368494707003,1.3765523394760346,1.3663434715612752,0.0028336534593621713,0.01150766539776481,0.0,0.019379880655717573
1782019010.0155911,186,1,3.7190686600786016e-06,0.18,-0.003632408394901011,0.14431068609873768,0.18048654431989097,-0.008369851448414924,0.14423552946369664,0.025529624186986462,0.058305504682008374,-1.4470575430763446,-1.456870439357025,0.74225597139069,0.753368494707003,1.37695058164772,1.3663434715612752,0.0025297336735461886,0.01150766539776481,0.0,0.019379880655717573
1782019010.050105,187,1,9.480367213500372e-05,0.18,-0.0029477988582366573,0.14321585083319716,0.180363762024427,-0.007709145247966032,0.14405053689401703,0.021218618931100705,0.05370243852290245,-1.4448818250861288,-1.456870439357025,0.7456555495598717,0.753368494707003,1.3775264643184615,1.367877826947644,0.0022892040386160383,0.01150766539776481,0.0,0.019379880655717573
1782019010.0861015,188,1,9.942738906386795e-05,0.18,-0.002347607124564873,0.14214088846111986,0.17991651297970107,-0.007033955284860484,0.14349703209397546,0.016972556836243755,0.04909937236379653,-1.4424947541946302,-1.456870439357025,0.7492090177831753,0.753368494707003,1.3777825254411398,1.3724808931067498,0.0020519671660040547,0.01150766539776481,0.0,0.019379880655717573
1782019010.1250317,189,1,9.397693695084332e-05,0.18,-0.001829079220375654,0.14109829304835153,0.1797972112507322,-0.006136810837830797,0.1433132368761844,0.013246423405369082,0.04296195081832196,-1.4400965320008376,-1.456870439357025,0.7527114713141009,0.753368494707003,1.377876266898944,1.3740152484931185,0.0018436632554026645,0.008438954625027528,0.0,0.019379880655717573
1782019010.1587236,190,1,8.708351396142395e-05,0.18,-0.0013886351617634603,0.14010018306177163,0.17983221897217874,-0.00527155802203769,0.14331323917221025,0.01006807011479917,0.03682452927284739,-1.4377515975772301,-1.456870439357025,0.7560993037189448,0.753368494707003,1.3778659937959994,1.3740152484931185,0.001665917543575359,0.008438954625027528,0.0,0.019379880655717573
1782019010.1881115,191,1,7.989849018789424e-05,0.18,-0.0010219088057320915,0.13915816254140528,0.17985548090328413,-0.004610370929893801,0.1433133683041913,0.007413190161913968,0.03222146311374147,-1.4355009282689826,-1.456870439357025,0.7593248496671353,0.753368494707003,1.377777003854587,1.3740152484931185,0.0015173957685167402,0.006904599238658886,0.0,0.019379880655717573
1782019010.2214537,192,1,7.255699754767241e-05,0.18,-0.0007237947713632409,0.13828318719009136,0.1798559838990555,-0.004598256172985953,0.14331351028997577,0.005247089333672997,0.03222146311374147,-1.4333794521908836,-1.456870439357025,0.762344916237644,0.753368494707003,1.3776278170576237,1.3740152484931185,0.0013961724573272754,0.005370243852290245,0.0,0.019379880655717573
1782019010.2566934,193,1,6.503855462177674e-05,0.18,-0.0004885020063135423,0.13748543714227512,0.1798559838990555,-0.004598256172985953,0.14331351028997577,0.003529595966474931,0.03222146311374147,-1.4314191859909322,-1.456870439357025,0.7651192513102325,0.753368494707003,1.377435787289277,1.3740152484931185,0.001300012808934167,0.005370243852290245,0.0,0.019379880655717573
1782019010.2883425,194,1,5.730656658978456e-05,0.18,-0.00030961351503737996,0.13677419809295957,0.17983440709080648,-0.004597559939543571,0.1429769600075465,0.00221598098639239,0.03222146311374147,-1.4296495347427693,-1.456870439357025,0.7676106888452773,0.7549028500933715,1.377217886592376,1.3740152484931185,0.001226425735904955,0.005370243852290245,0.0,0.019379880655717573
1782019010.326748,195,1,4.933681668200108e-05,0.18,-0.00018015171036641915,0.13615775236326275,0.17974293944194492,-0.004594608705650082,0.1416311019985642,0.0012574790923531216,0.03222146311374147,-1.4280970240510589,-1.456870439357025,0.7697856161282907,0.7610402716388461,1.3769904412176313,1.3740152484931185,0.0011726932923864263,0.005370243852290245,0.0,0.019379880655717573
1782019010.3607345,196,1,4.112470642582189e-05,0.18,-9.264880009687872e-05,0.1356432813518373,0.17969411012592712,-0.0045930333330837314,0.14095838995590487,0.0006017953165939136,0.03222146311374147,-1.426784943863889,-1.456870439357025,0.7716144762075278,0.7641089824115834,1.376768649722916,1.3740152484931185,0.001135898923572531,0.005370243852290245,0.0,0.019379880655717573
1782019010.3946059,197,1,3.2686748077267414e-05,0.18,-3.9221575486043215e-05,0.13523678067339545,0.17969284078512865,-0.004160326626587641,0.1401162832167367,0.0001936346762497258,0.029152752341004187,-1.4257330099146202,-1.4553360839706564,0.7730722351986636,0.7671776931843207,1.3765660772072115,1.3740152484931185,0.001112956889607441,0.005370243852290245,0.0,0.019379880655717573
1782019010.4317586,198,1,2.4059620844949057e-05,0.18,-1.1649929437829322e-05,0.1349429891188504,0.17969141013844814,-0.003511437462865653,0.13927444686312196,-2.474437231127398e-05,0.024549686181898265,-1.4249570698644296,-1.4538017285842877,0.7741387904224037,0.7702464039570579,1.3763941850586563,1.3740152484931185,0.0011006429948619033,0.005370243852290245,0.0,0.019379880655717573
1782019010.4651985,199,1,1.5298552973146587e-05,0.18,-1.4583990102419277e-06,0.1347653323885074,0.17971030699636054,-0.0026468834348724176,0.13927444915729356,-0.00011295616427328587,0.018412264636423696,-1.4244688639047074,-1.4538017285842877,0.7747993061462161,0.7702464039570579,1.376261925821254,1.3740152484931185,0.001095626476919364,0.005370243852290245,0.0,0.019379880655717573
1782019010.495649,200,1,6.960834223653418e-05,0.18,0.0,0.13470588235294118,0.17968590981730703,-0.002430249805811297,0.13893839697615734,-0.00011295616427328587,0.016877909250055056,-1.4244688639047074,-1.4538017285842877,0.7747993061462161,0.7717807593434266,1.376261925821254,1.3740152484931185,0.001095626476919364,0.005370243852290245,0.0,0.019379880655717573
1782019010.5307007,201,1,1.5863701919905287e-05,0.18,1.458399010241918e-06,0.1347653323885074,0.17969428956437897,-0.002214204682244146,0.13843290301612182,-0.00011295616427328587,0.015343553863686413,-1.4244688639047074,-1.452267373197919,0.7747993061462161,0.7733151147297952,1.376261925821254,1.3740152484931185,0.001095626476919364,0.005370243852290245,0.0,0.019379880655717573
1782019010.5647907,202,1,8.37519797008195e-06,0.18,1.1649929437829385e-05,0.1349429891188504,0.17972765502261545,-0.002214716006102949,0.13826336602523437,-0.00020501980146853544,0.015343553863686413,-1.4247999412104686,-1.4507330178115505,0.7742685841051715,0.7733151147297952,1.3761775371302074,1.3740152484931185,0.0010903616285350508,0.005370243852290245,0.0,0.019379880655717573
1782019010.598132,203,1,1.9211640805324425e-05,0.18,3.922157548604358e-05,0.13523678067339548,0.17972765502261545,-0.002214716006102949,0.13826336602523437,-0.00038829974958735523,0.015343553863686413,-1.4254796380030679,-1.4507330178115505,0.7732779622112101,0.7733151147297952,1.3762116682755396,1.3740152484931185,0.00108007066651216,0.005370243852290245,0.0,0.019379880655717573
1782019010.6313922,204,1,2.8129095619342537e-05,0.18,9.264880009687977e-05,0.1356432813518373,0.17972765502261545,-0.002214716006102949,0.13826336602523437,-0.00074400406524599,0.015343553863686413,-1.4264506844906075,-1.4507330178115505,0.7718845462177858,0.7733151147297952,1.376302821261692,1.3740152484931185,0.0010601564103820777,0.005370243852290245,0.0,0.019379880655717573
1782019010.6646185,205,1,3.6423977077027786e-05,0.18,0.00018015171036642137,0.13615775236326277,0.17972765502261545,-0.002214716006102949,0.13826336602523437,-0.0013327477136765924,0.015343553863686413,-1.4276903049056415,-1.4507330178115505,0.7701130176977778,0.7733151147297952,1.3764281408947119,1.3740152484931185,0.0010272080408706024,0.005370243852290245,0.0,0.019379880655717573
1782019010.6982217,206,1,4.4376224143753386e-05,0.18,0.0003096135150373797,0.13677419809295957,0.17972765502261545,-0.002214716006102949,0.13826336602523437,-0.002210744663225875,0.015343553863686413,-1.4291783676185423,-1.4507330178115505,0.7679884504656849,0.7733151147297952,1.3765732055123232,1.3740152484931185,0.000978069135950767,0.005370243852290245,0.0,0.019379880655717573
1782019010.7314796,207,1,5.2050416467785495e-05,0.18,0.0004885020063135433,0.13748543714227515,0.17972765502261545,-0.002214716006102949,0.13826336602523437,-0.003431112120516437,0.015343553863686413,-1.4308923786200936,-1.4507330178115505,0.7655397303069387,0.7733151147297952,1.3767239533045557,1.3740152484931185,0.0009097573691246504,0.005370243852290245,0.0,0.019379880655717573
1782019010.7648304,208,1,5.948391272809199e-05,0.18,0.0007237947713632435,0.13828318719009136,0.17972765502261545,-0.002214716006102949,0.13826336602523437,-0.005043542698688038,0.015343553863686413,-1.4328067336583443,-1.4507330178115505,0.7627998079554144,0.7733151147297952,1.376865301842523,1.3740152484931185,0.0008194814763919738,0.005370243852290245,0.0,0.019379880655717573
1782019010.7982647,209,1,6.672553034536571e-05,0.18,0.001021908805732097,0.1391581625414053,0.17972765502261545,-0.002214716006102949,0.13826336602523437,-0.007093819748550648,0.015343553863686413,-1.4348928668631777,-1.4507330178115505,0.7598053328019059,0.7733151147297952,1.3769812743832888,1.3740152484931185,0.0007046683961953161,0.005370243852290245,0.0,0.019379880655717573
1782019010.8317828,210,1,7.384025394254548e-05,0.18,0.0013886351617634685,0.14010018306177166,0.17972765502261545,-0.002214716006102949,0.13826336602523437,-0.009623342614851649,0.015343553863686413,-1.4371196200299738,-1.4507330178115505,0.7565961240806518,0.7733151147297952,1.3770554543633073,1.3740152484931185,0.0005629902573195284,0.005370243852290245,0.0,0.019379880655717573
1782019010.8653622,211,1,8.09050024379077e-05,0.18,0.001829079220375654,0.14109829304835153,0.17972765502261545,-0.002214716006102949,0.13826336602523437,-0.012668682771491534,0.015343553863686413,-1.4394536835098137,-1.4507330178115505,0.7532145841467469,0.7733151147297952,1.3770714973973202,1.3740152484931185,0.000392389852008932,0.005370243852290245,0.0,0.019379880655717573
1782019010.8986657,212,1,8.800121465526298e-05,0.18,0.002347607124564875,0.14214088846111986,0.17972765502261545,-0.002214716006102949,0.13826336602523437,-0.016261175455777988,0.015343553863686413,-1.4418600697531803,-1.4507330178115505,0.749705086518387,0.7733151147297952,1.377013625878765,1.3740152484931185,0.00019110432402399244,0.005370243852290245,0.0,0.019379880655717573
1782019010.9350302,213,1,9.520619092364946e-05,0.18,0.0029477988582366638,0.14321585083319718,0.17972765502261545,-0.002214716006102949,0.13826336602523437,-0.02042654965310136,0.015343553863686413,-1.444302603628991,-1.4507330178115505,0.7461133557612535,0.7733151147297952,1.3768670752002914,1.3740152484931185,-4.231307483991653e-05,0.005370243852290245,0.0,0.019379880655717573
1782019010.9697363,214,1,3.7941826072324662e-06,0.18,0.0036324083949010235,0.1443106860987377,0.17973635587661846,-0.0015661580041736118,0.13826336774624115,-0.0257618625767099,0.01074048770458049,-1.4470089597604572,-1.4507330178115505,0.7422592968450279,0.7733151147297952,1.3769158672486737,1.3740152484931185,-0.00034098588175909226,0.005370243852290245,0.0,0.019379880655717573
1782019011.0021172,215,1,9.867976640083243e-05,0.18,0.004403331277923562,0.14541266652141444,0.17974422293304898,-0.00048516105493446465,0.13826337061476363,-0.03061401505148926,0.003068710772737283,-1.449191753343257,-1.4507330178115505,0.7388410193937324,0.7733151147297952,1.376322866334847,1.3740152484931185,-0.0006132817286740868,0.005370243852290245,0.0,0.019379880655717573
1782019011.0364575,216,1,3.85011735383829e-06,0.18,0.0052615799279632286,0.14650897387700496,0.17974379667186008,0.0005958644365053156,0.13826337348336182,-0.0372508671991814,-0.004603066159105924,-1.4517048327746382,-1.4507330178115505,0.7351066926532578,0.7733151147297952,1.3760013763528745,1.3740152484931185,-0.0009850560665293057,0.005370243852290245,0.0,0.019379880655717573
1782019011.0698793,217,1,3.5386799551723533e-06,0.18,0.00620726690453391,0.14758684204022926,0.17973956011282044,0.0012444669637085815,0.1382633752044869,-0.043918093047738145,-0.009206132318211848,-1.4538984212331147,-1.4507330178115505,0.7316654678746499,0.7733151147297952,1.3753437260474257,1.3740152484931185,-0.0013588390728308322,0.005370243852290245,0.0,0.019379880655717573
1782019011.1090815,218,1,3.67662606163781e-06,0.18,0.007239596277911909,0.1486336971487592,0.17973233804886274,0.0018930431184654027,0.13826337692554205,-0.05118970610738927,-0.013809198477317772,-1.455940116654831,-1.4507330178115505,0.7283741967681285,0.7733151147297952,1.3745408524850657,1.3740152484931185,-0.001766465038268922,0.005370243852290245,0.0,0.019379880655717573
1782019011.1457639,219,1,3.843150576254904e-06,0.18,0.008356863195501697,0.1496372935657659,0.17972213063300932,0.002541579158627062,0.1382633786464907,-0.05905370676791516,-0.018412264636423696,-1.457798731466781,-1.4507330178115505,0.7252733118765325,0.7733151147297952,1.3735925815078787,1.3740152484931185,-0.0022072140944269136,0.005370243852290245,0.0,0.019379880655717573
1782019011.1701407,220,1,4.035929397866546e-06,0.18,0.00955646165390901,0.15058584393566005,0.17972259216611408,0.0038392993361448576,0.13859930103659832,-0.0674892800127207,-0.027618396954635544,-1.4594433242749216,-1.4507330178115505,0.7224018811368524,0.7717807593434266,1.3724979089230251,1.3740152484931185,-0.0026798634756172693,0.005370243852290245,0.0,0.019379880655717573
1782019011.205018,221,1,4.253170220923184e-06,0.18,0.010834900414999392,0.15146814172462683,0.17969657704041936,0.005136705618468022,0.13994670359549227,-0.07646888925544931,-0.03682452927284739,-1.4608452126438933,-1.4538017285842877,0.7197962718695149,0.7671776931843207,1.3712575660789392,1.3740152484931185,-0.0031828006626674664,0.005370243852290245,0.0,0.019379880655717573
1782019011.2517648,222,1,4.491533362313573e-06,0.18,0.012187826931790657,0.1522736747566127,0.17968447357140668,0.006435150092618822,0.1411250903836677,-0.08595846310699774,-0.04603066159105924,-1.4619782756206419,-1.4553360839706564,0.7174898289698645,0.7625746270252147,1.3698738556838372,1.3740152484931185,-0.0037140340475790633,0.005370243852290245,0.0,0.019379880655717573
1782019011.272793,223,1,4.746739355957078e-06,0.18,0.0136100590787811,0.1529927283947275,0.17965237289869035,0.0072999967243442855,0.14196754501380415,-0.09591766029620866,-0.05216808313653381,-1.4628192009641428,-1.456870439357025,0.7155126097576063,0.7595059162524775,1.3683504397639283,1.3740152484931185,-0.004271208866322094,0.005370243852290245,0.0,0.019379880655717573
1782019011.3106406,224,1,5.014134489282033e-06,0.18,0.015095624411885614,0.15361647717542246,0.17961151149094995,0.008814865771840697,0.14264047883417377,-0.10630022191853519,-0.0629085708411143,-1.463347697895001,-1.456870439357025,0.7138911637021849,0.7564372054797402,1.366692127337336,1.3740152484931185,-0.004851628971329601,0.005370243852290245,0.0,0.019379880655717573
1782019011.3428922,225,1,5.289125338291738e-06,0.18,0.016637806616154063,0.1541370638758771,0.17952923476104682,0.010352161014375524,0.1429773269135048,-0.11705441059217424,-0.07364905854569478,-1.4635466769496086,-1.456870439357025,0.7126483559555051,0.7549028500933715,1.3649046763722166,1.3740152484931185,-0.0054522844670939746,0.002301533079552962,0.0,0.019379880655717573
1782019011.3928156,226,1,5.56746606407127e-06,0.18,0.018229198735477,0.15454766518113405,0.17940819377699474,0.011886842910518385,0.1429777164506822,-0.1281235332970156,-0.08438954625027527,-1.4634023981187128,-1.456870439357025,0.7118032338129505,0.7549028500933715,1.3629946220240798,1.3740152484931185,-0.006069885004341518,-0.0007671776931843208,0.0,0.019379880655717573
1782019011.4150534,227,1,5.845412981817429e-06,0.18,0.019861762718108807,0.1548425433138434,0.17929184131481865,0.013192539370530465,0.14297793448269475,-0.13944654161500036,-0.09359567856848712,-1.4629045879617966,-1.456870439357025,0.7113709354132359,0.7549028500933715,1.3609691403339157,1.3740152484931185,-0.006700898279967441,-0.002301533079552962,0.0,0.019379880655717573
1782019011.4508266,228,1,6.119773562609308e-06,0.18,0.021526894755595914,0.15501708319305166,0.17914096466023519,0.014712396722229518,0.14297816763890647,-0.15095869995671168,-0.10433616627306762,-1.4620465257143953,-1.456870439357025,0.7113626401848084,0.7549028500933715,1.3588359534318102,1.3740152484931185,-0.007341593030920397,-0.0038358884659216034,0.0,0.019379880655717573
1782019011.4842124,229,1,6.387877210683793e-06,0.18,0.023215495841085777,0.15506781489624938,0.17899957463937655,0.016003427526683232,0.14297817106477367,-0.16259230937048189,-0.11354229859127946,-1.4608250975879167,-1.456870439357025,0.7117855607375018,0.7549028500933715,1.3566032788916382,1.3740152484931185,-0.007988085572663063,-0.0038358884659216034,0.0,0.019379880655717573
1782019011.523084,230,1,6.647492403587558e-06,0.18,0.024918046926469352,0.154992421407771,0.17881960647176212,0.01750790818497243,0.1429781750570494,-0.17427747193707632,-0.12428278629585994,-1.459240817678926,-1.456870439357025,0.7126429759756328,0.7549028500933715,1.3542798225085115,1.3740152484931185,-0.00863638872369932,-0.0038358884659216034,0.0,0.019379880655717573
1782019011.5524669,231,1,6.896711467537253e-06,0.18,0.026624688016789917,0.1547897318435294,0.1788125082129574,0.01881735047605724,0.14316194164065627,-0.18594287877365795,-0.1334889186140718,-1.4572978132170147,-1.456870439357025,0.7139343051774567,0.7549028500933715,1.3518748105322882,1.3724808931067498,-0.009282461811736961,-0.0038358884659216034,0.0,0.019379880655717573
1782019011.5877411,232,1,7.1338210330059374e-06,0.18,0.02832530050519695,0.15445970054391167,0.17869873721425117,0.020772122424962864,0.14334595744211542,-0.19751660349646943,-0.14729811709138957,-1.4550037713855795,-1.456870439357025,0.7156552225883901,0.7549028500933715,1.349398054455238,1.370946537720381,-0.009922260371798722,-0.0038358884659216034,0.0,0.019379880655717573
1782019011.633863,233,1,7.3571740894172315e-06,0.18,0.030009592022749443,0.15400337262051136,0.17832823954155297,0.023129654177490168,0.1433459636980402,-0.20892688273754925,-0.16417602634144463,-1.452369844750568,-1.456870439357025,0.7177978117482627,0.7549028500933715,1.3468600389494696,1.370946537720381,-0.010551784159337123,-0.0038358884659216034,0.0,0.019379880655717573
1782019011.6574073,234,1,7.5650782444053595e-06,0.18,0.03166718305483418,0.15342283672540852,0.1781093946605552,0.024412846341755046,0.14334596710310743,-0.2201028660309589,-0.17338215865965648,-1.4494105124413779,-1.456870439357025,0.7203507582903744,0.7549028500933715,1.344272021613341,1.370946537720381,-0.011167122173241291,-0.0038358884659216034,0.0,0.019379880655717573
1782019011.7018006,235,1,7.755711818591288e-06,0.18,0.033287694560062746,0.15272116598129912,0.1785870614431328,0.026268502560490264,0.14426972249734657,-0.23097531902601,-0.1856570017506056,-1.4461433946752,-1.456870439357025,0.723299579380975,0.7549028500933715,1.341646131849845,1.363274760788538,-0.011764493558289327,-0.0038358884659216034,0.0,0.019379880655717573
1782019011.7396915,236,1,7.927076402629651e-06,0.18,0.03486083581838722,0.15190234816450698,0.17845326854843263,0.027799079124037573,0.14445521308797965,-0.24147726644577316,-0.19639748945518612,-1.4425890190034196,-1.456870439357025,0.7266268873217001,0.7549028500933715,1.3389954555687955,1.3617404054021693,-0.012340283470323444,-0.0038358884659216034,0.0,0.019379880655717573
1782019011.7660198,237,1,8.076991890102038e-06,0.18,0.03637649173290865,0.15097120636862751,0.17828002400833431,0.028655444503077596,0.14445521536042333,-0.25154456429051536,-0.20253491100066065,-1.4387705377475442,-1.456870439357025,0.7303126841854565,0.7549028500933715,1.3363340925002,1.3617404054021693,-0.01289107327187646,-0.0038358884659216034,0.0,0.019379880655717573
1782019011.7945986,238,1,8.20313496561202e-06,0.18,0.03782480881446856,0.1499333114923841,0.17847635499162778,0.030038142636865932,0.14501314363199497,-0.26111639427098293,-0.2117410433188725,-1.4347133974311128,-1.456870439357025,0.7343346837095729,0.7549028500933715,1.3336771736871766,1.3571373392430632,-0.013413664707039304,-0.0038358884659216034,0.0,0.019379880655717573
1782019011.8350558,239,1,8.303119860885294e-06,0.18,0.039196279089565286,0.14879488798967616,0.17851035659772035,0.032069582816797025,0.1455732619472979,-0.27013567709966385,-0.2255502417961903,-1.4304449625484696,-1.456870439357025,0.7386686561130809,0.7549028500933715,1.33104082825318,1.3525342730839574,-0.013905098019107876,-0.0038358884659216034,0.0,0.019379880655717573
1782019011.864039,240,1,8.37461589039391e-06,0.18,0.04048182119032863,0.14756271439154117,0.17820656656901962,0.03336590608041535,0.1455735131723829,-0.2785494048146121,-0.23475637411440214,-1.425994097641206,-1.456870439357025,0.7432887910187265,0.7549028500933715,1.3284420906453998,1.3525342730839574,-0.014362664237146616,-0.005370243852290245,0.0,0.019379880655717573
1782019011.900698,241,1,8.415494730991415e-06,0.18,0.041672857910052714,0.14624402015798793,0.1779874156600409,0.0349227540473559,0.14576124674471974,-0.28630889557440975,-0.24549686181898261,-1.4213907133666113,-1.456870439357025,0.7481680733329003,0.7549028500933715,1.325898742244259,1.3509999176975886,-0.014783912112345947,-0.008438954625027528,0.0,0.019379880655717573
1782019011.9511697,242,1,8.423998888454905e-06,0.18,0.04276138953890947,0.14484638044188475,0.17829623466884859,0.036609088517283006,0.1461636733265128,-0.29336997713995683,-0.2562373495235631,-1.4166652838765397,-1.4538017285842877,0.7532786667268441,0.7549028500933715,1.323429084335818,1.344862496152114,-0.015166650378563186,-0.009973310011396168,0.0,0.019379880655717573
1782019011.9707494,243,1,8.398921786353575e-06,0.18,0.0437400623316698,0.14337761034718355,0.17830781952714136,0.03752848581482796,0.14600178946067469,-0.29969310746563305,-0.26237477106903767,-1.411848344351611,-1.4507330178115505,0.7585922992863756,0.7549028500933715,1.3210516428545227,1.3433281407657454,-0.015508946145449676,-0.009973310011396168,0.0,0.019379880655717573
1782019012.0097759,244,1,8.339790701121922e-06,0.18,0.04460223150221273,0.14184566023997722,0.17808563279226425,0.0388468628711577,0.14547657642472178,-0.3052434423674363,-0.2715809033872495,-1.4069699789067187,-1.4461299516524446,0.7640806459803788,0.7549028500933715,1.3187848088557872,1.3433281407657454,-0.015809120323389436,-0.009973310011396168,0.0,0.019379880655717573
1782019012.04045,245,1,8.24704269788397e-06,0.18,0.045342018187926846,0.1402585136238321,0.1783852373737641,0.03985489758538382,0.14568621086331346,-0.3099908611174478,-0.2777183249327241,-1.4020593101569367,-1.4430612408797072,0.7697157027592954,0.7549028500933715,1.3166464222046488,1.3387250746066395,-0.016065741004169833,-0.009973310011396168,0.0,0.019379880655717573
1782019012.0828373,246,1,8.122185375426021e-06,0.18,0.045954359880372775,0.13862408902148413,0.17863698278206075,0.04108909276179086,0.14451362110352858,-0.31390996105996266,-0.28539010186456726,-1.3971440025154205,-1.4369238193342326,0.7754701473529758,0.7595059162524775,1.3146533093444663,1.3341220084475336,-0.01627761569931454,-0.009973310011396168,0.0,0.019379880655717573
1782019012.1090133,247,1,7.96793301860479e-06,0.18,0.04643505387630804,0.1369501472146304,0.1784179532957469,0.04172369621893274,0.1433097904786186,-0.3169800320025419,-0.28999316802367325,-1.392249791718102,-1.4353894639478642,0.781317682141985,0.7641089824115834,1.3128207890064745,1.3341220084475336,-0.01644378328591194,-0.009973310011396168,0.0,0.019379880655717573
1782019012.1391065,248,1,7.78830899839202e-06,0.18,0.046780793364864744,0.13524420508381257,0.1783003786985498,0.042155198784468675,0.14141071967909094,-0.3191850202973218,-0.2930618787964105,-1.3874000530551707,-1.430786397788758,0.787233354773918,0.7702464039570579,1.3111621622797116,1.3341220084475336,-0.016563506395953935,-0.009973310011396168,0.0,0.019379880655717573
1782019012.172726,249,1,7.58870187546859e-06,0.18,0.046989195831767944,0.13351345716317523,0.17829097166437208,0.042152366555184964,0.13899441643655994,-0.3205134912547318,-0.2930618787964105,-1.3826154203381609,-1.4246489762432835,0.7931938524952762,0.7779181808889012,1.309688205374264,1.3341220084475336,-0.016636264891794282,-0.009973310011396168,0.0,0.019379880655717573
1782019012.2307029,250,1,7.375860469255289e-06,0.18,0.047058823529411764,0.13176470588235292,0.17886833095367732,0.04232659618909611,0.13625852356411539,-0.3209585969453147,-0.2930618787964105,-1.3779134667248094,-1.4154428439250717,0.7991777664012306,0.7886586685934817,1.3084066846395364,1.327984586902059,-0.016661750917152787,-0.009973310011396168,0.0,0.019379880655717573
1782019012.2566903,251,1,7.157807150344694e-06,0.18,0.046989195831767944,0.130004301312277,0.17910087833322413,0.04216203322857964,0.13521942457162345,-0.32051805459968963,-0.2915275234100419,-1.3733084571303316,-1.4108397777659656,0.8051658220005449,0.791727379366219,1.307321913824103,1.3264502315156905,-0.016639865872001385,-0.009973310011396168,0.0,0.019379880655717573
1782019012.287914,252,1,6.943643715128381e-06,0.18,0.046780793364864744,0.12823809106585657,0.17927574884872644,0.042214510452744006,0.13469874284304395,-0.3191941388025947,-0.2915275234100419,-1.3688111801128864,-1.4077710669932284,0.8111410726209316,0.7932617347525877,1.3064343731679984,1.3249158761293218,-0.016570719512806205,-0.009973310011396168,0.0,0.019379880655717573
1782019012.3217306,253,1,6.743220290838134e-06,0.18,0.04643505387630804,0.12647138083098836,0.17909115592512764,0.04215912392752087,0.13211494378260297,-0.316993688567685,-0.2915275234100419,-1.3644288648829732,-1.4031680008341225,0.817089052304185,0.8024678670707994,1.305740408654512,1.3249158761293218,-0.01645463122767627,-0.009973310011396168,0.0,0.019379880655717573
1782019012.3681593,254,1,6.566645791386356e-06,0.18,0.045954359880372754,0.12470890583498229,0.17890560401290165,0.042103450555462316,0.12918056117281868,-0.3139281282348246,-0.2915275234100419,-1.3601651864992823,-1.3954962239022792,0.8229978849630046,0.8116739993890113,1.3052320276972587,1.3249158761293218,-0.016292133382503706,-0.009973310011396168,0.0,0.019379880655717573
1782019012.3905358,255,1,6.423641298477473e-06,0.18,0.045342018187926825,0.12295481335911389,0.17878416292244087,0.04206701167896741,0.12780475579978434,-0.3100134990228473,-0.2915275234100419,-1.3560203594949556,-1.392427513129542,0.8288583467739256,0.8162770655481172,1.304896804672176,1.3249158761293218,-0.016083976489363445,-0.009973310011396168,0.0,0.019379880655717573
1782019012.4188838,256,1,6.322786684624717e-06,0.18,0.044602231502212715,0.12121265624249243,0.17872163063333257,0.042048249956212355,0.12659271961639826,-0.3052704960531988,-0.2915275234100419,-1.3519913172318125,-1.3878244469704362,0.834663879106418,0.8193457763208545,1.3047179061972178,1.3249158761293218,-0.0158311358048427,-0.009973310011396168,0.0,0.019379880655717573
1782019012.45507,257,1,6.270775508040036e-06,0.18,0.0437400623316698,0.11948539713858941,0.1784598728042624,0.04196970606278895,0.12454226509787106,-0.2997245038245856,-0.2915275234100419,-1.3480719713664233,-1.3847557361976988,0.8404105498001148,0.8270175532526978,1.304674241984757,1.3249158761293218,-0.015534818844458469,-0.009973310011396168,0.0,0.019379880655717573
1782019012.4930146,258,1,6.271843557088985e-06,0.18,0.04276138953890947,0.11777542311835244,0.17825506985713296,0.04190825344695741,0.1224808004799921,-0.29340562151516825,-0.2915275234100419,-1.3442535430697993,-1.3786183146522244,0.846096961359467,0.8331549747981722,1.304740742616708,1.3249158761293218,-0.015196473171720667,-0.009973310011396168,0.0,0.019379880655717573
1782019012.5199115,259,1,6.327532232431527e-06,0.18,0.041672857910052714,0.11608457005345324,0.17814216308781092,0.04187437466338348,0.12145178771948784,-0.28634866822945115,-0.2915275234100419,-1.3405249552128915,-1.375549603879487,0.8517241056307913,0.8362236855709095,1.3048887609166175,1.3249158761293218,-0.014817793714552083,-0.009973310011396168,0.0,0.019379880655717573
1782019012.5629675,260,1,6.4368644767476985e-06,0.18,0.04048182119032863,0.11441415606433993,0.17789538062637922,0.041800324648402165,0.1193974406433496,-0.27859315745562774,-0.2915275234100419,-1.3368732727764356,-1.3694121823340124,0.8572951658080394,0.8423611071163841,1.3050865889054026,1.3249158761293218,-0.014400728806513415,-0.009973310011396168,0.0,0.019379880655717573
1782019012.5902512,261,1,6.596877556429243e-06,0.18,0.03919627908956527,0.11276502318263688,0.17761798293471043,0.041717086546495585,0.11769974364450667,-0.2701832296555477,-0.2915275234100419,-1.3332841773185111,-1.3663434715612752,0.8628152680894373,0.8484985286618586,1.3053000778418233,1.3249158761293218,-0.01394748407723818,-0.009973310011396168,0.0,0.019379880655717573
1782019012.6232312,262,1,6.803347381044069e-06,0.18,0.03782480881446855,0.11113758625807321,0.1773227435780883,0.04162849490174186,0.11583050157770146,-0.2611675321471979,-0.2915275234100419,-1.329742460593368,-1.3617404054021693,0.8682911869700748,0.8546359502073332,1.3054933448085104,1.3249158761293218,-0.01346052332632982,-0.009973310011396168,0.0,0.019379880655717573
