jiy0ungkim/mecha_lerobot/ik_csv/0621/142146.csv
stamp,frame,ik_ok,ik_error_m,target_x,target_y,target_z,actual_ee_x,actual_ee_y,actual_ee_z,target_shoulder_pan_rad,actual_shoulder_pan_rad,target_shoulder_lift_rad,actual_shoulder_lift_rad,target_elbow_flex_rad,actual_elbow_flex_rad,target_wrist_flex_rad,actual_wrist_flex_rad,target_wrist_roll_rad,actual_wrist_roll_rad,target_gripper_rad,actual_gripper_rad
1782019306.1779177,0,1,1.4037640209756063e-07,0.18,0.0,0.13470588235294118,0.12290951660981829,0.025172367667761902,-0.015027547999147989,-0.0001404403828852446,-0.28999316802367325,-1.4246442581510874,-1.5443286963800376,0.7753390459563527,1.6340884864826029,1.375998893215483,1.2144422883107795,0.0012047391550493757,-0.01150766539776481,0.0,0.019379880655717573
1782019306.20353,1,1,5.936940921538637e-05,0.18,1.458399010241918e-06,0.1347653323885074,0.12290951660981829,0.025172367667761902,-0.015027547999147989,-0.0001404403828852446,-0.28999316802367325,-1.4246442581510874,-1.5443286963800376,0.7753390459563527,1.6340884864826029,1.375998893215483,1.2144422883107795,0.0012047391550493757,-0.01150766539776481,0.0,0.019379880655717573
1782019306.2378879,2,1,1.4410016840079035e-05,0.18,1.1649929437829385e-05,0.1349429891188504,0.12076903106126036,0.024533621764819335,-0.015470945630212507,-0.0002135546348117058,-0.28999316802367325,-1.425167874603886,-1.538191274834563,0.7745635340355757,1.6325541310962344,1.3760008515464655,1.2251827760153602,0.0012005986194874934,-0.01150766539776481,0.0,0.01823988767596948
1782019306.2713516,3,1,2.0346645454543442e-05,0.18,3.922157548604358e-05,0.13523678067339548,0.11627247435466216,0.0200551998438838,-0.014284661769679241,-0.0003947341571711816,-0.25316863875082585,-1.4258732280363606,-1.5075041671071903,0.773552433647859,1.6095388003007047,1.3760723070429663,1.2589385945154703,0.001190458057029642,-0.0038358884659216034,0.0,0.017099894696221387
1782019306.3048155,4,1,2.8353781472749804e-05,0.18,9.264880009687977e-05,0.1356432813518373,0.11723844915992081,0.01523243413466659,-0.006998305079428238,-0.0007502088653798295,-0.19179442329608018,-1.4268489045863118,-1.4768170593798173,0.7721557643439194,1.548164584845959,1.3761715825827983,1.298831834561055,0.0011705635270101236,-0.002301533079552962,0.0,0.017099894696221387
1782019306.3382587,5,1,3.645929908647275e-05,0.18,0.00018015171036642137,0.13615775236326277,0.12642212003017067,0.011371799000467323,0.007274400616419166,-0.0013389285112419577,-0.1288858524549659,-1.4280890572518414,-1.461473505516131,0.7703837050882338,1.4499658401183662,1.3762981584905019,1.3310532976747964,0.0011376169968950157,-0.0038358884659216034,0.0,0.017099894696221387
1782019306.3716702,6,1,4.4370330262722346e-05,0.18,0.0003096135150373797,0.13677419809295957,0.14022480876784033,0.008114661147385821,0.02709934762480405,-0.002216923163194228,-0.07978648009116934,-1.4295767131406654,-1.4491986624251818,0.7682591805454765,1.3272174092088749,1.3764429171354446,1.3479312069248515,0.0010884771593841118,-0.002301533079552962,0.0,0.017099894696221387
1782019306.4051294,7,1,5.2034481839811354e-05,0.18,0.0004885020063135433,0.13748543714227515,0.15404738055988926,0.006757360057168609,0.05028707713270174,-0.003437290318910069,-0.058305504682008374,-1.4312900419834,-1.444595596266076,0.7658106500760589,1.1983315567539088,1.3765929431432982,1.3571373392430632,0.0010201639033611321,-0.005370243852290245,0.0,0.017099894696221387
1782019306.4385216,8,1,5.9464764184039045e-05,0.18,0.0007237947713632435,0.13828318719009136,0.1653797981045271,0.006055861094862694,0.07503222309774689,-0.005049720692608161,-0.04756501697742788,-1.4332035874850142,-1.4461299516524446,0.7630709748933944,1.0725144150716803,1.3767334039060466,1.363274760788538,0.0009298863743426347,-0.005370243852290245,0.0,0.017099894696221387
1782019306.4719906,9,1,6.670498040675924e-05,0.18,0.001021908805732097,0.1391581625414053,0.17222345845487097,0.005754219683686024,0.09535410959944227,-0.007099997518283368,-0.04296195081832196,-1.4352888234064063,-1.447664307038813,0.7600767851139215,0.9743156703440873,1.3768483831907221,1.3663434715612752,0.0008150716533009235,-0.0038358884659216034,0.0,0.017099894696221387
1782019306.5054884,10,1,7.38191087438084e-05,0.18,0.0013886351617634685,0.14010018306177166,0.1755681887766738,0.005477670463822075,0.10944201705127193,-0.009629520147569078,-0.03989324004558467,-1.4375146088624773,-1.4507330178115505,0.7568678952708942,0.9083383887302356,1.3769214856386232,1.3694121823340124,0.000673391968552464,-0.0038358884659216034,0.0,0.017099894696221387
1782019306.5419137,11,1,8.088387188487066e-05,0.18,0.001829079220375654,0.14109829304835153,0.17746112916514248,0.004902069103541486,0.11987933648460221,-0.012674860047547629,-0.03529017388647875,-1.4398476473021045,-1.4538017285842877,0.7534867058376061,0.8607733717528079,1.3769363803303534,1.370946537720381,0.0005027902054422636,-0.002301533079552962,0.0,0.017099894696221387
1782019306.5745149,12,1,8.79806566926288e-05,0.18,0.002347607124564875,0.14214088846111986,0.17798022900075683,0.004920386312364289,0.12470739394590348,-0.016267352431235692,-0.03529017388647875,-1.442252963753093,-1.452267373197919,0.7499775887574177,0.8362236855709095,1.376877301905821,1.3740152484931185,0.0003015035961284418,-0.002301533079552962,0.0,0.017099894696221387
1782019306.6077209,13,1,9.5186719829181e-05,0.18,0.0029477988582366638,0.14321585083319718,0.17843193913109168,0.004936329197798737,0.12754354411534063,-0.02043272624953895,-0.03529017388647875,-1.4446943957909721,-1.4507330178115505,0.7463862668025627,0.8224144870935918,1.376729498038971,1.3740152484931185,6.808547859334557e-05,-0.002301533079552962,0.0,0.017099894696221387
1782019306.641799,14,1,3.7931974296656394e-06,0.18,0.0036324083949010235,0.1443106860987377,0.17880899551353638,0.004304624038650959,0.1302178815686335,-0.025768039543718656,-0.030687107727372827,-1.447399429051891,-1.4507330178115505,0.7425327114585804,0.8101396440026426,1.3767768042486677,1.3740152484931185,-0.0002305895897097879,-0.002301533079552962,0.0,0.017099894696221387
1782019306.6744235,15,1,9.866702036888144e-05,0.18,0.004403331277923562,0.14541266652141444,0.17909339586115275,0.004313349785758643,0.1325613611948631,-0.030620190117116333,-0.030687107727372827,-1.4495812692148786,-1.4507330178115505,0.739114829842128,0.7993991562980621,1.3761826712466625,1.3740152484931185,-0.0005028835627781952,-0.002301533079552962,0.0,0.017099894696221387
1782019306.7085712,16,1,3.849219825215494e-06,0.18,0.0052615799279632286,0.14650897387700496,0.17928759003251638,0.0041036104809654755,0.1342370786686955,-0.03725704199276806,-0.029152752341004187,-1.4520930489261192,-1.4507330178115505,0.7353810595180941,0.791727379366219,1.3758596625437816,1.3740152484931185,-0.000874658336408987,-0.002301533079552962,0.0,0.017099894696221387
1782019306.741962,17,1,3.538022709448871e-06,0.18,0.00620726690453391,0.14758684204022926,0.1794285270672188,0.004107717680251765,0.1355786597860774,-0.0439242662119414,-0.029152752341004187,-1.4542855344399164,-1.4507330178115505,0.7319403392829359,0.7855899578207445,1.3752006856523347,1.3740152484931185,-0.0012484396344328483,-0.002301533079552962,0.0,0.017099894696221387
1782019306.7753918,18,1,3.6760975611207727e-06,0.18,0.007239596277911909,0.1486336971487592,0.1795288272475961,0.004110640498868878,0.1365853996944178,-0.0511958772379987,-0.029152752341004187,-1.4563261605650495,-1.4507330178115505,0.7286495869362619,0.7809868916616384,1.374396502392549,1.3740152484931185,-0.0016560631695373676,-0.002301533079552962,0.0,0.017099894696221387
1782019306.809179,19,1,3.842771697324229e-06,0.18,0.008356863195501697,0.1496372935657659,0.1795612311505823,0.004111584743967412,0.1369210809880215,-0.059059875356968945,-0.029152752341004187,-1.4581837503742334,-1.4507330178115505,0.7255492316478307,0.7794525362752698,1.3734469495154842,1.3740152484931185,-0.0020968090614097985,-0.002301533079552962,0.0,0.017099894696221387
1782019306.8454905,20,1,4.0357154411292926e-06,0.18,0.00955646165390901,0.15058584393566005,0.17964586190803467,0.004330296610170011,0.13843383043371704,-0.06749544547442073,-0.030687107727372827,-1.4598273735196086,-1.452267373197919,0.7226783378165798,0.7733151147297952,1.3723510338799265,1.3740152484931185,-0.002569454525570591,-0.002301533079552962,0.0,0.017099894696221387
1782019306.8789532,21,1,4.253129743481687e-06,0.18,0.010834900414999392,0.15146814172462683,0.1796693253926817,0.004331014778221381,0.13927538120707403,-0.07647505092734329,-0.030687107727372827,-1.4612283579569336,-1.4538017285842877,0.7200732692450438,0.7702464039570579,1.371109497213792,1.3740152484931185,-0.003072387033247209,-0.002301533079552962,0.0,0.017099894696221387
1782019306.9231224,22,1,4.491668990376419e-06,0.18,0.012187826931790657,0.1522736747566127,0.17964136476501533,0.006277358127066084,0.14045344915218663,-0.08596462025365434,-0.0444963062046906,-1.4623605923901222,-1.4553360839706564,0.717767367389231,0.765643337797952,1.369724651865053,1.3740152484931185,-0.0036036149743883567,-0.002301533079552962,0.0,0.017099894696221387
1782019306.9455338,23,1,4.747049063113183e-06,0.18,0.0136100590787811,0.1529927283947275,0.17966183165839789,0.006927926439625226,0.14112601213070836,-0.09592381211598028,-0.04909937236379653,-1.4632007734383938,-1.4553360839706564,0.7157906862698733,0.7625746270252147,1.3682001687007623,1.3740152484931185,-0.004160783589190637,-0.002301533079552962,0.0,0.017099894696221387
1782019306.9790077,24,1,5.01461297528061e-06,0.18,0.015095624411885614,0.15361647717542246,0.17956572922546649,0.008439228986167424,0.14163205930916958,-0.10630636755287214,-0.05983986006837701,-1.4637286183302434,-1.456870439357025,0.7141697722489568,0.7610402716388461,1.3665408647376314,1.3740152484931185,-0.004741196739619885,-0.002301533079552962,0.0,0.017099894696221387
1782019307.012401,25,1,5.289765175780622e-06,0.18,0.016637806616154063,0.1541370638758771,0.1795362037300991,0.009955119024366074,0.14264140799488173,-0.11706054913816268,-0.0705803477729575,-1.4639270447153536,-1.456870439357025,0.7129274875995838,0.7564372054797402,1.36475250507792,1.3740152484931185,-0.005341844544579791,-0.002301533079552962,0.0,0.017099894696221387
1782019307.047975,26,1,5.568258525899562e-06,0.18,0.018229198735477,0.15454766518113405,0.1794211651542622,0.011465712087306897,0.1426414120033769,-0.1281296638222979,-0.081320835477538,-1.4637823187699597,-1.456870439357025,0.7120828769959938,0.7564372054797402,1.3628416311384743,1.3740152484931185,-0.0059594366732363055,-0.002301533079552962,0.0,0.017099894696221387
1782019307.0800376,27,1,5.846348633415977e-06,0.18,0.019861762718108807,0.1548425433138434,0.17930965225395973,0.012759460000137085,0.14264141543645392,-0.13945266317532362,-0.09052696779574984,-1.4632841722917105,-1.456870439357025,0.7116510762226331,0.7564372054797402,1.360815424362059,1.3740152484931185,-0.006590440843995937,-0.002301533079552962,0.0,0.017099894696221387
1782019307.116426,28,1,6.120842464659966e-06,0.18,0.021526894755595914,0.15501708319305166,0.17916450733459266,0.014267458086381725,0.14264141943806327,-0.1509648116151831,-0.10126745550033033,-1.4624258887955401,-1.456870439357025,0.7116432626239042,0.7564372054797402,1.3586816114435294,1.3740152484931185,-0.007231125818245173,-0.002301533079552962,0.0,0.017099894696221387
1782019307.149003,29,1,6.389069055379567e-06,0.18,0.023215495841085777,0.15506781489624938,0.17902721243040784,0.01555872447956761,0.14264142286455556,-0.16259841021826002,-0.11047358781854218,-1.4612043578156524,-1.456870439357025,0.7120666469777988,0.7564372054797402,1.3564484137270212,1.3740152484931185,-0.007877607938733948,-0.002301533079552962,0.0,0.017099894696221387
1782019307.183441,30,1,6.648796442648595e-06,0.18,0.024918046926469352,0.154992421407771,0.17882567225143498,0.017278342861771327,0.14264142742771876,-0.1742835611148944,-0.12274843090949131,-1.4596200958261463,-1.456870439357025,0.712924506588413,0.7564372054797402,1.3541245400347433,1.3740152484931185,-0.008525900054994883,-0.002301533079552962,0.0,0.017099894696221387
1782019307.2182372,31,1,6.89811637384559e-06,0.18,0.026624688016789917,0.1547897318435294,0.17892328057763035,0.019038863643872743,0.1430087098199423,-0.18594895549338375,-0.13502327400044045,-1.4576772315079298,-1.456870439357025,0.714216259323572,0.7564372054797402,1.351719218962365,1.370946537720381,-0.009171961528038617,-0.002301533079552962,0.0,0.017099894696221387
1782019307.2556827,32,1,7.135314698646183e-06,0.18,0.02832530050519695,0.15445970054391167,0.17867903112694666,0.02075694413477728,0.14300871437902485,-0.1975226670623402,-0.14729811709138957,-1.4553834526026044,-1.456870439357025,0.7159375781693693,0.7564372054797402,1.3492422637364843,1.370946537720381,-0.009811747931310547,-0.002301533079552962,0.0,0.017099894696221387
1782019307.2871125,33,1,7.358743458817987e-06,0.18,0.030009592022749443,0.15400337262051136,0.17844802734184,0.022257707889970064,0.14300871836143791,-0.20893293256603696,-0.15803860479597007,-1.4527499113756952,-1.456870439357025,0.7180805455025534,0.7564372054797402,1.3467041602281462,1.370946537720381,-0.010441259062642528,-0.002301533079552962,0.0,0.017099894696221387
1782019307.323733,34,1,7.566709161658729e-06,0.18,0.03166718305483418,0.15342283672540852,0.1781643038784619,0.023969712377030453,0.14300872290439753,-0.22010890166891436,-0.1703134478869192,-1.4497910858422196,-1.456870439357025,0.7206338458385121,0.7564372054797402,1.3441161667779185,1.370946537720381,-0.011056583969056741,-0.002301533079552962,0.0,0.017099894696221387
1782019307.353806,35,1,7.757388709222657e-06,0.18,0.033287694560062746,0.15272116598129912,0.17801807674533382,0.025707370036556366,0.14319273785092984,-0.2309813401660972,-0.18258829097786833,-1.4465245943383878,-1.456870439357025,0.7235829952133328,0.7564372054797402,1.3414904131486467,1.3694121823340124,-0.01165394184819343,-0.002301533079552962,0.0,0.017099894696221387
1782019307.3896904,36,1,7.92878236463425e-06,0.18,0.03486083581838722,0.15190234816450698,0.17836382799394673,0.027324066855484254,0.14393124986966407,-0.24148327294006644,-0.1933287786824488,-1.4429709618210733,-1.456870439357025,0.7269106047335945,0.7564372054797402,1.3388399853100545,1.363274760788538,-0.012229717916369238,-0.002301533079552962,0.0,0.017099894696221387
1782019307.4220514,37,1,8.0787083302663e-06,0.18,0.03637649173290865,0.15097120636862751,0.17837035384846114,0.02890957555458061,0.14430245906779088,-0.2515505561596198,-0.2040692663870293,-1.439153337355646,-1.456870439357025,0.7305966751632074,0.7564372054797402,1.33617898281269,1.3602060500158004,-0.012780493601984765,-0.005370243852290245,0.0,0.017099894696221387
1782019307.4625714,38,1,8.204841890068149e-06,0.18,0.03782480881446856,0.1499333114923841,0.1785594586861483,0.030317589955909687,0.14486092635550152,-0.26112237171120517,-0.21327539870524115,-1.4350971636048229,-1.456870439357025,0.7346189187745993,0.7564372054797402,1.333522536351278,1.3556029838566945,-0.013303070724140888,-0.008438954625027528,0.0,0.017099894696221387
1782019307.4903493,39,1,8.304795719602463e-06,0.18,0.039196279089565286,0.14879488798967616,0.17858299667231162,0.03167241273472666,0.14523409799856551,-0.27014164048567024,-0.22248153102345297,-1.4308298006463342,-1.456870439357025,0.7389531041346314,0.7564372054797402,1.3308867745752535,1.3525342730839574,-0.01379448960531447,-0.008438954625027528,0.0,0.017099894696221387
1782019307.5249465,40,1,8.376237675853685e-06,0.18,0.04048182119032863,0.14756271439154117,0.1782347631606504,0.03317151546485397,0.1452341019765717,-0.27855535469926906,-0.2332220187280335,-1.4263801081040843,-1.456870439357025,0.7435734190074091,0.7564372054797402,1.3282887313699423,1.3525342730839574,-0.014252041361292675,-0.008438954625027528,0.0,0.017099894696221387
1782019307.5658174,41,1,8.41703828852916e-06,0.18,0.041672857910052714,0.14624402015798793,0.1779701151815832,0.034918420187502505,0.14542105425625626,-0.28631483268462615,-0.24549686181898261,-1.4217779912706052,-1.456870439357025,0.7484528462325828,0.7564372054797402,1.325746187485246,1.3509999176975886,-0.014673274834122106,-0.008438954625027528,0.0,0.017099894696221387
1782019307.6009965,42,1,8.42543906013514e-06,0.18,0.04276138953890947,0.14484638044188475,0.17812989635315796,0.03655297914685273,0.14563484654793668,-0.29337590237007544,-0.2562373495235631,-1.4170539185291193,-1.4538017285842877,0.7535635472184373,0.7564372054797402,1.323277443510541,1.3463968515384828,-0.015055998854613888,-0.008438954625027528,0.0,0.017099894696221387
1782019307.6272948,43,1,8.400232950699096e-06,0.18,0.0437400623316698,0.14337761034718355,0.17834737408188198,0.03730967390526897,0.14566050060025737,-0.29969902186737857,-0.260840415682669,-1.4122384189392048,-1.4507330178115505,0.7588772476226817,0.7564372054797402,1.320901024601544,1.3433281407657454,-0.01539828062921833,-0.009973310011396168,0.0,0.017099894696221387
1782019307.659689,44,1,8.340947051584088e-06,0.18,0.04460223150221273,0.14184566023997722,0.17842464395437097,0.038492593995675325,0.1453432473884334,-0.3052493471377153,-0.26851219261451226,-1.4073615701887152,-1.447664307038813,0.7643656198719962,0.7579715608661088,1.3186353209137816,1.3402594299930082,-0.015698441167828862,-0.01150766539776481,0.0,0.017099894696221387
1782019307.693125,45,1,8.248018882989081e-06,0.18,0.045342018187926846,0.1402585136238321,0.17853672846238933,0.03991069114135866,0.1450132749461004,-0.3099967575831023,-0.2777183249327241,-1.4024524882017397,-1.4415268854933387,0.770000657326082,0.7579715608661088,1.3164981712435448,1.337190719220271,-0.015955048656791454,-0.01150766539776481,0.0,0.017099894696221387
1782019307.7265198,46,1,8.122957186738655e-06,0.18,0.045954359880372775,0.13862408902148413,0.1786745548267117,0.04087978140173931,0.14417156503121392,-0.31391585066082867,-0.2838557464781986,-1.3975388304951444,-1.4369238193342326,0.775755035165965,0.7610402716388461,1.314506400722887,1.3341220084475336,-0.016166910702620045,-0.01150766539776481,0.0,0.017099894696221387
1782019307.7598746,47,1,7.96847810649605e-06,0.18,0.04643505387630804,0.1369501472146304,0.17846761757130583,0.041751166511703436,0.14261405466693264,-0.31698591627325146,-0.28999316802367325,-1.3926463257513535,-1.4323207531751267,0.7816024533638962,0.765643337797952,1.3126753264484587,1.3341220084475336,-0.016333066266572237,-0.01150766539776481,0.0,0.017099894696221387
1782019307.7962973,48,1,7.788607852215553e-06,0.18,0.046780793364864744,0.13524420508381257,0.178346542007223,0.04218179179296361,0.14019650970342012,-0.31919090084728874,-0.2930618787964105,-1.3877983421122848,-1.426183331629652,0.7875179574171407,0.7733151147297952,1.311018247461713,1.3341220084475336,-0.016452778057939155,-0.01150766539776481,0.0,0.017099894696221387
1782019307.8323636,49,1,7.588738638958953e-06,0.18,0.046989195831767944,0.13351345716317523,0.17831984769791734,0.042173741624584295,0.1382994360799529,-0.32051936974698764,-0.2930618787964105,-1.3830155062110971,-1.421580265470546,0.7934782328029615,0.7794525362752698,1.3095459374145462,1.3341220084475336,-0.016525526003595803,-0.01150766539776481,0.0,0.017099894696221387
1782019307.8643644,50,1,7.375624099317224e-06,0.18,0.047058823529411764,0.13176470588235292,0.17874963631423152,0.04230343707710753,0.1369409846389426,-0.3209644750756534,-0.2930618787964105,-1.3783153840711153,-1.4169771993114402,0.7994618693564863,0.7855899578207445,1.3082661594983929,1.3295189422884277,-0.016551002296182594,-0.01150766539776481,0.0,0.017099894696221387
1782019307.8996358,51,1,7.15729261915524e-06,0.18,0.046989195831767944,0.130004301312277,0.17903276000984655,0.04238887628350444,0.1352197184072024,-0.3205239340741702,-0.2930618787964105,-1.3737122335970904,-1.4108397777659656,0.8054495919622624,0.791727379366219,1.3071832236199967,1.3264502315156905,-0.016529108368841073,-0.01150766539776481,0.0,0.017099894696221387
1782019307.933581,52,1,6.942852885775963e-06,0.18,0.046780793364864744,0.12823809106585657,0.17917264130441124,0.04219622654937815,0.13349566555778236,-0.31920002131572106,-0.2915275234100419,-1.3692168365544117,-1.4062367116068597,0.8114244540856751,0.7978648009116935,1.3062976054188524,1.3249158761293218,-0.016459953991069684,-0.01150766539776481,0.0,0.017099894696221387
1782019307.9637635,53,1,6.742163198415094e-06,0.18,0.04643505387630804,0.12647138083098836,0.17911058751336217,0.04217760933565966,0.1319371430455404,-0.31699957578051197,-0.2915275234100419,-1.3648364156739474,-1.4016336454477538,0.8173719907737316,0.8024678670707994,1.3056056454755116,1.3249158761293218,-0.016343858545035377,-0.01150766539776481,0.0,0.017099894696221387
1782019307.9989843,54,1,6.565341078906732e-06,0.18,0.045954359880372754,0.12470890583498229,0.17900313225217232,0.04214536923913762,0.1298617221366636,-0.31393402175416213,-0.2915275234100419,-1.3605746399540106,-1.3954962239022792,0.8232803279107774,0.808605288616274,1.3050993449673163,1.3249158761293218,-0.016181354367840923,-0.01150766539776481,0.0,0.017099894696221387
1782019308.0314949,55,1,6.4221161183390064e-06,0.18,0.045342018187926825,0.12295481335911389,0.17883406196790191,0.0420946385085902,0.12814502068553763,-0.31001940038014164,-0.2915275234100419,-1.3564317183800372,-1.392427513129542,0.8291402446721514,0.8147427101617485,1.3047662712091537,1.3249158761293218,-0.015973191920074636,-0.01150766539776481,0.0,0.017099894696221387
1782019308.0688932,56,1,6.321075744595958e-06,0.18,0.044602231502212715,0.12121265624249243,0.17861920634253603,0.0420301701649045,0.12573686632144176,-0.30527640668567996,-0.2915275234100419,-1.352404579385911,-1.3862900915840675,0.8349451864983616,0.8224144870935918,1.304589582967427,1.3249158761293218,-0.015720346385204118,-0.01150766539776481,0.0,0.017099894696221387
1782019308.100321,57,1,6.268918751647824e-06,0.18,0.0437400623316698,0.11948539713858941,0.1784830917591459,0.04175583399119476,0.12384976925124117,-0.2997304250570747,-0.28999316802367325,-1.3484871304081303,-1.3816870254249616,0.8406912263784038,0.8285519086390664,1.3045481813781066,1.3249158761293218,-0.015424025183431694,-0.01150766539776481,0.0,0.017099894696221387
1782019308.1391587,58,1,6.269883171410027e-06,0.18,0.04276138953890947,0.11777542311835244,0.17826039869856108,0.041689384654571136,0.12196641885736768,-0.2934115545439878,-0.28999316802367325,-1.344670589183077,-1.3770839592658557,0.8463769730150972,0.834689330184541,1.3046169878224696,1.3249158761293218,-0.01508567576198518,-0.01150766539776481,0.0,0.017099894696221387
1782019308.1726882,59,1,6.325509272176282e-06,0.18,0.041672857910052714,0.11608457005345324,0.17815019097978674,0.04165650051997785,0.12076154181120745,-0.2863546141080227,-0.28999316802367325,-1.3409438759979948,-1.3724808931067498,0.852003425442713,0.8377580409572782,1.3047673454221635,1.3249158761293218,-0.014706992913538663,-0.01150766539776481,0.0,0.017099894696221387
1782019308.2064612,60,1,6.434816059751971e-06,0.18,0.04048182119032863,0.11441415606433993,0.17802971242946972,0.0416205514392635,0.11955828924718577,-0.2785991170828075,-0.28999316802367325,-1.3372940541367964,-1.367877826947644,0.8575737749304099,0.8408267517300154,1.3049675361422992,1.3249158761293218,-0.014289924821513124,-0.01150766539776481,0.0,0.017099894696221387
1782019308.2416599,61,1,6.594835456454263e-06,0.18,0.03919627908956527,0.11276502318263688,0.17768011785732568,0.041516233538512304,0.11752429706881916,-0.27018920376667316,-0.28999316802367325,-1.3337068043592808,-1.3648091161749065,0.86309315650614,0.8484985286618586,1.305183400999256,1.3249158761293218,-0.013836676951113168,-0.01150766539776481,0.0,0.017099894696221387
1782019308.2730622,62,1,6.801337921881219e-06,0.18,0.03782480881446855,0.11113758625807321,0.17730550673678175,0.04140445084439446,0.1153204254019428,-0.261173521307488,-0.28999316802367325,-1.3301669185109048,-1.3602060500158004,0.8685683540894231,0.8561703055937019,1.3053790468155222,1.3249158761293218,-0.01334971292679902,-0.01150766539776481,0.0,0.017099894696221387
1782019308.30602,63,1,7.049548278855395e-06,0.18,0.03637649173290865,0.10953188803827105,0.17698191212402953,0.041307891195904056,0.11345743544051905,-0.25160504090820135,-0.28999316802367325,-1.3266587972213157,-1.3556029838566945,0.8740074649286534,0.8623077271391765,1.3055176195375222,1.3249158761293218,-0.012831751549548444,-0.01150766539776481,0.0,0.017099894696221387
1782019308.3394475,64,1,7.334698712383011e-06,0.18,0.03486083581838721,0.10794765926684106,0.17664357904767602,0.041206932933873966,0.1117736960297998,-0.24154080392126706,-0.28999316802367325,-1.3231669372620818,-1.3525342730839574,0.879419530718037,0.8684451486846511,1.305562121498457,1.3249158761293218,-0.012285759202991402,-0.01150766539776481,0.0,0.017099894696221387
1782019308.372885,65,1,7.652347677938488e-06,0.18,0.03328769456006277,0.1063843825824498,0.17668582021951224,0.04007022808168938,0.11042689107982617,-0.2310415905818787,-0.28232139109183,-1.3196763952235726,-1.34946556231122,0.8848141442450211,0.8730482148437569,1.3054762483090745,1.3249158761293218,-0.011714937026587574,-0.01150766539776481,0.0,0.017099894696221387
1782019308.4063485,66,1,7.998471983105458e-06,0.18,0.03166718305483415,0.10484135895965062,0.1768149865454563,0.038505707005174056,0.10890985544429793,-0.2201715079065307,-0.2715809033872495,-1.3161732158686446,-1.344862496152114,0.8902010416230207,0.8776512810028628,1.3052252203913528,1.3249158761293218,-0.011122702420094681,-0.01150766539776481,0.0,0.017099894696221387
1782019308.4420533,67,1,8.369384290336438e-06,0.18,0.030009592022749443,0.10331777541176848,0.17687493501917745,0.03670245077827456,0.10706588112500484,-0.20899749652384567,-0.2593060602963004,-1.312644815525229,-1.3402594299930082,0.8955896909638422,0.8837887025483374,1.30477658455037,1.3249158761293218,-0.010512664677232811,-0.01150766539776481,0.0,0.017099894696221387
1782019308.4769156,68,1,8.761545374076559e-06,0.18,0.028325300505196938,0.10181277267711215,0.1768525420593306,0.035114035517565645,0.10539985379624038,-0.19758875974823278,-0.24856557259171988,-1.3090803131429378,-1.337190719220271,0.9009888886426981,0.8899261240938119,1.30410096240057,1.3249158761293218,-0.009888594804646678,-0.01150766539776481,0.0,0.017099894696221387
1782019308.5157232,69,1,9.171335061522599e-06,0.18,0.026624688016789907,0.10032551163202826,0.17692660311504385,0.033333848708388666,0.10389656161697054,-0.18601612184268376,-0.23629072950077076,-1.3054708040134324,-1.332587653061165,0.9064063741471456,0.894529190252918,1.303172724805212,1.3249158761293218,-0.009254389861323506,-0.01150766539776481,0.0,0.017099894696221387
1782019308.548127,70,1,9.594833293294366e-06,0.18,0.024918046926469352,0.09885523721722714,0.17683263187718837,0.031746905094619526,0.10224037418203935,-0.17435132589973457,-0.2255502417961903,-1.3018095734796855,-1.3295189422884277,0.9118484737815881,0.9006666117983925,1.3019705746750223,1.3249158761293218,-0.008614032436312572,-0.01150766539776481,0.0,0.017099894696221387
1782019308.585403,71,1,1.0027643716739645e-05,0.18,0.023215495841085766,0.09740133872650435,0.17684426509281098,0.030414764630595933,0.10107379446182478,-0.16266628486136006,-0.21634410947797844,-1.2980922501281427,-1.3249158761293218,0.9173197823565103,0.9037353225711298,1.3004780242349359,1.3249158761293218,-0.0079715461488092,-0.01150766539776481,0.0,0.017099894696221387
1782019308.6167414,72,1,1.0464777560436231e-05,0.18,0.021526894755595914,0.09596340538822405,0.17692133092750847,0.029101549286701382,0.09972378119535978,-0.15103230166537313,-0.2071379771597666,-1.2943168998674413,-1.320312809970216,0.9228228904395357,0.9083383887302356,1.2986837570906193,1.3233815207429531,-0.0073309482547686804,-0.01150766539776481,0.0,0.017099894696221387
1782019308.6541567,73,1,1.0900601436377396e-05,0.18,0.019861762718108786,0.09454127626821632,0.1773690078725282,0.027424327573359684,0.09849667715390997,-0.13951927616917928,-0.19486313406881745,-1.290484063960351,-1.3172440991974785,0.9283581629796448,0.9144758102757102,1.2965818697631288,1.3187784545838472,-0.006696200618556159,-0.01150766539776481,0.0,0.017099894696221387
1782019308.6863282,74,1,1.1328844761434272e-05,0.18,0.018229198735476994,0.09313508363628385,0.17758663104996442,0.02570178214144712,0.09712885397322685,-0.12819491723699597,-0.18258829097786833,-1.2865967452434603,-1.3141753884247414,0.9339235731199885,0.9206132318211848,1.2941719917059646,1.31570974381111,-0.0060711603873037315,-0.01150766539776481,0.0,0.017099894696221387
1782019308.7208521,75,1,1.1742656075717798e-05,0.18,0.016637806616154063,0.09174528906529937,0.17742126723193624,0.023915842694998378,0.09512979256704085,-0.11712397814719716,-0.1703134478869192,-1.282660347743106,-1.3095723222656355,0.9395145931121646,0.9282850087530281,1.2914592868028727,1.3141753884247414,-0.005459531710563399,-0.01150766539776481,0.0,0.017099894696221387
1782019308.7565217,76,1,1.2134696996110514e-05,0.18,0.015095624411885597,0.09037271166968287,0.1777662571773615,0.022222826974014398,0.09389797248027405,-0.10636753231738288,-0.15803860479597007,-1.2786825753927011,-1.3065036114928983,0.945124142364198,0.9344224302985026,1.2884543429268716,1.3095723222656355,-0.0048648197832737855,-0.01150766539776481,0.0,0.017099894696221387
1782019308.7867656,77,1,1.2497260975372425e-05,0.18,0.0136100590787811,0.0890185480364908,0.17793125825182643,0.02071964738983764,0.09268532188258494,-0.09598230438858185,-0.14729811709138957,-1.274673295767137,-1.3019005453337922,0.9507425910177425,0.9390254964576086,1.2851729590431227,1.3065036114928983,-0.0042902883396522176,-0.01150766539776481,0.0,0.017099894696221387
1782019308.8248062,78,1,1.282240922698966e-05,0.18,0.012187826931790643,0.08768438355491451,0.17753434288235842,0.01914050532721945,0.09088506831461918,-0.08602006912039002,-0.13655762938680907,-1.2706443747417127,-1.2972974791746863,0.9563578160838424,0.945162918003083,1.28163584159009,1.3065036114928983,-0.0037389215537268175,-0.01150766539776481,0.0,0.017099894696221387
1782019308.8578973,79,1,1.3102114014924562e-05,0.18,0.010834900414999385,0.08637219500607662,0.1779727276522862,0.017680197003484367,0.09012731379987862,-0.07652712757587107,-0.1258171416822286,-1.266609487702515,-1.2926944130155804,0.9619553061386089,0.9482316287758203,1.277868223275907,1.3019005453337922,-0.0032133910325229716,-0.01150766539776481,0.0,0.017099894696221387
1782019308.8909016,80,1,1.3328406820066026e-05,0.18,0.009556461653909016,0.08508434443198823,0.17812802033647343,0.016181734161281717,0.08872142740457327,-0.0675438669343043,-0.1150766539776481,-1.2625839125107816,-1.2880913468564743,0.9675183098187699,0.9543690503212949,1.2738994182045575,1.2972974791746863,-0.002716028378812102,-0.01150766539776481,0.0,0.017099894696221387
1782019308.9274967,81,1,1.3493526228058215e-05,0.18,0.008356863195501694,0.08382356445775185,0.17818451270601532,0.014457184531915909,0.08716019874598041,-0.0591044072136404,-0.10280181088669897,-1.2585843089532682,-1.2850226360837371,0.9730280230031952,0.9620408272531382,1.2697623272162326,1.2926944130155804,-0.0022488035359304946,-0.01150766539776481,0.0,0.017099894696221387
1782019308.9632182,82,1,1.3590065558715029e-05,0.18,0.007239596277911909,0.08259293539196624,0.1781857319120122,0.013377641642355744,0.08558309801928148,-0.051236335402315605,-0.09513003395485577,-1.2546284888124923,-1.2788852145382625,0.9784638093678107,0.9681782487986127,1.2654929068284122,1.2880913468564743,-0.0018133088997955903,-0.01150766539776481,0.0,0.017099894696221387
1782019308.9995337,83,1,1.3611118556091628e-05,0.18,0.006207266904533902,0.08139585457430262,0.17799882934265113,0.012055852261827142,0.08441047373565051,-0.043960525144821336,-0.08592390163664392,-1.250735180202531,-1.2758165037655251,0.9838034491336353,0.9727813149577187,1.2611296141231891,1.2865569914701056,-0.0014107490185014172,-0.009973310011396168,0.0,0.017099894696221387
1782019309.026097,84,1,1.3550422953486564e-05,0.18,0.005261579927963225,0.08023599857399555,0.17815888600220414,0.011411632405675248,0.08348842976779292,-0.037291038299667824,-0.081320835477538,-1.2469237892388838,-1.272747792992788,0.9890234109888508,0.9773843811168246,1.2567128386263755,1.2819539253109997,-0.0010419355341273746,-0.008438954625027528,0.0,0.017099894696221387
1782019309.0630424,85,1,1.3402501591040695e-05,0.18,0.004403331277923551,0.07911727896630663,0.17833230574028722,0.00991876739627421,0.0820324139833504,-0.0312351034201467,-0.0705803477729575,-1.2432141616891397,-1.2666103714473134,0.9940991425054854,0.983521802662299,1.2522843307337452,1.2758165037655251,-0.000707286949042035,-0.008438954625027528,0.0,0.017099894696221387
1782019309.0964086,86,1,1.3162799614571639e-05,0.18,0.003632408394901018,0.0780437925238639,0.1784907908620644,0.008853747625428027,0.08110610589157441,-0.025793165489846673,-0.0629085708411143,-1.239626346871059,-1.2635416606745762,0.9990053746829749,0.988124868821405,1.2478866346890407,1.2712134376064192,-0.00040683272425759285,-0.008438954625027528,0.0,0.017099894696221387
1782019309.1378489,87,1,1.2827816335043736e-05,0.18,0.0029477988582366638,0.07701976675436675,0.17880175867106662,0.0075682217514267455,0.08013161654698533,-0.020959001006306478,-0.05370243852290245,-1.2361803657195396,-1.2589385945154703,1.0037164365394409,0.9927279349805109,1.2435625326777602,1.2650760160609447,-0.00014022124501514446,-0.006904599238658886,0.0,0.017099894696221387
1782019309.1675138,88,1,1.239522916032754e-05,0.18,0.002347607124564871,0.07604950179396029,0.17875407181136682,0.006919889507953036,0.0788818117668927,-0.016719892661878295,-0.04909937236379653,-1.23289598476841,-1.255869883742733,1.0082065759305465,0.9988653565259856,1.239354505277727,1.2604729499018388,9.326881627896123e-05,-0.006904599238658886,0.0,0.017099894696221387
1782019309.2058554,89,1,1.1864006005689732e-05,0.18,0.001829079220375652,0.07513730972538571,0.17840918186393803,0.006461520178359444,0.07734314343522121,-0.013056858300521909,-0.04603066159105924,-1.229792497541789,-1.251266817583627,1.0124502828870934,1.00500277807146,1.2353042124362517,1.2574042391291016,0.000294714139697403,-0.005370243852290245,0.0,0.017099894696221387
1782019309.2315605,90,1,1.1234502273164774e-05,0.18,0.0013886351617634646,0.07428745243087723,0.1786354900266453,0.006042085970386402,0.07672866305279893,-0.00994492942178886,-0.04296195081832196,-1.2268885148366837,-1.2481981068108898,1.0164226118713398,1.0080714888441973,1.2314519982914756,1.2528011729699957,0.0004655297451514087,-0.005370243852290245,0.0,0.017099894696221387
1782019309.2724597,91,1,1.050853802314478e-05,0.18,0.0010219088057320952,0.0735040791110938,0.17843791273244186,0.005175418473437035,0.07550833835920435,-0.007353475138505795,-0.03682452927284739,-1.2242017652069546,-1.243595040651784,1.0200994992806507,1.0126745550033034,1.2278364225906275,1.2497324621972583,0.0006074496044087699,-0.005370243852290245,0.0,0.017099894696221387
1782019309.301987,92,1,9.689449581440669e-06,0.18,0.0007237947713632437,0.07279116460285971,0.1787133392361671,0.004755784241017554,0.07505864330802467,-0.005246568081891128,-0.03375581850011011,-1.221748907007365,-1.2420606852654152,1.023458072499256,1.0157432657760406,1.224493821073512,1.2451293960381524,0.0007225050922837022,-0.005370243852290245,0.0,0.017099894696221387
1782019309.3340623,93,1,8.782111764912204e-06,0.18,0.0004885020063135415,0.07215244961020256,0.178770599811362,0.0043278489933254215,0.07449042491144435,-0.0035833892056852694,-0.030687107727372827,-1.2195453532532086,-1.2405263298790465,1.0264769466377375,1.0188119765487778,1.2214578970632828,1.2420606852654152,0.0008130014462157212,-0.005370243852290245,0.0,0.017099894696221387
1782019309.3796349,94,1,9.379779899789286e-05,0.18,0.0003096135150373794,0.0715913839254953,0.17825262312846435,0.003669679510038878,0.07298509747468906,-0.002455551126272798,-0.026084041568266905,-1.2179613060987915,-1.234388908333572,1.0287344576879593,1.0234150427078836,1.2196218139403927,1.2405263298790465,0.0008745909488136125,-0.005370243852290245,0.0,0.017099894696221387
1782019309.4057968,95,1,8.674775868640916e-06,0.18,0.00018015171036642023,0.07111107366114477,0.17876526728573416,0.0036830575901918225,0.07299655868285848,-0.0014035970101478022,-0.026084041568266905,-1.2159494498022312,-1.2313201975608348,1.0314110016024962,1.0234150427078836,1.2164460957472667,1.2359232637199407,0.0009307671508914761,-0.005370243852290245,0.0,0.017099894696221387
1782019309.4377036,96,1,6.687864407625169e-05,0.18,9.26488000968794e-05,0.07071423343823904,0.17879805185004544,0.0036839146586269385,0.07242640772614951,-0.0008512054764225017,-0.026084041568266905,-1.2148204167049501,-1.229785842174466,1.0330189170207467,1.026483753480621,1.2151054136963215,1.2328545529472035,0.0009605676331932595,-0.005370243852290245,0.0,0.017099894696221387
1782019309.479383,97,1,6.839949272542411e-05,0.18,3.922157548604362e-05,0.07040314438818279,0.1783670762680729,0.0036605437134066676,0.07164508921117421,-0.000454299621661684,-0.026084041568266905,-1.2137494148739312,-1.2313201975608348,1.034493873583274,1.0310868196397271,1.2136064905209056,1.2328545529472035,0.0009815205606324181,-0.0038358884659216034,0.0,0.017099894696221387
1782019309.508427,98,1,5.47256572557184e-05,0.18,1.1649929437829253e-05,0.07017961871820241,0.1782979944705801,0.0036587413791810933,0.07147762026976301,-0.00023709853286694654,-0.026084041568266905,-1.2129178797638958,-1.229785842174466,1.035623121299859,1.0310868196397271,1.2123675886987724,1.2328545529472035,0.0009926277169486951,-0.0038358884659216034,0.0,0.017099894696221387
1782019309.5489862,99,1,3.66670951673842e-05,0.18,1.45839901024191e-06,0.0700449714735171,0.1787298268643441,0.0036700099931733276,0.07170725849062189,-0.00014897564502028965,-0.026084041568266905,-1.2123755352923167,-1.229785842174466,1.036350076091754,1.0310868196397271,1.211515588626377,1.229785842174466,0.0009968337329264887,-0.0038358884659216034,0.0,0.017099894696221387
1782019309.573739,100,1,7.428001060245124e-05,0.18,-1.5656279255075675e-48,0.06999999999999999,0.17885548996259296,0.0036732904557906475,0.07128444415551251,-0.00014897564502028965,-0.026084041568266905,-1.2123755352923167,-1.2267171314017289,1.036350076091754,1.0326211750260956,1.211515588626377,1.2267171314017289,0.0009968337329264887,-0.0038358884659216034,0.0,0.017099894696221387
1782019309.607181,101,1,3.6906167683928444e-05,0.18,-1.4583990102419381e-06,0.07004497147351708,0.17866390876928986,0.0036682927176401123,0.07059849532155005,-0.00014897564502028965,-0.026084041568266905,-1.2123755352923167,-1.2251827760153602,1.036350076091754,1.035689885798833,1.211515588626377,1.2251827760153602,0.0009968337329264887,-0.0038358884659216034,0.0,0.017099894696221387
1782019309.6417649,102,1,1.2032591642176863e-05,0.18,-1.1649929437829368e-05,0.07017961871820241,0.17845107414696695,0.0036627398595515887,0.07009505186628082,-5.688585885152181e-05,-0.026084041568266905,-1.2126377893236364,-1.220579709856254,1.0359399898666626,1.035689885798833,1.211676765918389,1.2251827760153602,0.0010021093807624046,-0.0038358884659216034,0.0,0.017099894696221387
1782019309.6753805,103,1,3.930989582765478e-05,0.18,-3.9221575486043865e-05,0.07040314438818279,0.17837961475279301,0.0036608754792109384,0.06992745582286423,0.0001263712386143544,-0.026084041568266905,-1.213297822885653,-1.2190453544698854,1.035003689365278,1.035689885798833,1.2124900034238473,1.2251827760153602,0.0010130450400446726,-0.0038358884659216034,0.0,0.017099894696221387
1782019309.7086558,104,1,6.0816400298671064e-05,0.18,-9.264880009687983e-05,0.07071423343823902,0.17837961475279301,0.0036608754792109384,0.06992745582286423,0.0004820010434562267,-0.026084041568266905,-1.2142855707713258,-1.2190453544698854,1.033624234116707,1.035689885798833,1.2137929600844473,1.2251827760153602,0.0010340413819893137,-0.0038358884659216034,0.0,0.017099894696221387
1782019309.7420506,105,1,8.03354018031839e-05,0.18,-0.0001801517103664224,0.07111107366114477,0.17837961475279301,0.0036608754792109384,0.06992745582286423,0.0010706177043373559,-0.026084041568266905,-1.2155779060542133,-1.2190453544698854,1.0318294635565985,1.035689885798833,1.2155287893518343,1.2251827760153602,0.001068437216773784,-0.0038358884659216034,0.0,0.017099894696221387
1782019309.7761562,106,1,9.883803694472364e-05,0.18,-0.0003096135150373804,0.07159138392549533,0.17837961475279301,0.0036608754792109384,0.06992745582286423,0.0019484309995662261,-0.026084041568266905,-1.2171620376550865,-1.2190453544698854,1.0296363362775618,1.035689885798833,1.2176679210782022,1.2251827760153602,0.001119347248669245,-0.0038358884659216034,0.0,0.017099894696221387
1782019309.816272,107,1,9.660666602477953e-06,0.18,-0.0004885020063135428,0.07215244961020258,0.17837961475279301,0.0036608754792109384,0.06992745582286423,0.0033168317395457928,-0.026084041568266905,-1.2194724861131543,-1.2190453544698854,1.026560951143013,1.035689885798833,1.2212629247889526,1.2251827760153602,0.0011989476021341528,-0.0038358884659216034,0.0,0.017099894696221387
1782019309.8525083,108,1,8.578298751141406e-06,0.18,-0.0007237947713632455,0.07279116460285973,0.17837961475279301,0.0036608754792109384,0.06992745582286423,0.004977259122222386,-0.026084041568266905,-1.2216761064012605,-1.2190453544698854,1.0235405149937737,1.035689885798833,1.2243014926751543,1.2251827760153602,0.001294412979986927,-0.0038358884659216034,0.0,0.017099894696221387
1782019309.8861182,109,1,9.387114033258375e-06,0.18,-0.001021908805732097,0.0735040791110938,0.17837961475279301,0.0036608754792109384,0.06992745582286423,0.007080704457342908,-0.026084041568266905,-1.2241213473066994,-1.2190453544698854,1.0201882001392255,1.035689885798833,1.2276279117536841,1.2251827760153602,0.0014148935579780537,-0.0038358884659216034,0.0,0.017099894696221387
1782019309.9329555,110,1,1.01469259200851e-05,0.18,-0.0013886351617634729,0.07428745243087725,0.17837961475279301,0.0036608754792109384,0.06992745582286423,0.009668410963822423,-0.026084041568266905,-1.2268008122948186,-1.2190453544698854,1.0165166699197048,1.035689885798833,1.2312290466982057,1.2251827760153602,0.0015626770404234794,-0.0038358884659216034,0.0,0.017099894696221387
1782019309.9688716,111,1,1.0809157036357038e-05,0.18,-0.0018290792203756543,0.0751373097253857,0.17837961475279301,0.0036608754792109384,0.06992745582286423,0.012776347886662385,-0.026084041568266905,-1.2296980266807243,-1.2190453544698854,1.0125485434250563,1.035689885798833,1.2350691097655786,1.2251827760153602,0.001739735312376687,-0.0038358884659216034,0.0,0.017099894696221387
1782019309.996962,112,1,1.1369852484690331e-05,0.18,-0.0023476071245648817,0.07604950179396033,0.17837961475279301,0.0036608754792109384,0.06992745582286423,0.0164351893816056,-0.026084041568266905,-1.2327952546284238,-1.2190453544698854,1.008307839054605,1.035689885798833,1.2391095964236174,1.2251827760153602,0.001947739376789872,-0.0038358884659216034,0.0,0.017099894696221387
1782019310.0256968,113,1,1.182762138610165e-05,0.18,-0.0029477988582366672,0.07701976675436675,0.1777518144849686,0.0025782200757961905,0.06959047508335386,0.02066995048409477,-0.018412264636423696,-1.2360738629739192,-1.2190453544698854,1.0038194774709213,1.035689885798833,1.2433101713583519,1.229785842174466,0.0021880392160491795,-0.0038358884659216034,0.0,0.017099894696221387
1782019310.063886,114,1,1.218264688652729e-05,0.18,-0.0036324083949010218,0.07804379252386393,0.17689597033903426,0.001503052733246731,0.06914584291213573,0.025499662941116562,-0.01074048770458049,-1.239514526167355,-1.2190453544698854,0.9991089596000751,1.035689885798833,1.2476291492520777,1.2359232637199407,0.0024616453843025457,-0.0038358884659216034,0.0,0.017099894696221387
1782019310.0952392,115,1,1.2436600472474182e-05,0.18,-0.004403331277923569,0.07911727896630666,0.17683057289202708,0.0004436235760111012,0.06936547994828597,0.030937096405801244,-0.003068710772737283,-1.243097437844375,-1.222114065242623,0.9942020439381769,1.035689885798833,1.2520239927718002,1.2374576191063094,0.0027692129861551754,-0.0038358884659216034,0.0,0.017099894696221387
1782019310.127629,116,1,1.2592556034583281e-05,0.18,-0.00526157992796323,0.08023599857399555,0.17675778394994993,-0.00019146872279614163,0.06958455914042737,0.03698852909701696,0.0015343553863686416,-1.2468025313456421,-1.2251827760153602,0.9891244227701808,1.035689885798833,1.256451834461916,1.238991974492678,0.003111028292450337,-0.0038358884659216034,0.0,0.017099894696221387
1782019310.1593742,117,1,1.265488678690658e-05,0.18,-0.006207266904533923,0.08139585457430265,0.17602763954262865,-0.0008218681883192561,0.0694701074726406,0.04365357263318566,0.006137421545474566,-1.25060970775215,-1.2282514867880976,0.9839014008659318,1.035689885798833,1.2608700192900009,1.2451293960381524,0.0034869983195274126,-0.0038358884659216034,0.0,0.017099894696221387
1782019310.192768,118,1,1.262914736335468e-05,0.18,-0.007239596277911913,0.08259293539196624,0.17551416239736328,-0.0012381723797924339,0.06946608593093491,0.05092505634492472,0.009206132318211848,-1.2544990698079155,-1.2313201975608348,0.9785575803477593,1.035689885798833,1.2652366635712535,1.2497324621972583,0.0038966437499743916,-0.0038358884659216034,0.0,0.017099894696221387
1782019310.2247176,119,1,1.252194247397807e-05,0.18,-0.008356863195501697,0.08382356445775185,0.17484362247867416,-0.0022756095251511965,0.06951386664156649,0.058788976806715715,0.016877909250055056,-1.2584511599033403,-1.2359232637199407,0.9731165555384562,1.035689885798833,1.2695112249499614,1.255869883742733,0.00433909562248535,-0.0038358884659216034,0.0,0.017099894696221387
1782019310.263081,120,1,1.2340783450185623e-05,0.18,-0.009556461653909021,0.08508434443198823,0.17471396897975447,-0.003524923011476169,0.07029183356996398,0.06722451848973708,0.026084041568266905,-1.2624472000576097,-1.2405263298790465,0.9676006218223199,1.0326211750260956,1.2736550768383117,1.2604729499018388,0.004813096260183727,-0.0038358884659216034,0.0,0.017099894696221387
1782019310.2934341,121,1,1.2093932792332754e-05,0.18,-0.010834900414999397,0.08637219500607662,0.17471375513981746,-0.004789146085052078,0.07101701946902961,0.07620415121219062,0.03529017388647875,-1.2664693315795679,-1.243595040651784,0.9620305028547506,1.0295524642533582,1.2776320792779352,1.2635416606745762,0.0053170048893674835,-0.002301533079552962,0.0,0.017099894696221387
1782019310.3266127,122,1,1.1790235140875533e-05,0.18,-0.01218782693179067,0.08768438355491454,0.17464479457211424,-0.006038992021481172,0.07194203089172838,0.08569380935502499,0.0444963062046906,-1.2705008516591543,-1.2466637514245211,0.9564251007353958,1.0249493980942523,1.2814091367065532,1.268144726833682,0.005848808379266344,-0.002301533079552962,0.0,0.017099894696221387
1782019310.3657615,123,1,1.1438934751327626e-05,0.18,-0.013610059078781114,0.08901854803649081,0.17496794720752842,-0.006890779715512778,0.07365317537577644,0.09565315655781982,0.05063372775016516,-1.2745264437324537,-1.251266817583627,0.9508012740892894,1.0172776211624093,1.2849567316156665,1.272747792992788,0.006406137428377072,-0.002301533079552962,0.0,0.017099894696221387
1782019310.396672,124,1,1.104947756979457e-05,0.18,-0.015095624411885614,0.09037271166968287,0.1753218675845012,-0.007748812909434879,0.07516700526523054,0.1060359377944687,0.05677114929563973,-1.2785323979809924,-1.255869883742733,0.9451736492142918,1.0111401996169347,1.2882494218042078,1.2758165037655251,0.006986288404238801,-0.002301533079552962,0.0,0.017099894696221387
1782019310.4298618,125,1,1.0631298600367784e-05,0.18,-0.016637806616154074,0.09174528906529938,0.17525652335306435,-0.009005760997752348,0.07625221584756173,0.11679041838511159,0.06597728161385158,-1.2825068177865142,-1.2604729499018388,0.9395544695377844,1.0065371334578288,1.291266287922263,1.2804195699246312,0.007586250852661997,-0.002301533079552962,0.0,0.017099894696221387
1782019310.4648733,126,1,1.0193596355824973e-05,0.18,-0.018229198735477,0.09313508363628387,0.1754107860051792,-0.010701161191918978,0.0776166113081339,0.12785990672541847,0.07825212470480071,-1.2864398074923449,-1.2666103714473134,0.9339534885265258,1.001934067298723,1.2939913174501283,1.2834882806973684,0.008202740483826257,-0.002301533079552962,0.0,0.017099894696221387
1782019310.498021,127,1,9.74509967796344e-06,0.18,-0.019861762718108824,0.09454127626821635,0.175365872819248,-0.012198699084473661,0.07885145519755461,0.13918335445840913,0.0889926124093812,-1.290323636310927,-1.2696790822200508,0.9283779107864671,0.9957966457532483,1.2964137112841385,1.2880913468564743,0.008832237202170402,0.0007671776931843208,0.0,0.017099894696221387
1782019310.52995,128,1,9.293837497305485e-06,0.18,-0.021526894755595924,0.09596340538822407,0.17558430002112302,-0.013488236639290156,0.08036952346703553,0.15069602467407683,0.09819874472759306,-1.2941528728999787,-1.2742821483791567,0.9228323854430994,0.9896592242077736,1.2985280997802817,1.2911600576292115,0.009471027496802256,0.0007671776931843208,0.0,0.017099894696221387
1782019310.5650675,129,1,8.846926784994366e-06,0.18,-0.023215495841085777,0.09740133872650435,0.17614181319260827,-0.014820700493394443,0.0819689856256977,0.16233021573566797,0.1074048770458049,-1.2979244848746967,-1.2773508591518938,0.9173190548535648,0.983521802662299,1.3003346565544656,1.2911600576292115,0.0101152502762698,0.0007671776931843208,0.0,0.017099894696221387
1782019310.599749,130,1,8.410402473306294e-06,0.18,-0.024918046926469345,0.09885523721722712,0.176809281268566,-0.016608343746018567,0.08406199433685459,0.17401602572843847,0.11967972013675401,-1.301637897526839,-1.2819539253109997,0.9118376603998706,0.9758500257304559,1.3018391004894143,1.2911600576292115,0.01076094503283552,0.0007671776931843208,0.0,0.017099894696221387
1782019310.6307304,131,1,7.989114280034094e-06,0.18,-0.026624688016789952,0.10032551163202828,0.17731523999416993,-0.018192297599142322,0.08584589023288094,0.18568214055537127,0.1304202078413345,-1.305295006250333,-1.2865569914701056,0.9063857054751516,0.9697126041849814,1.3030525793341483,1.2911600576292115,0.011404101068702507,0.002301533079552962,0.0,0.017099894696221387
1782019310.6671379,132,1,7.5867211259156875e-06,0.18,-0.02832530050519698,0.1018127726771122,0.17764482689666355,-0.020418856540844688,0.08765321608712891,0.1972566275158512,0.14576376170502095,-1.308900137701255,-1.2942287684019491,0.9009586739659112,0.9651095380258755,1.3039914317432688,1.2911600576292115,0.012040706444981656,0.0038358884659216034,0.0,0.017099894696221387
1782019310.7199152,133,1,7.205804454058942e-06,0.18,-0.030009592022749457,0.10331777541176848,0.17736084701291455,-0.022553623123498054,0.08940835661788629,0.2086677159611116,0.16110731556870733,-1.3124599556026662,-1.2972974791746863,0.8955503005753004,0.9559034057076635,1.3046768286431067,1.2972974791746863,0.012666795302459405,0.0038358884659216034,0.0,0.017099894696221387
1782019310.7470613,134,1,6.848112597735986e-06,0.18,-0.031667183054834167,0.10484135895965063,0.1772346192351914,-0.023867548875455356,0.0900926386550748,0.21984454732934666,0.1703134478869192,-1.3159833082925634,-1.298831834561055,0.8901528873850245,0.9528346949349262,1.3051342990529498,1.298831834561055,0.013278492287813122,0.006904599238658886,0.0,0.017099894696221387
1782019310.780786,135,1,6.514926050282721e-06,0.18,-0.033287694560062746,0.10638438258244978,0.17733724521532868,-0.02498073876628918,0.09143972231380283,0.2307178785147929,0.1779852248187624,-1.319481016662824,-1.3034349007201609,0.8847576592200013,0.9482316287758203,1.3053931498709144,1.3003661899474237,0.013872052965487547,0.006904599238658886,0.0,0.017099894696221387
1782019310.8039572,136,1,6.207509553004232e-06,0.18,-0.03486083581838725,0.1079476592668411,0.17770310222447827,-0.02614802526253576,0.09307962241393682,0.2412207249801734,0.1856570017506056,-1.3229656029765207,-1.3065036114928983,0.879355148807053,0.9420942072303458,1.3054857933140454,1.3003661899474237,0.014443899313605589,0.006904599238658886,0.0,0.017099894696221387
1782019310.8470664,137,1,5.927589741261003e-06,0.18,-0.03637649173290866,0.10953188803827106,0.17793429182590254,-0.028630147006058974,0.09522388031137935,0.251288933109156,0.20253491100066065,-1.326450963132055,-1.3111066776520042,0.8739356015011507,0.9344224302985026,1.3054469995077702,1.3003661899474237,0.014990649660774593,0.006904599238658886,0.0,0.017099894696221387
1782019310.8911893,138,1,5.677771493488557e-06,0.18,-0.03782480881446856,0.11113758625807321,0.17809188682027427,-0.030448707727713,0.09687800876171691,0.260861674781978,0.2148097540916098,-1.329951987179884,-1.3141753884247414,0.8684893885831364,0.9282850087530281,1.3053130949252827,1.3003661899474237,0.015509142701429255,0.006904599238658886,0.0,0.017099894696221387
1782019310.9128308,139,1,5.461786287656349e-06,0.18,-0.03919627908956527,0.1127650231826369,0.17818365860945568,-0.03136598313206106,0.09787977646575582,0.2698818607985498,0.22094717563708435,-1.3334841352045803,-1.3172440991974785,0.8630074178820162,0.9252162979802908,1.3051211297757177,1.3003661899474237,0.0159964555159457,0.006904599238658886,0.0,0.017099894696221387
1782019310.9560583,140,1,5.284458384873428e-06,0.18,-0.04048182119032863,0.11441415606433993,0.17822682469343085,-0.033404311708572866,0.0995434134416066,0.27829647332759516,0.23475637411440214,-1.3370629778708691,-1.320312809970216,0.8574815307133546,0.9190788764348161,1.3049080389173358,1.3003661899474237,0.016449915804015672,0.006904599238658886,0.0,0.017099894696221387
1782019310.9876573,141,1,5.151293386103788e-06,0.18,-0.041672857910052735,0.11608457005345327,0.17840790346328333,-0.03480922887116686,0.10138669584413929,0.2860568208181712,0.24396250643261397,-1.3407037129525718,-1.3249158761293218,0.8519048748648375,0.9129414548893416,1.304709821332825,1.3003661899474237,0.01686710875981917,0.006904599238658886,0.0,0.017099894696221387
1782019311.0153384,142,1,5.067664739625163e-06,0.18,-0.04276138953890948,0.11777542311835247,0.17854234988587864,-0.0357547738140902,0.10273003780529842,0.29311872159354735,0.25009992797808855,-1.3444206708316182,-1.327984586902059,0.8462722445264625,0.9083383887302356,1.3045607625871423,1.3003661899474237,0.017245879230104427,0.006904599238658886,0.0,0.017099894696221387
1782019311.0558116,143,1,5.03770514788572e-06,0.18,-0.0437400623316698,0.11948539713858942,0.17858386513335894,-0.03690985759748145,0.10390172882820915,0.29944262455196624,0.2577717049099318,-1.3482268231287509,-1.3295189422884277,0.8405803795126072,0.9037353225711298,1.3044927230788024,1.3003661899474237,0.01758432992890059,0.006904599238658886,0.0,0.017099894696221387
1782019311.0897439,144,1,5.0631720757776005e-06,0.18,-0.04460223150221273,0.12121265624249244,0.17878943390981017,-0.038345601224515746,0.10627045535086914,0.3049936769414809,0.2669778372281436,-1.352133309267769,-1.3356563638339023,0.8348282178091306,0.8960635456392866,1.304534512300242,1.3003661899474237,0.017880816581452106,0.006904599238658886,0.0,0.017099894696221387
1782019311.1304882,145,1,5.142645809177906e-06,0.18,-0.045342018187926825,0.12295481335911387,0.1788418392113787,-0.039748982772144725,0.10813743634400066,0.3097417500629258,0.27618396954635543,-1.35614899578709,-1.3402594299930082,0.8290170972271413,0.8899261240938119,1.304711365936732,1.3003661899474237,0.01813394090039338,0.006904599238658886,0.0,0.017099894696221387
1782019311.1527824,146,1,5.2713389929613975e-06,0.18,-0.045954359880372775,0.12470890583498233,0.17891502210644644,-0.04025981360254448,0.10916146976237633,0.3136614339947639,0.2792526803190927,-1.3602800825440828,-1.3433281407657454,0.8231509036355438,0.8868574133210747,1.305044538592723,1.3003661899474237,0.018342542291537114,0.009973310011396168,0.0,0.017099894696221387
1782019311.1936421,147,1,5.441560917502803e-06,0.18,-0.04643505387630804,0.12647138083098838,0.1792482859515328,-0.04083481302042574,0.11137413100742505,0.316732012094517,0.28232139109183,-1.3645297686407296,-1.3479312069248515,0.8172361648005608,0.8791856363892315,1.3055510204422778,1.3003661899474237,0.018505689144126092,0.01150766539776481,0.0,0.017099894696221387
1782019311.2249925,148,1,5.6436314278308235e-06,0.18,-0.046780793364864744,0.12823809106585657,0.17931845441466657,-0.04156995776733217,0.11274098019725012,0.3189374251890046,0.2869244572509359,-1.368897989079257,-1.3509999176975886,0.811282090213621,0.8745825702301255,1.306243381387676,1.3003661899474237,0.018622670470230165,0.013042020784133452,0.0,0.017099894696221387
1782019311.2531612,149,1,5.866936288507277e-06,0.18,-0.046989195831767944,0.130004301312277,0.17953730321162636,-0.04233970865373633,0.11496573671500712,0.3202662340955295,0.2915275234100419,-1.373381230748042,-1.3556029838566945,0.8053005583475532,0.8669107932982824,1.3071297415812657,1.3003661899474237,0.018692988559204468,0.013042020784133452,0.0,0.017099894696221387
1782019311.2962382,150,1,6.10087104507871e-06,0.18,-0.047058823529411764,0.13176470588235292,0.17985396759720373,-0.042670755354651056,0.11719739488399614,0.32071158752693396,0.2930618787964105,-1.3779724336534904,-1.3602060500158004,0.7993060535914116,0.8592390163664392,1.308213862636746,1.3003661899474237,0.018716353184849252,0.013042020784133452,0.0,0.017099894696221387
1782019311.330985,151,1,6.335548633626347e-06,0.18,-0.04698919583176793,0.13351345716317525,0.18007003902205246,-0.04297255857996589,0.1190953450419111,0.320271200583985,0.29459623418277914,-1.3826609804297803,-1.3648091161749065,0.7933155556938029,0.8531015948209646,1.309495349716759,1.3003661899474237,0.01869267776584602,0.013042020784133452,0.0,0.017099894696221387
1782019311.3588128,152,1,6.5622561394009575e-06,0.18,-0.046780793364864744,0.1352442050838126,0.18026226086235228,-0.04303088635095361,0.12065688652298055,0.31894734703030053,0.29459623418277914,-1.387432774138768,-1.3694121823340124,0.7873483848640551,0.8484985286618586,1.3109699511096258,1.3003661899474237,0.018622077737017403,0.013042020784133452,0.0,0.017099894696221387
1782019311.402067,153,1,6.773701705255158e-06,0.18,-0.04643505387630804,0.13695014721463042,0.18062295043916315,-0.04290280653932392,0.1230850243276362,0.3167468664285155,0.2930618787964105,-1.3922704015706626,-1.375549603879487,0.7814260059279384,0.8408267517300154,1.3126299389930223,1.3003661899474237,0.01850487122693097,0.013042020784133452,0.0,0.017099894696221387
1782019311.4327717,154,1,6.964106443214369e-06,0.18,-0.045954359880372775,0.13862408902148413,0.180775104523142,-0.042948722204733045,0.12465351084951455,0.31368118507670256,0.2930618787964105,-1.397153376572858,-1.3801526700385929,0.7755717950390529,0.8362236855709095,1.3144645529713728,1.3003661899474237,0.018341582003074303,0.013042020784133452,0.0,0.017099894696221387
1782019311.4657822,155,1,7.129187965481977e-06,0.18,-0.045342018187926846,0.1402585136238321,0.18081481620773154,-0.04296070909112359,0.12621531056001234,0.30976634757026533,0.2930618787964105,-1.4020584556245652,-1.3832213808113303,0.7698107725444584,0.830086264025435,1.3164604866943883,1.3019005453337922,0.018132944465698148,0.013042020784133452,0.0,0.017099894696221387
1782019311.4960804,156,1,7.266069604334132e-06,0.18,-0.044602231502212715,0.14184566023997724,0.1804743246942072,-0.0428579721857305,0.1277943016735007,0.30502305380397926,0.2930618787964105,-1.4069600160021798,-1.3893588023568049,0.7641693057403154,0.8239488424799605,1.3186023974194323,1.3065036114928983,0.017879910342969017,0.013042020784133452,0.0,0.017099894696221387
1782019311.5374134,157,1,7.373138541105691e-06,0.18,-0.043740062331669785,0.14337761034718358,0.18016563044530415,-0.04276483078873439,0.12970906915138158,0.29947669438570423,0.2930618787964105,-1.4118304853937205,-1.3954962239022792,0.7586747853894186,0.8162770655481172,1.3208734188137852,1.3111066776520042,0.017583656577585732,0.013042020784133452,0.0,0.017099894696221387
1782019311.5640886,158,1,7.449868736842104e-06,0.18,-0.04276138953890947,0.14484638044188475,0.1800865890103734,-0.042740984247465016,0.13110214916524018,0.2931573758407496,0.2930618787964105,-1.4166408109017228,-1.4000992900613853,0.7533552801197275,0.8116739993890113,1.3232556584945587,1.3126410330383727,0.01724559377410426,0.013042020784133452,0.0,0.017099894696221387
1782019311.5962865,159,1,7.496621694505314e-06,0.18,-0.041672857910052714,0.14624402015798793,0.1796918446051477,-0.04262187497972234,0.13196293047526514,0.28609992572079396,0.2930618787964105,-1.4213609548774229,-1.4031680008341225,0.7482391730843716,0.8070709332299053,1.3257306637322843,1.3172440991974785,0.01686737444262139,0.013042020784133452,0.0,0.017099894696221387
1782019311.6297202,160,1,7.514436471381897e-06,0.18,-0.04048182119032864,0.14756271439154117,0.1796500508888254,-0.042609269975062855,0.13421532259541608,0.2783438668845742,0.2930618787964105,-1.425960405005956,-1.409305422379597,0.7433547855572572,0.7993991562980621,1.3282798412948729,1.3187784545838472,0.016450900198547704,0.013042020784133452,0.0,0.017099894696221387
1782019311.6628413,161,1,7.504819942016199e-06,0.18,-0.03919627908956525,0.1487948879896762,0.1796883607493313,-0.04262083388113248,0.1357812530443938,0.2699333498779876,0.2930618787964105,-1.4304086865134753,-1.413908488538703,0.7387299924537568,0.7947960901389562,1.3308848204229606,1.3187784545838472,0.015998326995882755,0.013042020784133452,0.0,0.017099894696221387
1782019311.6963897,162,1,7.469549352229988e-06,0.18,-0.037824808814468536,0.14993331149238412,0.17971458980498953,-0.042628753873254425,0.13787107679378738,0.2609170325782727,0.2930618787964105,-1.434675865105575,-1.4200459100841776,0.734391834996324,0.7886586685934817,1.3335277513123405,1.3187784545838472,0.015512067475033692,0.013042020784133452,0.0,0.017099894696221387
1782019311.7298036,163,1,7.410498134026964e-06,0.18,-0.036376491732908633,0.15097120636862751,0.17924705842674482,-0.042487682037981325,0.1388928693373116,0.2513478971381644,0.2930618787964105,-1.4387330304132948,-1.4246489762432835,0.7303661359488116,0.7840556024343757,1.33619153500919,1.3233815207429531,0.01499478950213752,0.013042020784133452,0.0,0.017099894696221387
1782019311.7691793,164,1,7.329496116093937e-06,0.18,-0.03486083581838722,0.15190234816450698,0.17899358682707134,-0.04147417504661978,0.14008645662108032,0.24128299581011076,0.2869244572509359,-1.442552751038952,-1.430786397788758,0.7266771228823501,0.7794525362752698,1.3388599842090847,1.327984586902059,0.014449410080889694,0.013042020784133452,0.0,0.017099894696221387
1782019311.8007047,165,1,7.228232429607332e-06,0.18,-0.033287694560062725,0.15272116598129912,0.1789829764640988,-0.04030461077186978,0.1407599311959548,0.23078311941188176,0.2792526803190927,-1.4461094938851196,-1.4338551085614955,0.7233470648934659,0.7763838255025325,1.3415179178652292,1.3310532976747964,0.013879083940129912,0.013042020784133452,0.0,0.017099894696221387
1782019311.8309507,166,1,7.108206913551403e-06,0.18,-0.031667183054834146,0.15342283672540852,0.17885257489290085,-0.03887554917044755,0.14176512314180656,0.21991238497153967,0.2700465480008809,-1.4493800020843435,-1.4384581747206013,0.7203959279643124,0.7717807593434266,1.34415119565002,1.3356563638339023,0.013287186298708944,0.013042020784133452,0.0,0.017099894696221387
1782019311.8710256,167,1,6.970731400349403e-06,0.18,-0.030009592022749422,0.15400337262051136,0.17916184409122426,-0.037112492110073815,0.14295841509603885,0.20873774233102713,0.2577717049099318,-1.4523436275616781,-1.4415268854933387,0.7178410538125807,0.7671776931843207,1.3467467010142726,1.337190719220271,0.01267728954232549,0.013042020784133452,0.0,0.017099894696221387
1782019311.9053786,168,1,6.816978525260058e-06,0.18,-0.028325300505196938,0.15445970054391167,0.1795104717712096,-0.03536312122542313,0.14468822190964886,0.19732840302920768,0.24549686181898261,-1.4549826158819001,-1.447664307038813,0.715696866577123,0.7625746270252147,1.349292283746324,1.337190719220271,0.012053133828222573,0.013042020784133452,0.0,0.017099894696221387
1782019311.9436712,169,1,6.648070307013393e-06,0.18,-0.026624688016789917,0.1547897318435294,0.17946122559355493,-0.033749519275616396,0.14481156762999217,0.1857551984181573,0.23475637411440214,-1.457282342590658,-1.447664307038813,0.7139746111093815,0.7595059162524775,1.351776674464064,1.3417937853793769,0.011418591931808865,0.013042020784133452,0.0,0.017099894696221387
1782019311.971346,170,1,6.4651962932130215e-06,0.18,-0.024918046926469317,0.154992421407771,0.1793070893957071,-0.03212135825633567,0.14528335324279157,0.17408987744681878,0.22401588640982165,-1.4592315015510358,-1.4507330178115505,0.7126821259590828,0.7564372054797402,1.3541893842993236,1.3463968515384828,0.010777628945642584,0.013042020784133452,0.0,0.017099894696221387
1782019312.0050406,171,1,6.2697470915023135e-06,0.18,-0.023215495841085745,0.15506781489624938,0.1795279304915082,-0.030811780508067543,0.145972987063416,0.16240435763505554,0.2148097540916098,-1.4608222468796745,-1.4538017285842877,0.7118236534715104,0.7549028500933715,1.356520603163725,1.3463968515384828,0.010134257720487518,0.013042020784133452,0.0,0.017099894696221387
1782019312.039655,172,1,6.06344830169507e-06,0.18,-0.021526894755595896,0.15501708319305169,0.17945495556216856,-0.029217019811740658,0.1459459650511999,0.1507699452240325,0.2040692663870293,-1.462050290839326,-1.456870439357025,0.7113996887364262,0.7549028500933715,1.3587611093655214,1.34946556231122,0.009492491171578866,0.013042020784133452,0.0,0.017099894696221387
1782019312.078055,173,1,5.848478420223474e-06,0.18,-0.019861762718108796,0.15484254331384337,0.179422657524798,-0.026967434898963583,0.1453844119220749,0.13925654214684158,0.1887257125233429,-1.4629149604818361,-1.456870439357025,0.7114068685292835,0.7549028500933715,1.3609022020549701,1.3540686284703258,0.008856292746518996,0.013042020784133452,0.0,0.017099894696221387
1782019312.10854,174,1,5.6275540881337935e-06,0.18,-0.018229198735477,0.15454766518113405,0.17958748794979823,-0.02521201721270452,0.14519771417279098,0.12793185820100372,0.17645086943239374,-1.463419215930185,-1.456870439357025,0.7118379008908171,0.7549028500933715,1.362935666044026,1.3556029838566945,0.008229526445673159,0.013042020784133452,0.0,0.017099894696221387
1782019312.143694,175,1,5.40396433284558e-06,0.18,-0.016637806616154025,0.15413706387587708,0.17981362319840727,-0.02391518387165173,0.1451977176140531,0.11686064656694438,0.1672447371141819,-1.4635696329752856,-1.456870439357025,0.712681535643097,0.7549028500933715,1.3648537760680142,1.3556029838566945,0.007615907801293251,0.013042020784133452,0.0,0.017099894696221387
1782019312.1790943,176,1,5.181535415682923e-06,0.18,-0.015095624411885583,0.15361647717542246,0.1800278102135866,-0.022616323683772272,0.1451977210606937,0.10610397966452467,0.15803860479597007,-1.463376352143327,-1.456870439357025,0.7139225759307416,0.7549028500933715,1.3666493446243428,1.3556029838566945,0.007018957147723007,0.013042020784133452,0.0,0.017099894696221387
1782019312.2086594,177,1,4.964505911233651e-06,0.18,-0.013610059078781087,0.15299272839472747,0.18026256966372856,-0.02109857195792412,0.14519772508818257,0.09571858037367127,0.14729811709138957,-1.4628529957190757,-1.456870439357025,0.715541930843179,0.7549028500933715,1.3683158142939111,1.3556029838566945,0.0064419563755591545,0.013042020784133452,0.0,0.017099894696221387
1782019312.2420983,178,1,4.757294590542724e-06,0.18,-0.012187826931790649,0.1522736747566127,0.17991104860937213,-0.019059109563193392,0.14445335238144344,0.08575622106741293,0.1334889186140718,-1.4620165533889888,-1.456870439357025,0.7175167092621896,0.7549028500933715,1.369847392047322,1.3617404054021693,0.005887910156045029,0.013042020784133452,0.0,0.017099894696221387
1782019312.2846928,179,1,4.564151629183831e-06,0.18,-0.010834900414999392,0.15146814172462686,0.17984383643530055,-0.017071098812039553,0.14408263363572948,0.07626319992494078,0.11967972013675401,-1.4608872363812668,-1.456870439357025,0.719820355269863,0.7549028500933715,1.371239219659127,1.3648091161749065,0.005359512379171142,0.013042020784133452,0.0,0.017099894696221387
1782019312.3176954,180,1,4.388703999145165e-06,0.18,-0.009556461653908985,0.15058584393566005,0.17999501553475228,-0.015772250506791992,0.14408263708233904,0.06727990086022542,0.11047358781854218,-1.4594882992944596,-1.456870439357025,0.722422825681669,0.7549028500933715,1.3724875711567333,1.3648091161749065,0.004859118288709463,0.013042020784133452,0.0,0.017099894696221387
1782019312.3490548,181,1,4.233438449172624e-06,0.18,-0.008356863195501683,0.1496372935657659,0.18011185976457011,-0.014688851142289166,0.14408263995723575,0.058840440343953714,0.10280181088669897,-1.4578458283359428,-1.456870439357025,0.7252908104843508,0.7549028500933715,1.3735900654114672,1.3648091161749065,0.004388722535591779,0.013042020784133452,0.0,0.017099894696221387
1782019312.383036,182,1,4.09920545581194e-06,0.18,-0.007239596277911895,0.14863369714875918,0.18008175867934645,-0.013372679855238951,0.14389764922770276,0.05097240161712026,0.09359567856848712,-1.4559884945473425,-1.456870439357025,0.7283879970516813,0.7549028500933715,1.3745458797440833,1.3663434715612752,0.003949943140111649,0.013042020784133452,0.0,0.017099894696221387
1782019312.414003,183,1,3.9848560137962645e-06,0.18,-0.0062072669045339065,0.14758684204022926,0.17986044831283743,-0.012261145295539934,0.14352840148750148,0.04369665444235258,0.08592390163664392,-1.453947270785499,-1.456870439357025,0.7316753789482559,0.7549028500933715,1.37535594890205,1.3694121823340124,0.003544011147219104,0.013042020784133452,0.0,0.017099894696221387
1782019312.4462326,184,1,3.887117678746126e-06,0.18,-0.0052615799279632286,0.14650897387700496,0.1797899645570608,-0.011166305152914398,0.14334414879441787,0.0370272567130499,0.07825212470480071,-1.451755111822263,-1.456870439357025,0.7351116098362162,0.7549028500933715,1.376023133137331,1.370946537720381,0.0031717656132692167,0.013042020784133452,0.0,0.017099894696221387
1782019312.4860556,185,1,3.8007661497342624e-06,0.18,-0.0044033312779235435,0.14541266652141438,0.17991726956506682,-0.009423216196662115,0.143344237168737,0.030971432973735773,0.06597728161385158,-1.4494465978708913,-1.456870439357025,0.7386534024061512,0.7549028500933715,1.3765523394760346,1.370946537720381,0.0028336534593621713,0.01150766539776481,0.0,0.017099894696221387
1782019312.5177,186,1,3.7190686600786016e-06,0.18,-0.003632408394901011,0.14431068609873768,0.17981317998332938,-0.0085233293559099,0.14316044195822308,0.025529624186986462,0.05983986006837701,-1.4470575430763446,-1.456870439357025,0.74225597139069,0.7549028500933715,1.37695058164772,1.3724808931067498,0.0025297336735461886,0.008438954625027528,0.0,0.017099894696221387
1782019312.5496762,187,1,9.480367213500372e-05,0.18,-0.0029477988582366573,0.14321585083319716,0.17969048296681447,-0.007853296941143059,0.14297680958733863,0.021218618931100705,0.05523679390927109,-1.4448818250861288,-1.456870439357025,0.7456555495598717,0.7549028500933715,1.3775264643184615,1.3740152484931185,0.0022892040386160383,0.006904599238658886,0.0,0.017099894696221387
1782019312.5888565,188,1,9.942738906386795e-05,0.18,-0.002347607124564873,0.14214088846111986,0.1797251388264804,-0.007204850308538525,0.14297681130804973,0.016972556836243755,0.05063372775016516,-1.4424947541946302,-1.456870439357025,0.7492090177831753,0.7549028500933715,1.3777825254411398,1.3740152484931185,0.0020519671660040547,0.006904599238658886,0.0,0.017099894696221387
1782019312.6180222,189,1,9.397693695084332e-05,0.18,-0.001829079220375654,0.14109829304835153,0.1797667028781184,-0.006340019713439095,0.14297681360295506,0.013246423405369082,0.0444963062046906,-1.4400965320008376,-1.456870439357025,0.7527114713141009,0.7549028500933715,1.377876266898944,1.3740152484931185,0.0018436632554026645,0.006904599238658886,0.0,0.017099894696221387
1782019312.6499922,190,1,8.708351396142395e-05,0.18,-0.0013886351617634603,0.14010018306177163,0.17981119258842493,-0.005258649466527652,0.14297681647246782,0.01006807011479917,0.03682452927284739,-1.4377515975772301,-1.456870439357025,0.7560993037189448,0.7549028500933715,1.3778659937959994,1.3740152484931185,0.001665917543575359,0.006904599238658886,0.0,0.017099894696221387
1782019312.6860075,191,1,7.989849018789424e-05,0.18,-0.0010219088057320915,0.13915816254140528,0.17983390387747325,-0.004609674689440667,0.14297681819458047,0.007413190161913968,0.03222146311374147,-1.4355009282689826,-1.456870439357025,0.7593248496671353,0.7549028500933715,1.377777003854587,1.3740152484931185,0.0015173957685167402,0.006904599238658886,0.0,0.017099894696221387
1782019312.7238622,192,1,7.255699754767241e-05,0.18,-0.0007237947713632409,0.13828318719009136,0.17983390387747325,-0.004609674689440667,0.14297681819458047,0.005247089333672997,0.03222146311374147,-1.4333794521908836,-1.456870439357025,0.762344916237644,0.7549028500933715,1.3776278170576237,1.3740152484931185,0.0013961724573272754,0.006904599238658886,0.0,0.017099894696221387
1782019312.7617524,193,1,6.503855462177674e-05,0.18,-0.0004885020063135423,0.13748543714227512,0.17983390387747325,-0.004609674689440667,0.14297681819458047,0.003529595966474931,0.03222146311374147,-1.4314191859909322,-1.456870439357025,0.7651192513102325,0.7549028500933715,1.377435787289277,1.3740152484931185,0.001300012808934167,0.006904599238658886,0.0,0.017099894696221387
1782019312.7958214,194,1,5.730656658978456e-05,0.18,-0.00030961351503737996,0.13677419809295957,0.17983390387747325,-0.004609674689440667,0.14297681819458047,0.00221598098639239,0.03222146311374147,-1.4296495347427693,-1.456870439357025,0.7676106888452773,0.7549028500933715,1.377217886592376,1.3740152484931185,0.001226425735904955,0.006904599238658886,0.0,0.017099894696221387
1782019312.8363998,195,1,4.933681668200108e-05,0.18,-0.00018015171036641915,0.13615775236326275,0.17976607644566114,-0.004607486184623432,0.14196737215586616,0.0012574790923531216,0.03222146311374147,-1.4280970240510589,-1.456870439357025,0.7697856161282907,0.7595059162524775,1.3769904412176313,1.3740152484931185,0.0011726932923864263,0.006904599238658886,0.0,0.017099894696221387
1782019312.8647091,196,1,4.112470642582189e-05,0.18,-9.264880009687872e-05,0.1356432813518373,0.17969360561281167,-0.004605148041096444,0.1409582491868447,0.0006017953165939136,0.03222146311374147,-1.426784943863889,-1.456870439357025,0.7716144762075278,0.7641089824115834,1.376768649722916,1.3740152484931185,0.001135898923572531,0.006904599238658886,0.0,0.017099894696221387
1782019312.908827,197,1,3.2686748077267414e-05,0.18,-3.9221575486043215e-05,0.13523678067339545,0.1796427128112386,-0.00460350617046284,0.14028569058304396,0.0001936346762497258,0.03222146311374147,-1.4257330099146202,-1.456870439357025,0.7730722351986636,0.7671776931843207,1.3765660772072115,1.3740152484931185,0.001112956889607441,0.006904599238658886,0.0,0.017099894696221387
1782019312.9359958,198,1,2.4059620844949057e-05,0.18,-1.1649929437829322e-05,0.1349429891188504,0.1797148396148472,-0.004605829649452815,0.13994653770845655,-2.474437231127398e-05,0.03222146311374147,-1.4249570698644296,-1.4538017285842877,0.7741387904224037,0.7671776931843207,1.3763941850586563,1.3740152484931185,0.0011006429948619033,0.006904599238658886,0.0,0.017099894696221387
1782019312.9747543,199,1,1.5298552973146587e-05,0.18,-1.4583990102419277e-06,0.1347653323885074,0.17962431205817148,-0.0048191685138088535,0.1389382511329939,-0.00011295616427328587,0.03375581850011011,-1.4244688639047074,-1.4538017285842877,0.7747993061462161,0.7717807593434266,1.376261925821254,1.3740152484931185,0.001095626476919364,0.006904599238658886,0.0,0.017099894696221387
1782019313.0087423,200,1,6.960834223653418e-05,0.18,0.0,0.13470588235294118,0.17964500242362125,-0.004171058612915953,0.13893825285281164,-0.00011295616427328587,0.029152752341004187,-1.4244688639047074,-1.4538017285842877,0.7747993061462161,0.7717807593434266,1.376261925821254,1.3740152484931185,0.001095626476919364,0.006904599238658886,0.0,0.017099894696221387
1782019313.0400329,201,1,1.5863701919905287e-05,0.18,1.458399010241918e-06,0.1347653323885074,0.17973071820489178,-0.0035245289420467512,0.13859914234730125,-0.00011295616427328587,0.024549686181898265,-1.4244688639047074,-1.4507330178115505,0.7747993061462161,0.7717807593434266,1.376261925821254,1.3740152484931185,0.001095626476919364,0.006904599238658886,0.0,0.017099894696221387
1782019313.0830786,202,1,8.37519797008195e-06,0.18,1.1649929437829385e-05,0.1349429891188504,0.17974969468089952,-0.002659733418796626,0.1385991446421137,-0.00020501980146853544,0.018412264636423696,-1.4247999412104686,-1.4507330178115505,0.7742685841051715,0.7717807593434266,1.3761775371302074,1.3740152484931185,0.0010903616285350508,0.006904599238658886,0.0,0.017099894696221387
1782019313.1124387,203,1,1.9211640805324425e-05,0.18,3.922157548604358e-05,0.13523678067339548,0.17975360945799967,-0.0024435176125542513,0.13859914521586175,-0.00038829974958735523,0.016877909250055056,-1.4254796380030679,-1.4507330178115505,0.7732779622112101,0.7717807593434266,1.3762116682755396,1.3740152484931185,0.00108007066651216,0.006904599238658886,0.0,0.017099894696221387
1782019313.1515026,204,1,2.8129095619342537e-05,0.18,9.264880009687977e-05,0.1356432813518373,0.17975360945799967,-0.0024435176125542513,0.13859914521586175,-0.00074400406524599,0.016877909250055056,-1.4264506844906075,-1.4507330178115505,0.7718845462177858,0.7717807593434266,1.376302821261692,1.3740152484931185,0.0010601564103820777,0.006904599238658886,0.0,0.017099894696221387
1782019313.1977353,205,1,3.6423977077027786e-05,0.18,0.00018015171036642137,0.13615775236326277,0.17974969468089952,-0.002659733418796626,0.1385991446421137,-0.0013327477136765924,0.018412264636423696,-1.4276903049056415,-1.4507330178115505,0.7701130176977778,0.7717807593434266,1.3764281408947119,1.3740152484931185,0.0010272080408706024,0.006904599238658886,0.0,0.017099894696221387
1782019313.229662,206,1,4.4376224143753386e-05,0.18,0.0003096135150373797,0.13677419809295957,0.17974969468089952,-0.002659733418796626,0.1385991446421137,-0.002210744663225875,0.018412264636423696,-1.4291783676185423,-1.4507330178115505,0.7679884504656849,0.7717807593434266,1.3765732055123232,1.3740152484931185,0.000978069135950767,0.006904599238658886,0.0,0.017099894696221387
1782019313.2650537,207,1,5.2050416467785495e-05,0.18,0.0004885020063135433,0.13748543714227515,0.17974969468089952,-0.002659733418796626,0.1385991446421137,-0.003431112120516437,0.018412264636423696,-1.4308923786200936,-1.4507330178115505,0.7655397303069387,0.7717807593434266,1.3767239533045557,1.3740152484931185,0.0009097573691246504,0.006904599238658886,0.0,0.017099894696221387
1782019313.3117993,208,1,5.948391272809199e-05,0.18,0.0007237947713632435,0.13828318719009136,0.17974969468089952,-0.002659733418796626,0.1385991446421137,-0.005043542698688038,0.018412264636423696,-1.4328067336583443,-1.4507330178115505,0.7627998079554144,0.7717807593434266,1.376865301842523,1.3740152484931185,0.0008194814763919738,0.006904599238658886,0.0,0.017099894696221387
1782019313.3460476,209,1,6.672553034536571e-05,0.18,0.001021908805732097,0.1391581625414053,0.17974969468089952,-0.002659733418796626,0.1385991446421137,-0.007093819748550648,0.018412264636423696,-1.4348928668631777,-1.4507330178115505,0.7598053328019059,0.7717807593434266,1.3769812743832888,1.3740152484931185,0.0007046683961953161,0.006904599238658886,0.0,0.017099894696221387
1782019313.382504,210,1,7.384025394254548e-05,0.18,0.0013886351617634685,0.14010018306177166,0.17974969468089952,-0.002659733418796626,0.1385991446421137,-0.009623342614851649,0.018412264636423696,-1.4371196200299738,-1.4507330178115505,0.7565961240806518,0.7717807593434266,1.3770554543633073,1.3740152484931185,0.0005629902573195284,0.006904599238658886,0.0,0.017099894696221387
1782019313.4112518,211,1,8.09050024379077e-05,0.18,0.001829079220375654,0.14109829304835153,0.17974969468089952,-0.002659733418796626,0.1385991446421137,-0.012668682771491534,0.018412264636423696,-1.4394536835098137,-1.4507330178115505,0.7532145841467469,0.7717807593434266,1.3770714973973202,1.3740152484931185,0.000392389852008932,0.006904599238658886,0.0,0.017099894696221387
1782019313.4499884,212,1,8.800121465526298e-05,0.18,0.002347607124564875,0.14214088846111986,0.17974969468089952,-0.002659733418796626,0.1385991446421137,-0.016261175455777988,0.018412264636423696,-1.4418600697531803,-1.4507330178115505,0.749705086518387,0.7717807593434266,1.377013625878765,1.3740152484931185,0.00019110432402399244,0.006904599238658886,0.0,0.017099894696221387
1782019313.482025,213,1,9.520619092364946e-05,0.18,0.0029477988582366638,0.14321585083319718,0.17976336321815028,-0.0017948377171281722,0.13859914693719205,-0.02042654965310136,0.012274843090949132,-1.444302603628991,-1.4507330178115505,0.7461133557612535,0.7717807593434266,1.3768670752002914,1.3740152484931185,-4.231307483991653e-05,0.006904599238658886,0.0,0.017099894696221387
1782019313.5179415,214,1,3.7941826072324662e-06,0.18,0.0036324083949010235,0.1443106860987377,0.1797717233017799,-0.0009298744157813232,0.13859914923244976,-0.0257618625767099,0.006137421545474566,-1.4470089597604572,-1.4507330178115505,0.7422592968450279,0.7717807593434266,1.3769158672486737,1.3740152484931185,-0.00034098588175909226,0.006904599238658886,0.0,0.017099894696221387
1782019313.55284,215,1,9.867976640083243e-05,0.18,0.004403331277923562,0.14541266652141444,0.1797747746168822,-6.48760960423301e-05,0.13859915152780045,-0.03061401505148926,0.0,-1.449191753343257,-1.4507330178115505,0.7388410193937324,0.7717807593434266,1.376322866334847,1.3740152484931185,-0.0006132817286740868,0.006904599238658886,0.0,0.017099894696221387
1782019313.584201,216,1,3.85011735383829e-06,0.18,0.0052615799279632286,0.14650897387700496,0.17977430944250655,0.0003676260136780209,0.13859915267548364,-0.0372508671991814,-0.003068710772737283,-1.4517048327746382,-1.4507330178115505,0.7351066926532578,0.7717807593434266,1.3760013763528745,1.3740152484931185,-0.0009850560665293057,0.006904599238658886,0.0,0.017099894696221387
1782019313.617117,217,1,3.5386799551723533e-06,0.18,0.00620726690453391,0.14758684204022926,0.17977430944250655,0.0003676260136780209,0.13859915267548364,-0.043918093047738145,-0.003068710772737283,-1.4538984212331147,-1.4507330178115505,0.7316654678746499,0.7717807593434266,1.3753437260474257,1.3740152484931185,-0.0013588390728308322,0.006904599238658886,0.0,0.017099894696221387
1782019313.6505024,218,1,3.67662606163781e-06,0.18,0.007239596277911909,0.1486336971487592,0.1797711231489608,0.0010163714106562985,0.13859915439698783,-0.05118970610738927,-0.007671776931843207,-1.455940116654831,-1.4507330178115505,0.7283741967681285,0.7717807593434266,1.3745408524850657,1.3740152484931185,-0.001766465038268922,0.006904599238658886,0.0,0.017099894696221387
1782019313.6839201,219,1,3.843150576254904e-06,0.18,0.008356863195501697,0.1496372935657659,0.17975579217160834,0.0023137838407279645,0.1385991578397883,-0.05905370676791516,-0.016877909250055056,-1.457798731466781,-1.4507330178115505,0.7252733118765325,0.7717807593434266,1.3735925815078787,1.3740152484931185,-0.0022072140944269136,0.006904599238658886,0.0,0.017099894696221387
1782019313.7227254,220,1,4.035929397866546e-06,0.18,0.00955646165390901,0.15058584393566005,0.17966051160901853,0.003609224543700956,0.13893827349849147,-0.0674892800127207,-0.026084041568266905,-1.4594433242749216,-1.4538017285842877,0.7224018811368524,0.7717807593434266,1.3724979089230251,1.3740152484931185,-0.0026798634756172693,0.006904599238658886,0.0,0.017099894696221387
1782019313.761016,221,1,4.253170220923184e-06,0.18,0.010834900414999392,0.15146814172462683,0.17957890992441838,0.005132372103026139,0.1391078946468525,-0.07646888925544931,-0.03682452927284739,-1.4608452126438933,-1.4553360839706564,0.7197962718695149,0.7717807593434266,1.3712575660789392,1.3740152484931185,-0.0031828006626674664,0.005370243852290245,0.0,0.017099894696221387
1782019313.7985337,222,1,4.491533362313573e-06,0.18,0.012187826931790657,0.1522736747566127,0.17958051635403255,0.006226106778417041,0.14028601450779754,-0.08595846310699774,-0.0444963062046906,-1.4619782756206419,-1.456870439357025,0.7174898289698645,0.7671776931843207,1.3698738556838372,1.3740152484931185,-0.0037140340475790633,0.0038358884659216034,0.0,0.017099894696221387
1782019313.82937,223,1,4.746739355957078e-06,0.18,0.0136100590787811,0.1529927283947275,0.17961421714794312,0.007117852230357101,0.14129526786161078,-0.09591766029620866,-0.05063372775016516,-1.4628192009641428,-1.456870439357025,0.7155126097576063,0.7625746270252147,1.3683504397639283,1.3740152484931185,-0.004271208866322094,0.0007671776931843208,0.0,0.017099894696221387
1782019313.8632748,224,1,5.014134489282033e-06,0.18,0.015095624411885614,0.15361647717542246,0.17960047054526196,0.008633796796545887,0.1423045073372059,-0.10630022191853519,-0.061374215454745654,-1.463347697895001,-1.456870439357025,0.7138911637021849,0.7579715608661088,1.366692127337336,1.3740152484931185,-0.004851628971329601,0.0007671776931843208,0.0,0.017099894696221387
1782019313.9011111,225,1,5.289125338291738e-06,0.18,0.016637806616154063,0.1541370638758771,0.1794838874570609,0.010360973344539826,0.14230451192042481,-0.11705441059217424,-0.07364905854569478,-1.4635466769496086,-1.456870439357025,0.7126483559555051,0.7579715608661088,1.3649046763722166,1.3740152484931185,-0.0054522844670939746,0.0007671776931843208,0.0,0.017099894696221387
1782019313.9309664,226,1,5.56746606407127e-06,0.18,0.018229198735477,0.15454766518113405,0.17940508442087574,0.011657216775578332,0.14264099843989386,-0.1281235332970156,-0.08285519086390664,-1.4634023981187128,-1.456870439357025,0.7118032338129505,0.7564372054797402,1.3629946220240798,1.3740152484931185,-0.006069885004341518,0.0007671776931843208,0.0,0.017099894696221387
1782019313.9665892,227,1,5.845412981817429e-06,0.18,0.019861762718108807,0.1548425433138434,0.17929180920942633,0.012950808533911508,0.14264100187255657,-0.13944654161500036,-0.09206132318211847,-1.4629045879617966,-1.456870439357025,0.7113709354132359,0.7564372054797402,1.3609691403339157,1.3740152484931185,-0.006700898279967441,0.0007671776931843208,0.0,0.017099894696221387
1782019314.005968,228,1,6.119773562609308e-06,0.18,0.021526894755595914,0.15501708319305166,0.17914245046680083,0.014482756082220534,0.14264142000937602,-0.15095869995671168,-0.10280181088669897,-1.4620465257143953,-1.456870439357025,0.7113626401848084,0.7564372054797402,1.3588359534318102,1.3740152484931185,-0.007341593030920397,-0.002301533079552962,0.0,0.017099894696221387
1782019314.046036,229,1,6.387877210683793e-06,0.18,0.023215495841085777,0.15506781489624938,0.17895410861796585,0.016203870015733007,0.1426414245765077,-0.16259230937048189,-0.1150766539776481,-1.4608250975879167,-1.456870439357025,0.7117855607375018,0.7564372054797402,1.3566032788916382,1.3740152484931185,-0.007988085572663063,-0.002301533079552962,0.0,0.017099894696221387
1782019314.0837567,230,1,6.647492403587558e-06,0.18,0.024918046926469352,0.154992421407771,0.17874465508489862,0.01792254248064279,0.14264142913716088,-0.17427747193707632,-0.12735149706859722,-1.459240817678926,-1.456870439357025,0.7126429759756328,0.7564372054797402,1.3542798225085115,1.3740152484931185,-0.00863638872369932,-0.002301533079552962,0.0,0.017099894696221387
1782019314.123339,231,1,6.896711467537253e-06,0.18,0.026624688016789917,0.1547897318435294,0.1788939029633515,0.01925378589575055,0.14300871039025803,-0.18594287877365795,-0.13655762938680907,-1.4572978132170147,-1.456870439357025,0.7139343051774567,0.7564372054797402,1.3518748105322882,1.370946537720381,-0.009282461811736961,-0.002301533079552962,0.0,0.017099894696221387
1782019314.1598454,232,1,7.1338210330059374e-06,0.18,0.02832530050519695,0.15445970054391167,0.17861467503219464,0.02118598569055234,0.14300871551752564,-0.19751660349646943,-0.15036682786412683,-1.4550037713855795,-1.456870439357025,0.7156552225883901,0.7564372054797402,1.349398054455238,1.370946537720381,-0.009922260371798722,-0.002301533079552962,0.0,0.017099894696221387
1782019314.1887586,233,1,7.3571740894172315e-06,0.18,0.030009592022749443,0.15400337262051136,0.1784137114379237,0.022471897145796192,0.14300871892980854,-0.20892688273754925,-0.15957296018233869,-1.452369844750568,-1.456870439357025,0.7177978117482627,0.7564372054797402,1.3468600389494696,1.370946537720381,-0.010551784159337123,-0.002301533079552962,0.0,0.017099894696221387
1782019314.2194924,234,1,7.5650782444053595e-06,0.18,0.03166718305483418,0.15342283672540852,0.1781643038784619,0.023969712377030453,0.14300872290439753,-0.2201028660309589,-0.1703134478869192,-1.4494105124413779,-1.456870439357025,0.7203507582903744,0.7564372054797402,1.344272021613341,1.370946537720381,-0.011167122173241291,-0.002301533079552962,0.0,0.017099894696221387
1782019314.260677,235,1,7.755711818591288e-06,0.18,0.033287694560062746,0.15272116598129912,0.17845213212084216,0.026009108477260626,0.14374625035886437,-0.23097531902601,-0.18412264636423695,-1.4461433946752,-1.456870439357025,0.723299579380975,0.7564372054797402,1.341646131849845,1.3648091161749065,-0.011764493558289327,-0.002301533079552962,0.0,0.017099894696221387
1782019314.2940874,236,1,7.927076402629651e-06,0.18,0.03486083581838722,0.15190234816450698,0.17847629581978564,0.027580982429957473,0.1441167229740798,-0.24147726644577316,-0.19486313406881745,-1.4425890190034196,-1.456870439357025,0.7266268873217001,0.7564372054797402,1.3389954555687955,1.3617404054021693,-0.012340283470323444,-0.0038358884659216034,0.0,0.017099894696221387
1782019314.3309577,237,1,8.076991890102038e-06,0.18,0.03637649173290865,0.15097120636862751,0.1782141962469665,0.028877258195479184,0.1441169721598749,-0.25154456429051536,-0.2040692663870293,-1.4387705377475442,-1.456870439357025,0.7303126841854565,0.7564372054797402,1.3363340925002,1.3617404054021693,-0.01289107327187646,-0.005370243852290245,0.0,0.017099894696221387
1782019314.3633788,238,1,8.20313496561202e-06,0.18,0.03782480881446856,0.1499333114923841,0.1783578110707976,0.030498130569525488,0.14467470730930687,-0.26111639427098293,-0.2148097540916098,-1.4347133974311128,-1.456870439357025,0.7343346837095729,0.7564372054797402,1.3336771736871766,1.3571373392430632,-0.013413664707039304,-0.008438954625027528,0.0,0.017099894696221387
1782019314.393462,239,1,8.303119860885294e-06,0.18,0.039196279089565286,0.14879488798967616,0.17838014597795054,0.031851689812386716,0.1450473930970999,-0.27013567709966385,-0.22401588640982165,-1.4304449625484696,-1.456870439357025,0.7386686561130809,0.7564372054797402,1.33104082825318,1.3540686284703258,-0.013905098019107876,-0.008438954625027528,0.0,0.017099894696221387
1782019314.4356706,240,1,8.37461589039391e-06,0.18,0.04048182119032863,0.14756271439154117,0.17813231247062108,0.03359913523897165,0.14523410311129992,-0.2785494048146121,-0.23629072950077076,-1.425994097641206,-1.456870439357025,0.7432887910187265,0.7564372054797402,1.3284420906453998,1.3525342730839574,-0.014362664237146616,-0.008438954625027528,0.0,0.017099894696221387
1782019314.4624674,241,1,8.415494730991415e-06,0.18,0.041672857910052714,0.14624402015798793,0.17812285816037182,0.03495669057158397,0.14560824382872162,-0.28630889557440975,-0.24549686181898261,-1.4213907133666113,-1.456870439357025,0.7481680733329003,0.7564372054797402,1.325898742244259,1.34946556231122,-0.014783912112345947,-0.008438954625027528,0.0,0.017099894696221387
1782019314.5060802,242,1,8.423998888454905e-06,0.18,0.04276138953890947,0.14484638044188475,0.1783251851239598,0.03660414543254911,0.14564768132926564,-0.29336997713995683,-0.2562373495235631,-1.4166652838765397,-1.452267373197919,0.7532786667268441,0.7564372054797402,1.323429084335818,1.344862496152114,-0.015166650378563186,-0.008438954625027528,0.0,0.017099894696221387
1782019314.5308726,243,1,8.398921786353575e-06,0.18,0.0437400623316698,0.14337761034718355,0.17829289276720223,0.0375119278118117,0.14566020861243698,-0.29969310746563305,-0.26237477106903767,-1.411848344351611,-1.4507330178115505,0.7585922992863756,0.7564372054797402,1.3210516428545227,1.3433281407657454,-0.015508946145449676,-0.008438954625027528,0.0,0.017099894696221387
1782019314.565318,244,1,8.339790701121922e-06,0.18,0.04460223150221273,0.14184566023997722,0.17816201180504446,0.03842032858272283,0.144794513261002,-0.3052434423674363,-0.26851219261451226,-1.4069699789067187,-1.4461299516524446,0.7640806459803788,0.7579715608661088,1.3187848088557872,1.3433281407657454,-0.015809120323389436,-0.01150766539776481,0.0,0.017099894696221387
1782019314.6012523,245,1,8.24704269788397e-06,0.18,0.045342018187926846,0.1402585136238321,0.1783844715577004,0.039867284343512624,0.14482681145714849,-0.3099908611174478,-0.2777183249327241,-1.4020593101569367,-1.4415268854933387,0.7697157027592954,0.7579715608661088,1.3166464222046488,1.3387250746066395,-0.016065741004169833,-0.01150766539776481,0.0,0.017099894696221387
1782019314.6442428,246,1,8.122185375426021e-06,0.18,0.045954359880372775,0.13862408902148413,0.1786968942375562,0.04111930151223881,0.14467931923570537,-0.31390996105996266,-0.28539010186456726,-1.3971440025154205,-1.4353894639478642,0.7754701473529758,0.7579715608661088,1.3146533093444663,1.3341220084475336,-0.01627761569931454,-0.01150766539776481,0.0,0.017099894696221387
1782019314.6747644,247,1,7.96793301860479e-06,0.18,0.04643505387630804,0.1369501472146304,0.178541467843793,0.0417732016127209,0.1436405760608565,-0.3169800320025419,-0.28999316802367325,-1.392249791718102,-1.4323207531751267,0.781317682141985,0.7610402716388461,1.3128207890064745,1.3341220084475336,-0.01644378328591194,-0.01150766539776481,0.0,0.017099894696221387
1782019314.7109768,248,1,7.78830899839202e-06,0.18,0.046780793364864744,0.13524420508381257,0.17856113401318335,0.04201270335713115,0.14089802586133068,-0.3191850202973218,-0.2915275234100419,-1.3874000530551707,-1.4277176870160206,0.787233354773918,0.7717807593434266,1.3111621622797116,1.332587653061165,-0.016563506395953935,-0.01150766539776481,0.0,0.017099894696221387
1782019314.7457929,249,1,7.58870187546859e-06,0.18,0.046989195831767944,0.13351345716317523,0.1787003586215112,0.04205448837038318,0.1386607050192996,-0.3205134912547318,-0.2915275234100419,-1.3826154203381609,-1.421580265470546,0.7931938524952762,0.7794525362752698,1.309688205374264,1.3310532976747964,-0.016636264891794282,-0.01150766539776481,0.0,0.017099894696221387
1782019314.7809916,250,1,7.375860469255289e-06,0.18,0.047058823529411764,0.13176470588235292,0.179038041583415,0.04192140259449543,0.13712047514703762,-0.3209585969453147,-0.28999316802367325,-1.3779134667248094,-1.4169771993114402,0.7991777664012306,0.7855899578207445,1.3084066846395364,1.327984586902059,-0.016661750917152787,-0.01150766539776481,0.0,0.017099894696221387
1782019314.8209817,251,1,7.157807150344694e-06,0.18,0.046989195831767944,0.130004301312277,0.1793872904998599,0.041790835646168,0.13539767082850482,-0.32051805459968963,-0.2884588126373046,-1.3733084571303316,-1.4108397777659656,0.8051658220005449,0.791727379366219,1.307321913824103,1.3249158761293218,-0.016639865872001385,-0.01150766539776481,0.0,0.017099894696221387
1782019314.8511744,252,1,6.943643715128381e-06,0.18,0.046780793364864744,0.12823809106585657,0.17910773182477072,0.042411504150045534,0.1334956661290413,-0.3191941388025947,-0.2930618787964105,-1.3688111801128864,-1.4062367116068597,0.8111410726209316,0.7978648009116935,1.3064343731679984,1.3249158761293218,-0.016570719512806205,-0.01150766539776481,0.0,0.017099894696221387
1782019314.8899162,253,1,6.743220290838134e-06,0.18,0.04643505387630804,0.12647138083098836,0.17880304568711727,0.04302361502418217,0.1315960500205678,-0.316993688567685,-0.29766494495551643,-1.3644288648829732,-1.4016336454477538,0.817089052304185,0.804002222457168,1.305740408654512,1.3249158761293218,-0.01645463122767627,-0.01150766539776481,0.0,0.017099894696221387
1782019314.9233544,254,1,6.566645791386356e-06,0.18,0.045954359880372754,0.12470890583498229,0.17865610484464312,0.04321341626081587,0.13003964502397253,-0.3139281282348246,-0.2991993003418851,-1.3601651864992823,-1.397030579288648,0.8229978849630046,0.808605288616274,1.3052320276972587,1.3249158761293218,-0.016292133382503706,-0.01150766539776481,0.0,0.017099894696221387
1782019314.9512174,255,1,6.423641298477473e-06,0.18,0.045342018187926825,0.12295481335911389,0.17854195596730302,0.043178208857844916,0.12866282562862041,-0.3100134990228473,-0.2991993003418851,-1.3560203594949556,-1.3939618685159108,0.8288583467739256,0.8132083547753799,1.304896804672176,1.3249158761293218,-0.016083976489363445,-0.01150766539776481,0.0,0.017099894696221387
1782019314.9886265,256,1,6.322786684624717e-06,0.18,0.044602231502212715,0.12121265624249243,0.17829264850546306,0.043101313727199886,0.1257368691638197,-0.3052704960531988,-0.2991993003418851,-1.3519913172318125,-1.3862900915840675,0.834663879106418,0.8224144870935918,1.3047179061972178,1.3249158761293218,-0.0158311358048427,-0.01150766539776481,0.0,0.017099894696221387
1782019315.022918,257,1,6.270775508040036e-06,0.18,0.0437400623316698,0.11948539713858941,0.17815864259134478,0.04282594139630745,0.12384977209086953,-0.2997245038245856,-0.29766494495551643,-1.3480719713664233,-1.3816870254249616,0.8404105498001148,0.8285519086390664,1.304674241984757,1.3249158761293218,-0.015534818844458469,-0.01150766539776481,0.0,0.017099894696221387
1782019315.0590794,258,1,6.271843557088985e-06,0.18,0.04276138953890947,0.11777542311835244,0.17806590967861696,0.04256383126224793,0.12230433756994147,-0.29340562151516825,-0.2961305895691478,-1.3442535430697993,-1.3770839592658557,0.846096961359467,0.8331549747981722,1.304740742616708,1.3249158761293218,-0.015196473171720667,-0.01150766539776481,0.0,0.017099894696221387
1782019315.0926363,259,1,6.327532232431527e-06,0.18,0.041672857910052714,0.11608457005345324,0.17789190423099716,0.04251074480761911,0.12076154407802317,-0.28634866822945115,-0.2961305895691478,-1.3405249552128915,-1.3724808931067498,0.8517241056307913,0.8377580409572782,1.3048887609166175,1.3249158761293218,-0.014817793714552083,-0.01150766539776481,0.0,0.017099894696221387
1782019315.1287549,260,1,6.4368644767476985e-06,0.18,0.04048182119032863,0.11441415606433993,0.1776287775338193,0.042430467117086555,0.11906097274862465,-0.27859315745562774,-0.2961305895691478,-1.3368732727764356,-1.3694121823340124,0.8572951658080394,0.8438954625027527,1.3050865889054026,1.3249158761293218,-0.014400728806513415,-0.01150766539776481,0.0,0.017099894696221387
1782019315.157812,261,1,6.596877556429243e-06,0.18,0.03919627908956527,0.11276502318263688,0.1773497983174499,0.04234535314405117,0.11718835957837341,-0.2701832296555477,-0.2961305895691478,-1.3332841773185111,-1.3648091161749065,0.8628152680894373,0.8500328840482273,1.3053000778418233,1.3249158761293218,-0.01394748407723818,-0.01150766539776481,0.0,0.017099894696221387
1782019315.1898806,262,1,6.803347381044069e-06,0.18,0.03782480881446855,0.11113758625807321,0.17705053243607483,0.04225404905911395,0.11549554328251538,-0.2611675321471979,-0.2961305895691478,-1.329742460593368,-1.3617404054021693,0.8682911869700748,0.8561703055937019,1.3054933448085104,1.3249158761293218,-0.01346052332632982,-0.01150766539776481,0.0,0.017099894696221387
